<?xml version="1.0" encoding="UTF-8"?>
<map version="1.10" tiledversion="2026.02.20" orientation="orthogonal" renderorder="right-down" compressionlevel="0" width="28" height="34" tilewidth="16" tileheight="16" infinite="0" nextlayerid="10" nextobjectid="1">
 <tileset firstgid="1" name="p" tilewidth="16" tileheight="16" tilecount="64" columns="4">
  <image source="paths" width="64" height="256"/>
 </tileset>
 <tileset firstgid="65" name="untitled tile sheet" tilewidth="16" tileheight="16" tilecount="240" columns="15">
  <image source="bathhouse_tiles" width="240" height="256"/>
 </tileset>
 <tileset firstgid="305" name="z_dataValues3d" tilewidth="16" tileheight="16" tilecount="512" columns="32">
  <image source="ThirdDimensionData/data.png" width="512" height="256"/>
 </tileset>
 <layer id="1" name="kittycatcasey.Stardew3D/Ceiling" width="28" height="34" visible="0">
  <data encoding="csv">
0,0,0,0,0,0,0,0,0,0,0,0,0,0,0,0,0,0,0,0,0,0,0,0,0,0,0,0,
0,0,0,0,0,172,172,172,0,0,0,0,0,0,0,0,0,0,0,0,172,172,172,0,0,0,0,0,
0,0,0,0,0,172,172,172,0,0,0,0,0,0,0,0,0,0,0,0,172,172,172,0,0,0,0,0,
0,172,172,172,0,172,172,172,0,172,172,172,172,172,172,172,172,172,172,0,172,172,172,0,172,172,172,0,
0,172,172,172,172,172,172,172,172,172,172,172,172,172,172,172,172,172,172,172,172,172,172,172,172,172,172,0,
0,172,172,172,172,172,172,172,172,172,172,172,172,172,172,172,172,172,172,172,172,172,172,172,172,172,172,0,
0,172,172,172,172,172,172,172,172,172,172,172,172,172,172,172,172,172,172,172,172,172,172,172,172,172,172,0,
0,172,172,172,172,172,172,172,172,172,172,172,172,172,172,172,172,172,172,172,172,172,172,172,172,172,172,0,
0,172,172,172,172,172,172,172,172,172,172,172,172,172,172,172,172,172,172,172,172,172,172,172,172,172,172,0,
0,172,172,172,172,172,172,172,172,172,172,172,172,172,172,172,172,172,172,172,172,172,172,172,172,172,172,0,
0,172,172,172,172,172,172,172,172,172,172,172,172,172,172,172,172,172,172,172,172,172,172,172,172,172,172,0,
0,172,172,172,172,172,172,172,172,172,172,172,172,172,172,172,172,172,172,172,172,172,172,172,172,172,172,0,
0,172,172,172,172,172,172,172,172,172,172,172,172,172,172,172,172,172,172,172,172,172,172,172,172,172,172,0,
0,172,172,172,172,172,172,172,172,172,172,172,172,172,172,172,172,172,172,172,172,172,172,172,172,172,172,0,
0,172,172,172,172,172,172,172,172,172,172,172,172,172,172,172,172,172,172,172,172,172,172,172,172,172,172,0,
0,172,172,172,172,172,172,172,172,172,172,172,172,172,172,172,172,172,172,172,172,172,172,172,172,172,172,0,
0,172,172,172,172,172,172,172,172,172,172,172,172,172,172,172,172,172,172,172,172,172,172,172,172,172,172,0,
0,172,172,172,172,172,172,172,172,172,172,172,172,172,172,172,172,172,172,172,172,172,172,172,172,172,172,0,
0,172,172,172,172,172,172,172,172,172,172,172,172,172,172,172,172,172,172,172,172,172,172,172,172,172,172,0,
0,172,172,172,172,172,172,172,172,172,172,172,172,172,172,172,172,172,172,172,172,172,172,172,172,172,172,0,
0,172,172,172,172,172,172,172,172,172,172,172,172,172,172,172,172,172,172,172,172,172,172,172,172,172,172,0,
0,0,0,0,0,0,0,0,0,0,0,172,172,172,172,172,172,0,0,0,0,0,0,0,0,0,0,0,
0,0,0,0,0,0,0,0,0,0,0,172,172,172,172,172,172,0,0,0,0,0,0,0,0,0,0,0,
0,0,0,0,0,0,0,0,0,0,0,172,172,172,172,172,172,0,0,0,0,0,0,0,0,0,0,0,
0,0,0,172,172,172,172,172,172,172,172,172,172,172,172,172,172,172,172,172,172,172,172,172,172,0,0,0,
0,0,0,172,172,172,172,172,172,172,172,172,172,172,172,172,172,172,172,172,172,172,172,172,172,0,0,0,
0,0,0,172,172,172,172,172,172,172,172,172,172,172,172,172,172,172,172,172,172,172,172,172,172,0,0,0,
0,0,0,172,172,172,172,172,172,172,172,172,172,172,172,172,172,172,172,172,172,172,172,172,172,0,0,0,
0,0,0,172,172,172,172,172,172,172,172,172,172,172,172,172,172,172,172,172,172,172,172,172,172,0,0,0,
0,0,0,172,172,172,172,172,172,172,172,172,172,172,172,172,172,172,172,172,172,172,172,172,172,0,0,0,
0,0,0,172,172,172,172,172,172,172,172,172,172,172,172,172,172,172,172,172,172,172,172,172,172,0,0,0,
0,0,0,172,172,172,172,172,172,172,172,172,172,172,172,172,172,172,172,172,172,172,172,172,172,0,0,0,
0,0,0,172,172,172,172,172,172,172,172,172,172,172,172,172,172,172,172,172,172,172,172,172,172,0,0,0,
0,0,0,0,0,172,172,172,172,172,172,172,172,172,172,172,172,172,172,172,172,172,172,0,0,0,0,0
</data>
 </layer>
 <layer id="9" name="kittycatcasey.Stardew3D/Water" width="28" height="34" visible="0">
  <data encoding="csv">
0,0,0,0,0,0,0,0,0,0,0,0,0,0,0,0,0,0,0,0,0,0,0,0,0,0,0,0,
0,0,0,0,0,0,0,0,0,0,0,0,0,0,0,0,0,0,0,0,0,0,0,0,0,0,0,0,
0,0,0,0,0,0,0,0,0,0,0,0,0,0,0,0,0,0,0,0,0,0,0,0,0,0,0,0,
0,0,0,0,0,0,0,0,0,0,0,0,0,0,0,0,0,0,0,0,0,0,0,0,0,0,0,0,
0,0,0,0,0,0,0,0,0,0,0,0,0,0,0,0,0,0,0,0,0,0,0,0,0,0,0,0,
0,0,0,0,0,0,0,0,0,0,0,0,0,0,0,0,0,0,0,0,0,0,0,0,0,0,0,0,
0,0,0,0,0,0,0,0,0,0,0,0,0,0,0,0,0,0,0,0,0,0,0,0,0,0,0,0,
0,0,0,0,0,0,0,0,0,0,0,0,0,0,0,0,0,0,0,0,0,0,0,0,0,0,0,0,
0,0,0,0,173,173,173,173,173,0,0,0,0,0,0,0,0,0,0,173,173,173,173,173,0,0,0,0,
0,0,0,0,173,173,173,173,173,0,0,0,0,0,0,0,0,0,0,173,173,173,173,173,0,0,0,0,
0,0,0,0,173,173,173,173,173,0,0,0,0,0,0,0,0,0,0,173,173,173,173,173,0,0,0,0,
0,0,0,0,173,173,173,173,173,173,173,173,173,173,173,173,173,173,173,173,173,173,173,173,0,0,0,0,
0,0,0,0,173,173,173,173,173,173,173,173,173,173,173,173,173,173,173,173,173,173,173,173,0,0,0,0,
0,0,0,0,173,173,173,173,173,173,173,173,173,173,173,173,173,173,173,173,173,173,173,173,0,0,0,0,
0,0,0,0,173,173,173,173,173,173,173,173,173,173,173,173,173,173,173,173,173,173,173,173,0,0,0,0,
0,0,0,0,173,173,173,173,173,173,173,173,173,173,173,173,173,173,173,173,173,173,173,173,0,0,0,0,
0,0,0,0,173,173,173,173,173,173,173,173,173,173,173,173,173,173,173,173,173,173,173,173,0,0,0,0,
0,0,0,0,173,173,173,173,173,173,173,173,173,173,173,173,173,173,173,173,173,173,173,173,0,0,0,0,
0,0,0,0,173,173,173,173,173,173,173,173,173,173,173,173,173,173,173,173,173,173,173,173,0,0,0,0,
0,0,0,0,173,173,173,173,173,173,173,173,173,173,173,173,173,173,173,173,173,173,173,173,0,0,0,0,
0,0,0,0,0,0,0,0,0,0,0,0,173,173,173,173,0,0,0,0,0,0,0,0,0,0,0,0,
0,0,0,0,0,0,0,0,0,0,0,0,173,173,173,173,0,0,0,0,0,0,0,0,0,0,0,0,
0,0,0,0,0,0,0,0,0,0,0,0,173,173,173,173,0,0,0,0,0,0,0,0,0,0,0,0,
0,0,0,0,0,0,0,0,0,0,0,0,173,173,173,173,0,0,0,0,0,0,0,0,0,0,0,0,
0,0,0,0,0,0,0,0,0,0,0,0,173,173,173,173,0,0,0,0,0,0,0,0,0,0,0,0,
0,0,0,0,0,0,0,0,0,0,0,0,173,173,173,173,0,0,0,0,0,0,0,0,0,0,0,0,
0,0,0,0,0,173,173,173,173,173,173,173,173,173,173,173,173,173,173,173,173,173,173,0,0,0,0,0,
0,0,0,0,0,173,173,173,173,173,173,173,173,173,173,173,173,173,173,173,173,173,173,0,0,0,0,0,
0,0,0,0,0,173,173,173,173,173,173,173,173,173,173,173,173,173,173,173,173,173,173,0,0,0,0,0,
0,0,0,0,0,173,173,173,173,173,173,173,173,173,173,173,173,173,173,173,173,173,173,0,0,0,0,0,
0,0,0,0,0,173,173,173,173,173,173,173,173,173,173,173,173,173,173,173,173,173,173,0,0,0,0,0,
0,0,0,0,0,173,173,173,173,173,173,173,173,173,173,173,173,173,173,173,173,173,173,0,0,0,0,0,
0,0,0,0,0,173,173,173,173,173,173,173,173,173,173,173,173,173,173,173,173,173,173,0,0,0,0,0,
0,0,0,0,0,0,0,0,0,0,0,0,0,0,0,0,0,0,0,0,0,0,0,0,0,0,0,0
</data>
 </layer>
 <layer id="2" name="kittycatcasey.Stardew3D/FloorData_Center" width="28" height="34" visible="0">
  <data encoding="csv">
0,0,0,0,0,0,0,0,0,0,0,0,0,0,0,0,0,0,0,0,0,0,0,0,0,0,0,0,
0,0,0,0,0,305,305,305,0,0,0,0,0,0,0,0,0,0,0,0,305,305,305,0,0,0,0,0,
0,0,0,0,0,305,305,305,0,0,0,0,0,0,0,0,0,0,0,0,305,305,305,0,0,0,0,0,
0,305,305,305,0,305,305,305,0,305,305,305,305,305,305,305,305,305,305,0,305,305,305,0,305,305,305,0,
0,305,305,305,305,305,305,305,305,305,305,305,305,305,305,305,305,305,305,305,305,305,305,305,305,305,305,0,
0,305,305,305,305,305,305,305,305,305,305,305,305,305,305,305,305,305,305,305,305,305,305,305,305,305,305,0,
0,305,305,305,305,305,305,305,305,305,305,305,305,305,305,305,305,305,305,305,305,305,305,305,305,305,305,0,
0,305,305,305,305,305,305,305,305,305,305,305,305,305,305,305,305,305,305,305,305,305,305,305,305,305,305,0,
0,305,305,305,385,385,385,385,385,305,305,305,305,305,305,305,305,305,305,385,385,385,385,385,305,305,305,0,
0,305,305,305,385,385,385,385,385,305,305,305,305,305,305,305,305,305,305,385,385,385,385,385,305,305,305,0,
0,305,305,305,385,385,385,385,385,305,305,305,305,305,305,305,305,305,305,385,385,385,385,385,305,305,305,0,
0,305,305,305,385,385,385,385,385,385,385,385,385,385,385,385,385,385,385,385,385,385,385,385,305,305,305,0,
0,305,305,305,385,385,385,385,385,385,385,385,385,385,385,385,385,385,385,385,385,385,385,385,305,305,305,0,
0,305,305,305,385,385,385,385,385,385,385,385,385,385,385,385,385,385,385,385,385,385,385,385,305,305,305,0,
0,305,305,305,385,385,385,385,385,385,385,385,385,385,385,385,385,385,385,385,385,385,385,385,305,305,305,0,
0,305,305,305,385,385,385,385,385,385,385,385,385,385,385,385,385,385,385,385,385,385,385,385,305,305,305,0,
0,305,305,305,385,385,385,385,385,385,385,385,385,385,385,385,385,385,385,385,385,385,385,385,305,305,305,0,
0,305,305,305,385,385,385,385,385,385,385,385,385,385,385,385,385,385,385,385,385,385,385,385,305,305,305,0,
0,305,305,305,385,385,385,385,385,385,385,385,385,385,385,385,385,385,385,385,385,385,385,385,305,305,305,0,
0,305,305,305,385,385,385,385,385,385,385,385,385,385,385,385,385,385,385,385,385,385,385,385,305,305,305,0,
0,305,305,305,305,305,305,305,305,305,305,305,385,385,385,385,305,305,305,305,305,305,305,305,305,305,305,0,
0,0,0,0,0,0,0,0,0,0,0,305,385,385,385,385,305,0,0,0,0,0,0,0,0,0,0,0,
0,0,0,0,0,0,0,0,0,0,0,305,385,385,385,385,305,0,0,0,0,0,0,0,0,0,0,0,
0,0,0,0,0,0,0,0,0,0,0,305,385,385,385,385,305,0,0,0,0,0,0,0,0,0,0,0,
0,0,0,305,305,305,305,305,305,305,305,305,385,385,385,385,305,305,305,305,305,305,305,305,305,0,0,0,
0,0,0,305,305,305,305,305,305,305,305,305,385,385,385,385,305,305,305,305,305,305,305,305,305,0,0,0,
0,0,0,305,305,385,385,385,385,385,385,385,385,385,385,385,385,385,385,385,385,385,385,305,305,0,0,0,
0,0,0,305,305,385,385,385,385,385,385,385,385,385,385,385,385,385,385,385,385,385,385,305,305,0,0,0,
0,0,0,305,305,385,385,385,385,385,385,385,385,385,385,385,385,385,385,385,385,385,385,305,305,0,0,0,
0,0,0,305,305,385,385,385,385,385,385,385,385,385,385,385,385,385,385,385,385,385,385,305,305,0,0,0,
0,0,0,305,305,385,385,385,385,385,385,385,385,385,385,385,385,385,385,385,385,385,385,305,305,0,0,0,
0,0,0,305,305,385,385,385,385,385,385,385,385,385,385,385,385,385,385,385,385,385,385,305,305,0,0,0,
0,0,0,305,305,385,385,385,385,385,385,385,385,385,385,385,385,385,385,385,385,385,385,305,305,0,0,0,
0,0,0,0,0,305,305,305,305,305,305,305,305,305,305,305,305,305,305,305,305,305,305,0,0,0,0,0
</data>
 </layer>
 <layer id="3" name="kittycatcasey.Stardew3D/WaterData_Center" width="28" height="34" visible="0">
  <data encoding="csv">
0,0,0,0,0,0,0,0,0,0,0,0,0,0,0,0,0,0,0,0,0,0,0,0,0,0,0,0,
0,0,0,0,0,0,0,0,0,0,0,0,0,0,0,0,0,0,0,0,0,0,0,0,0,0,0,0,
0,0,0,0,0,0,0,0,0,0,0,0,0,0,0,0,0,0,0,0,0,0,0,0,0,0,0,0,
0,0,0,0,0,0,0,0,0,0,0,0,0,0,0,0,0,0,0,0,0,0,0,0,0,0,0,0,
0,0,0,0,0,0,0,0,0,0,0,0,0,0,0,0,0,0,0,0,0,0,0,0,0,0,0,0,
0,0,0,0,0,0,0,0,0,0,0,0,0,0,0,0,0,0,0,0,0,0,0,0,0,0,0,0,
0,0,0,0,0,0,0,0,0,0,0,0,0,0,0,0,0,0,0,0,0,0,0,0,0,0,0,0,
0,0,0,0,0,0,0,0,0,0,0,0,0,0,0,0,0,0,0,0,0,0,0,0,0,0,0,0,
0,0,0,0,326,326,326,326,326,0,0,0,0,0,0,0,0,0,0,326,326,326,326,326,0,0,0,0,
0,0,0,0,326,326,326,326,326,0,0,0,0,0,0,0,0,0,0,326,326,326,326,326,0,0,0,0,
0,0,0,0,326,326,326,326,326,0,0,0,0,0,0,0,0,0,0,326,326,326,326,326,0,0,0,0,
0,0,0,0,326,326,326,326,326,326,326,326,326,326,326,326,326,326,326,326,326,326,326,326,0,0,0,0,
0,0,0,0,326,326,326,326,326,326,326,326,326,326,326,326,326,326,326,326,326,326,326,326,0,0,0,0,
0,0,0,0,326,326,326,326,326,326,326,326,326,326,326,326,326,326,326,326,326,326,326,326,0,0,0,0,
0,0,0,0,326,326,326,326,326,326,326,326,326,326,326,326,326,326,326,326,326,326,326,326,0,0,0,0,
0,0,0,0,326,326,326,326,326,326,326,326,326,326,326,326,326,326,326,326,326,326,326,326,0,0,0,0,
0,0,0,0,326,326,326,326,326,326,326,326,326,326,326,326,326,326,326,326,326,326,326,326,0,0,0,0,
0,0,0,0,326,326,326,326,326,326,326,326,326,326,326,326,326,326,326,326,326,326,326,326,0,0,0,0,
0,0,0,0,326,326,326,326,326,326,326,326,326,326,326,326,326,326,326,326,326,326,326,326,0,0,0,0,
0,0,0,0,326,326,326,326,326,326,326,326,326,326,326,326,326,326,326,326,326,326,326,326,0,0,0,0,
0,0,0,0,0,0,0,0,0,0,0,0,326,326,326,326,0,0,0,0,0,0,0,0,0,0,0,0,
0,0,0,0,0,0,0,0,0,0,0,0,326,326,326,326,0,0,0,0,0,0,0,0,0,0,0,0,
0,0,0,0,0,0,0,0,0,0,0,0,326,326,326,326,0,0,0,0,0,0,0,0,0,0,0,0,
0,0,0,0,0,0,0,0,0,0,0,0,326,326,326,326,0,0,0,0,0,0,0,0,0,0,0,0,
0,0,0,0,0,0,0,0,0,0,0,0,326,326,326,326,0,0,0,0,0,0,0,0,0,0,0,0,
0,0,0,0,0,0,0,0,0,0,0,0,326,326,326,326,0,0,0,0,0,0,0,0,0,0,0,0,
0,0,0,0,0,326,326,326,326,326,326,326,326,326,326,326,326,326,326,326,326,326,326,0,0,0,0,0,
0,0,0,0,0,326,326,326,326,326,326,326,326,326,326,326,326,326,326,326,326,326,326,0,0,0,0,0,
0,0,0,0,0,326,326,326,326,326,326,326,326,326,326,326,326,326,326,326,326,326,326,0,0,0,0,0,
0,0,0,0,0,326,326,326,326,326,326,326,326,326,326,326,326,326,326,326,326,326,326,0,0,0,0,0,
0,0,0,0,0,326,326,326,326,326,326,326,326,326,326,326,326,326,326,326,326,326,326,0,0,0,0,0,
0,0,0,0,0,326,326,326,326,326,326,326,326,326,326,326,326,326,326,326,326,326,326,0,0,0,0,0,
0,0,0,0,0,326,326,326,326,326,326,326,326,326,326,326,326,326,326,326,326,326,326,0,0,0,0,0,
0,0,0,0,0,0,0,0,0,0,0,0,0,0,0,0,0,0,0,0,0,0,0,0,0,0,0,0
</data>
 </layer>
 <layer id="4" name="kittycatcasey.Stardew3D/CeilingData_Center" width="28" height="34" visible="0">
  <data encoding="csv">
0,0,0,0,0,0,0,0,0,0,0,0,0,0,0,0,0,0,0,0,0,0,0,0,0,0,0,0,
0,0,0,0,0,401,401,401,0,0,0,0,0,0,0,0,0,0,0,0,401,401,401,0,0,0,0,0,
0,0,0,0,0,401,401,401,0,0,0,0,0,0,0,0,0,0,0,0,401,401,401,0,0,0,0,0,
0,401,401,401,0,401,401,401,0,401,401,401,401,401,401,401,401,401,401,0,401,401,401,0,401,401,401,0,
0,401,401,401,401,401,401,401,401,401,401,401,401,401,401,401,401,401,401,401,401,401,401,401,401,401,401,0,
0,401,401,401,401,401,401,401,401,401,401,401,401,401,401,401,401,401,401,401,401,401,401,401,401,401,401,0,
0,401,401,401,401,401,401,401,401,401,401,401,401,401,401,401,401,401,401,401,401,401,401,401,401,401,401,0,
0,401,401,401,401,401,401,401,401,401,401,401,401,401,401,401,401,401,401,401,401,401,401,401,401,401,401,0,
0,401,401,401,401,401,401,401,401,401,401,401,401,401,401,401,401,401,401,401,401,401,401,401,401,401,401,0,
0,401,401,401,401,401,401,401,401,401,401,401,401,401,401,401,401,401,401,401,401,401,401,401,401,401,401,0,
0,401,401,401,401,401,401,401,401,401,401,401,401,401,401,401,401,401,401,401,401,401,401,401,401,401,401,0,
0,401,401,401,401,401,401,401,401,401,401,401,401,401,401,401,401,401,401,401,401,401,401,401,401,401,401,0,
0,401,401,401,401,401,401,401,401,401,401,401,401,401,401,401,401,401,401,401,401,401,401,401,401,401,401,0,
0,401,401,401,401,401,401,401,401,401,401,401,401,401,401,401,401,401,401,401,401,401,401,401,401,401,401,0,
0,401,401,401,401,401,401,401,401,401,401,401,401,401,401,401,401,401,401,401,401,401,401,401,401,401,401,0,
0,401,401,401,401,401,401,401,401,401,401,401,401,401,401,401,401,401,401,401,401,401,401,401,401,401,401,0,
0,401,401,401,401,401,401,401,401,401,401,401,401,401,401,401,401,401,401,401,401,401,401,401,401,401,401,0,
0,401,401,401,401,401,401,401,401,401,401,401,401,401,401,401,401,401,401,401,401,401,401,401,401,401,401,0,
0,401,401,401,401,401,401,401,401,401,401,401,401,401,401,401,401,401,401,401,401,401,401,401,401,401,401,0,
0,401,401,401,401,401,401,401,401,401,401,401,401,401,401,401,401,401,401,401,401,401,401,401,401,401,401,0,
0,401,401,401,401,401,401,401,401,401,401,401,401,401,401,401,401,401,401,401,401,401,401,401,401,401,401,0,
0,0,0,0,0,0,0,0,0,0,0,401,401,401,401,401,401,0,0,0,0,0,0,0,0,0,0,0,
0,0,0,0,0,0,0,0,0,0,0,401,401,401,401,401,401,0,0,0,0,0,0,0,0,0,0,0,
0,0,0,0,0,0,0,0,0,0,0,401,401,401,401,401,401,0,0,0,0,0,0,0,0,0,0,0,
0,0,0,401,401,401,401,401,401,401,401,401,401,401,401,401,401,401,401,401,401,401,401,401,401,0,0,0,
0,0,0,401,401,401,401,401,401,401,401,401,401,401,401,401,401,401,401,401,401,401,401,401,401,0,0,0,
0,0,0,401,401,401,401,401,401,401,401,401,401,401,401,401,401,401,401,401,401,401,401,401,401,0,0,0,
0,0,0,401,401,401,401,401,401,401,401,401,401,401,401,401,401,401,401,401,401,401,401,401,401,0,0,0,
0,0,0,401,401,401,401,401,401,401,401,401,401,401,401,401,401,401,401,401,401,401,401,401,401,0,0,0,
0,0,0,401,401,401,401,401,401,401,401,401,401,401,401,401,401,401,401,401,401,401,401,401,401,0,0,0,
0,0,0,401,401,401,401,401,401,401,401,401,401,401,401,401,401,401,401,401,401,401,401,401,401,0,0,0,
0,0,0,401,401,401,401,401,401,401,401,401,401,401,401,401,401,401,401,401,401,401,401,401,401,0,0,0,
0,0,0,401,401,401,401,401,401,401,401,401,401,401,401,401,401,401,401,401,401,401,401,401,401,0,0,0,
0,0,0,0,0,401,401,401,401,401,401,401,401,401,401,401,401,401,401,401,401,401,401,0,0,0,0,0
</data>
 </layer>
 <objectgroup id="5" name="kittycatcasey.Stardew3D/Ceiling" visible="0"/>
 <objectgroup id="6" name="kittycatcasey.Stardew3D/FloorData_Center" visible="0"/>
 <objectgroup id="7" name="kittycatcasey.Stardew3D/WaterData_Center" visible="0"/>
 <objectgroup id="8" name="kittycatcasey.Stardew3D/CeilingData_Center" visible="0"/>
</map>
