<?xml version="1.0" encoding="UTF-8"?>
<map version="1.4" tiledversion="1.4.2" orientation="orthogonal" renderorder="right-down" compressionlevel="0" width="60" height="60" tilewidth="16" tileheight="16" infinite="0" nextlayerid="5" nextobjectid="1">
 
 <tileset firstgid="1" name="bugTiles" tilewidth="16" tileheight="16" tilecount="112" columns="8">
  <image source="bugLandTiles" width="128" height="224"/>
  <tile id="4">
   <properties>
    <property name="Water" value="T"/>
   </properties>
  </tile>
  <tile id="5">
   <properties>
    <property name="Water" value="T"/>
   </properties>
  </tile>
  <tile id="6">
   <properties>
    <property name="Water" value="T"/>
   </properties>
  </tile>
  <tile id="7">
   <properties>
    <property name="Water" value="T"/>
   </properties>
  </tile>
  <tile id="9">
   <properties>
    <property name="Type" value="Dirt"/>
   </properties>
  </tile>
  <tile id="10">
   <properties>
    <property name="Type" value="Dirt"/>
   </properties>
  </tile>
  <tile id="17">
   <properties>
    <property name="Type" value="Dirt"/>
   </properties>
  </tile>
  <tile id="18">
   <properties>
    <property name="Type" value="Dirt"/>
   </properties>
  </tile>
  <tile id="23">
   <properties>
    <property name="Water" value="T"/>
   </properties>
  </tile>
  <tile id="30">
   <properties>
    <property name="Water" value="T"/>
   </properties>
  </tile>
  <tile id="33">
   <properties>
    <property name="NoSpawn" value="All"/>
    <property name="Type" value="Stone"/>
   </properties>
  </tile>
  <tile id="34">
   <properties>
    <property name="NoSpawn" value="All"/>
    <property name="Type" value="Stone"/>
   </properties>
  </tile>
  <tile id="35">
   <properties>
    <property name="NoSpawn" value="All"/>
    <property name="Type" value="Stone"/>
   </properties>
  </tile>
  <tile id="39">
   <properties>
    <property name="Water" value="T"/>
   </properties>
  </tile>
  <tile id="55">
   <properties>
    <property name="Water" value="T"/>
   </properties>
  </tile>
  <tile id="63">
   <properties>
    <property name="Water" value="T"/>
   </properties>
  </tile>
  <tile id="71">
   <properties>
    <property name="Water" value="T"/>
   </properties>
  </tile>
 </tileset>
 <tileset firstgid="113" name="dataValues3d" tilewidth="16" tileheight="16" tilecount="512" columns="32">
  <image source="ThirdDimensionData/data" width="512" height="256"/>
 </tileset>
 <tileset firstgid="625" name="Paths" tilewidth="16" tileheight="16" tilecount="32" columns="4">
  <image source="paths" width="64" height="128"/>
 </tileset>
 <layer id="1" name="kittycatcasey.Stardew3D/FloorData_Center" width="60" height="60">
  <data encoding="csv">
161,161,161,161,161,161,161,161,161,161,161,161,161,161,161,161,161,161,161,161,161,161,161,161,161,161,161,161,161,161,161,161,161,161,161,161,161,161,161,161,161,161,161,161,161,161,161,161,161,161,161,161,161,161,161,161,161,161,161,161,
161,161,161,161,161,161,161,161,161,161,161,161,161,161,161,161,161,161,161,161,161,161,161,161,161,161,161,161,161,161,161,161,161,161,161,161,161,161,161,161,161,161,161,161,161,161,161,161,161,161,161,161,161,161,161,161,161,161,161,161,
161,161,161,161,161,161,161,161,161,161,161,161,161,161,161,161,161,161,161,161,161,161,161,161,161,161,161,161,161,161,161,161,161,161,161,161,161,161,161,161,161,161,161,161,161,161,161,161,161,161,161,161,161,161,161,161,161,161,161,161,
161,161,161,161,161,161,161,161,161,161,161,161,161,161,161,161,161,161,161,161,161,161,161,161,161,161,161,161,161,161,161,161,161,161,161,161,161,161,161,161,161,161,161,161,161,161,161,161,161,161,161,161,161,161,161,161,161,161,161,161,
161,161,161,161,161,161,161,161,161,161,161,161,161,161,161,161,161,161,161,161,161,161,161,161,161,161,161,161,113,113,113,113,113,113,113,161,161,161,161,161,113,113,161,161,161,161,161,161,161,161,161,161,161,161,161,161,161,161,161,161,
161,161,161,161,161,161,161,161,161,161,161,161,161,161,161,161,161,161,161,161,161,161,161,161,161,161,161,161,113,113,113,113,113,113,113,161,161,161,161,161,113,113,161,161,161,161,161,161,161,161,161,161,161,161,161,161,161,161,161,161,
161,161,161,161,161,161,161,161,161,161,161,161,161,161,161,161,161,161,161,161,161,161,161,161,161,161,113,113,113,113,113,113,113,113,113,113,113,161,161,161,161,161,161,161,161,161,161,161,161,161,161,161,161,161,161,161,161,161,161,161,
161,161,161,161,161,161,161,161,161,161,161,161,161,161,161,161,161,113,113,161,161,161,161,161,161,113,113,113,113,113,113,113,113,113,113,113,113,113,161,161,161,161,161,161,161,161,161,161,161,161,161,161,161,161,161,161,161,161,161,161,
161,161,161,161,161,161,161,161,161,161,161,161,161,161,161,161,161,113,113,161,161,161,161,161,161,113,113,113,113,113,113,113,113,113,113,113,113,113,161,161,161,161,161,161,161,161,161,161,161,161,161,161,161,161,161,161,161,161,161,161,
161,161,161,161,161,161,161,161,161,161,161,161,161,161,161,161,161,161,161,161,161,161,161,161,113,113,113,113,113,113,113,113,113,113,113,113,113,113,161,161,161,161,113,113,113,113,113,113,113,113,113,113,161,161,161,161,161,161,161,161,
161,161,161,161,161,161,161,161,161,161,161,161,161,161,161,161,161,161,161,161,161,161,161,161,113,113,113,113,113,113,113,113,113,113,113,113,113,113,161,161,113,113,113,113,113,113,113,113,113,113,113,113,113,161,161,161,161,161,161,161,
161,161,161,161,161,161,161,161,161,161,161,161,161,161,161,161,161,161,161,161,161,161,161,161,113,113,113,113,113,113,113,113,113,113,113,113,113,113,161,161,113,113,113,113,113,113,113,113,113,113,113,113,113,113,113,161,161,161,161,161,
161,161,161,161,161,161,161,161,161,161,161,161,161,161,161,161,161,161,161,161,161,161,161,161,113,113,113,113,113,113,113,113,113,113,113,113,113,113,161,113,113,113,113,113,113,113,113,113,113,113,113,113,113,113,113,161,161,161,161,161,
161,161,161,161,161,161,161,161,161,161,161,161,161,161,161,161,161,161,161,161,161,161,161,161,113,113,113,113,113,113,113,113,113,113,113,113,113,113,113,113,113,113,113,113,113,113,113,113,113,113,113,113,113,113,113,161,161,161,161,161,
161,161,161,161,161,161,161,161,161,161,161,161,161,161,161,161,161,161,161,161,161,161,161,113,113,113,113,113,113,113,113,113,113,113,113,113,113,113,113,113,113,113,113,113,113,113,113,113,113,113,113,113,113,113,113,161,161,161,161,161,
161,161,161,161,161,161,161,161,161,161,161,161,161,161,161,161,161,161,161,161,161,161,161,113,113,113,113,113,113,113,113,113,113,113,113,113,113,113,113,113,113,113,113,113,113,113,113,113,113,113,113,113,113,113,161,161,161,161,161,161,
161,161,161,161,161,161,161,161,161,161,161,161,161,161,161,161,161,161,161,161,161,161,113,113,113,113,113,113,161,161,161,161,161,161,161,161,113,113,113,113,113,113,113,113,113,113,113,113,113,113,113,113,113,113,161,161,161,161,161,161,
161,161,161,161,161,161,161,161,161,161,161,161,161,161,161,161,161,161,161,161,161,161,113,113,113,113,161,161,161,161,161,161,161,161,161,161,161,113,113,113,113,113,113,113,113,113,113,113,113,113,113,113,113,161,161,161,161,161,161,161,
161,161,161,161,161,161,161,161,161,161,161,161,161,113,113,161,161,161,161,161,161,161,113,113,113,161,161,161,161,161,161,161,161,161,161,161,161,113,113,113,113,113,113,113,113,113,113,113,113,113,113,113,113,161,161,161,161,161,161,161,
161,161,161,161,161,161,161,161,161,161,161,161,161,113,113,161,161,161,161,161,113,113,113,113,113,161,161,161,161,161,161,161,161,161,161,161,161,113,113,113,113,113,113,113,113,113,113,113,113,113,113,113,113,113,161,161,161,161,161,161,
161,161,161,161,161,161,161,161,161,161,161,161,161,161,161,161,161,161,161,113,113,113,113,113,113,161,161,161,161,161,161,161,161,161,161,161,161,113,113,113,113,113,113,113,113,113,113,113,113,113,113,113,113,113,113,161,161,161,161,161,
161,161,161,161,161,161,161,161,161,161,161,161,161,161,161,161,161,161,161,113,113,113,113,113,113,113,113,161,161,161,161,161,161,161,161,161,161,113,113,113,113,113,113,113,113,113,113,113,113,113,113,113,113,113,113,161,161,161,161,161,
161,161,161,161,161,161,161,161,161,161,161,161,161,161,161,161,161,161,161,113,113,113,113,113,113,113,113,161,161,161,161,161,161,161,161,161,161,113,113,113,113,113,113,113,113,113,113,113,113,113,113,113,113,113,113,161,161,161,161,161,
161,161,161,161,161,161,161,161,161,161,161,161,161,161,161,161,161,161,161,113,113,113,113,113,113,113,113,113,161,161,161,161,161,161,161,161,161,161,113,113,113,113,113,113,113,113,113,113,113,113,113,113,113,113,113,161,161,161,161,161,
161,161,161,161,161,161,161,161,161,161,161,161,161,161,161,161,161,113,113,113,113,113,113,113,113,113,113,113,161,161,161,161,161,161,161,161,161,161,161,161,161,113,113,113,113,113,113,113,113,113,113,113,113,113,113,161,161,161,161,161,
161,161,161,161,161,161,161,161,161,161,161,161,161,161,161,113,113,113,113,113,113,113,113,113,113,113,113,113,113,113,161,161,161,161,161,161,161,161,161,161,161,113,113,113,113,113,113,113,113,113,113,113,113,113,113,161,161,161,161,161,
161,161,161,161,161,161,161,161,161,161,161,161,161,161,161,113,113,113,113,113,113,113,113,113,113,113,113,113,113,113,161,161,161,113,113,113,113,161,161,161,161,113,113,113,113,113,113,113,113,113,113,113,113,113,113,161,161,161,161,161,
161,161,161,161,161,161,161,161,161,161,161,161,161,161,161,113,113,113,113,113,113,113,113,113,113,113,113,113,113,113,113,113,113,113,113,113,113,113,161,161,161,161,113,113,113,113,113,113,113,113,113,113,113,113,161,161,161,161,161,161,
161,161,161,161,161,161,161,161,161,161,161,161,161,161,161,113,113,113,113,113,113,113,161,161,161,113,113,113,113,113,113,113,113,113,113,113,113,113,113,113,113,113,113,113,113,113,113,113,161,161,161,161,161,161,161,161,161,161,161,161,
161,161,161,161,161,161,161,161,161,161,161,161,161,161,161,113,113,113,113,113,113,113,161,161,161,161,161,113,113,113,113,113,113,113,113,113,113,113,113,113,113,113,113,113,113,113,113,161,161,161,161,161,161,161,161,161,161,161,161,161,
161,161,161,161,161,161,161,161,161,161,161,161,161,161,161,113,113,113,113,113,113,161,161,161,161,161,161,161,161,161,161,113,113,113,113,113,113,113,161,161,161,161,161,161,161,161,161,161,161,161,161,161,161,161,161,161,161,161,161,161,
161,161,161,161,161,161,161,161,161,161,161,161,161,161,161,113,113,113,113,113,113,161,161,161,161,161,161,161,161,161,161,161,113,113,113,113,113,113,161,161,161,161,161,161,161,161,161,161,161,161,161,161,161,161,161,161,161,161,161,161,
161,161,161,161,161,161,161,161,161,161,161,161,161,161,161,161,113,113,113,113,161,161,161,161,161,161,161,161,161,161,161,161,113,113,113,113,113,161,161,161,161,161,161,161,161,161,161,161,161,161,161,161,161,161,161,161,161,161,161,161,
161,161,161,161,161,161,161,161,161,161,161,161,161,161,161,161,161,161,161,161,161,161,161,161,161,161,161,161,161,161,161,161,113,113,113,113,113,161,161,161,161,161,161,161,161,161,161,161,161,161,161,161,161,161,161,161,161,161,161,161,
161,161,161,161,161,161,161,161,161,161,161,161,161,161,161,161,161,161,161,161,161,161,161,161,161,161,161,161,161,161,161,113,113,113,113,113,113,113,161,161,161,161,161,161,161,113,113,161,161,161,161,161,161,161,161,161,161,161,161,161,
161,161,161,161,161,161,161,161,161,161,113,113,161,161,161,161,161,161,161,161,161,161,161,161,161,161,161,161,113,113,113,113,113,113,113,113,113,113,113,113,113,113,161,161,161,113,113,161,161,161,161,161,161,161,161,161,161,161,161,161,
161,161,161,161,161,161,161,161,161,161,113,113,113,113,113,113,161,161,161,161,161,161,161,161,161,161,113,113,113,113,113,113,113,113,177,177,113,113,113,113,113,113,113,161,161,161,161,161,161,161,161,161,161,161,161,161,161,161,161,161,
161,161,161,161,161,161,161,161,161,161,161,161,113,113,113,113,161,161,161,161,161,161,161,161,161,161,113,113,113,113,113,113,113,113,177,177,113,113,113,113,113,113,113,161,161,161,161,161,161,161,161,161,161,161,161,161,161,161,161,161,
161,161,161,161,161,161,161,161,161,161,161,161,113,113,161,161,161,161,161,161,161,161,161,161,161,113,113,113,113,113,113,113,113,113,113,113,113,113,113,113,113,113,113,161,161,161,161,161,161,161,161,161,161,161,161,161,161,161,161,161,
161,161,161,161,161,161,161,161,161,161,161,161,161,161,161,161,161,161,161,161,161,161,161,161,161,113,113,113,113,113,113,113,113,113,113,113,113,113,113,113,113,113,113,113,161,161,161,161,161,113,113,161,161,161,161,161,161,161,161,161,
161,161,161,161,161,161,161,161,161,161,161,161,161,161,161,161,161,161,161,161,161,161,161,161,161,113,113,177,177,177,177,113,113,113,113,113,113,113,113,113,113,113,113,113,113,113,161,161,161,113,113,161,161,161,161,161,161,161,161,161,
161,161,161,161,161,161,161,161,161,161,161,161,161,161,161,161,161,161,161,161,161,161,161,161,161,113,113,177,177,177,177,113,113,113,113,113,113,113,113,113,113,113,113,113,113,113,161,161,161,161,161,161,161,161,161,161,161,161,161,161,
161,161,161,161,161,161,161,161,161,161,161,161,161,161,161,161,161,161,161,161,161,161,161,161,161,113,113,177,177,177,177,113,113,113,177,177,177,177,177,177,113,113,113,113,113,113,161,161,161,161,161,161,161,161,161,161,161,161,161,161,
161,161,161,161,161,161,161,161,161,161,161,161,161,161,161,161,161,161,161,161,161,161,161,161,161,161,113,177,177,177,177,113,113,113,177,177,177,177,177,177,113,113,177,177,113,113,161,161,161,161,161,161,161,161,161,161,161,161,161,161,
161,161,161,161,161,161,161,161,161,161,113,113,161,161,161,161,161,161,161,161,161,161,161,161,161,161,113,113,113,113,113,113,113,113,177,177,177,177,177,177,113,113,177,177,113,113,113,113,113,113,113,161,161,161,161,161,161,161,161,161,
161,161,161,161,161,161,161,161,161,161,113,113,161,161,161,161,161,161,161,161,161,161,161,161,161,161,161,113,113,113,113,113,113,113,177,177,177,177,177,177,113,113,113,113,113,113,113,113,113,113,113,113,161,161,161,161,161,161,161,161,
161,161,161,161,161,161,161,161,161,161,161,161,161,161,161,161,113,113,113,113,113,113,161,161,161,161,161,113,113,113,113,113,113,113,177,177,177,177,177,177,113,113,113,113,113,113,113,113,113,113,113,113,161,161,161,161,161,161,161,161,
161,161,161,161,161,161,161,161,161,161,161,161,161,161,161,113,113,113,113,113,113,113,113,161,161,161,161,113,113,113,113,113,113,113,177,177,177,177,177,177,113,113,113,113,113,113,113,113,113,113,113,113,161,161,161,161,161,161,161,161,
161,161,161,161,161,161,161,161,161,161,161,161,161,161,161,113,113,113,113,113,113,113,113,161,161,161,161,113,113,113,113,113,113,113,113,113,113,113,113,113,113,113,113,113,113,113,113,113,113,113,113,161,161,161,161,161,161,161,161,161,
161,161,161,161,161,161,161,161,161,161,161,161,113,113,113,113,113,113,161,161,113,113,113,113,113,113,113,113,113,113,113,113,113,113,113,113,113,113,113,113,113,113,113,113,113,113,161,161,161,161,161,161,161,161,161,161,161,161,161,161,
161,161,161,161,161,161,161,161,161,161,161,113,113,113,113,113,113,161,161,161,113,113,113,113,113,113,113,113,113,113,113,113,113,113,113,113,113,113,113,113,113,113,113,113,113,161,161,161,161,161,161,161,161,161,161,161,161,161,161,161,
161,161,161,161,161,161,161,161,161,161,161,113,113,113,113,113,113,161,161,161,161,161,113,113,113,113,113,113,113,113,113,113,113,113,113,113,161,161,161,161,161,161,161,161,161,161,161,161,161,161,161,161,161,161,161,161,161,161,161,161,
161,161,161,161,161,161,161,161,161,161,161,161,113,113,113,113,113,161,161,161,161,161,113,113,113,113,113,113,113,113,113,113,113,161,161,161,161,161,161,161,161,161,161,161,161,161,161,161,161,161,161,161,161,161,161,161,161,161,161,161,
161,161,161,161,161,161,161,161,161,161,161,161,161,113,113,113,161,161,161,161,161,161,113,113,113,113,113,113,113,113,113,113,161,161,161,161,161,161,161,161,161,161,161,161,161,161,161,161,161,161,161,161,161,161,161,161,161,161,161,161,
161,161,161,161,161,161,161,161,161,161,161,161,161,161,113,113,161,161,161,161,161,161,161,161,113,113,113,113,113,113,113,161,161,161,161,161,161,161,161,161,161,161,161,161,161,161,161,161,161,161,161,161,161,161,161,161,161,161,161,161,
161,161,161,161,161,161,161,161,161,161,161,161,161,161,113,113,161,161,161,161,161,161,161,161,161,161,161,161,161,161,161,161,161,161,161,161,161,161,161,161,161,161,161,161,161,161,161,161,161,161,161,161,161,161,161,161,161,161,161,161,
161,161,161,161,161,161,161,161,161,161,161,161,161,161,113,113,161,161,161,161,161,161,161,161,161,161,161,161,161,161,161,161,161,161,161,161,161,113,113,161,161,161,161,161,161,161,161,161,161,161,161,161,161,161,161,161,161,161,161,161,
161,161,161,161,161,161,161,161,161,161,161,161,161,161,113,113,161,161,161,161,161,161,161,161,161,161,161,161,161,161,161,161,161,161,161,161,161,113,113,161,161,161,161,161,161,161,161,161,161,161,161,161,161,161,161,161,161,161,161,161,
161,161,161,161,161,161,161,161,161,161,161,161,161,161,113,113,161,161,161,161,161,161,161,161,161,161,161,161,161,161,161,161,161,161,161,161,161,161,161,161,161,161,161,161,161,161,161,161,161,161,161,161,161,161,161,161,161,161,161,161,
161,161,161,161,161,161,161,161,161,161,161,161,161,161,113,113,161,161,161,161,161,161,161,161,161,161,161,161,161,161,161,161,161,161,161,161,161,161,161,161,161,161,161,161,161,161,161,161,161,161,161,161,161,161,161,161,161,161,161,161
</data>
 </layer>
 <layer id="2" name="kittycatcasey.Stardew3D/WaterData_Center" width="60" height="60">
  <data encoding="csv">
137,137,137,137,137,137,137,137,137,137,137,137,137,137,137,137,137,137,137,137,137,137,137,137,137,137,137,137,137,137,137,137,137,137,137,137,137,137,137,137,137,137,137,137,137,137,137,137,137,137,137,137,137,137,137,137,137,137,137,137,
137,137,137,137,137,137,137,137,137,137,137,137,137,137,137,137,137,137,137,137,137,137,137,137,137,137,137,137,137,137,137,137,137,137,137,137,137,137,137,137,137,137,137,137,137,137,137,137,137,137,137,137,137,137,137,137,137,137,137,137,
137,137,137,137,137,137,137,137,137,137,137,137,137,137,137,137,137,137,137,137,137,137,137,137,137,137,137,137,137,137,137,137,137,137,137,137,137,137,137,137,137,137,137,137,137,137,137,137,137,137,137,137,137,137,137,137,137,137,137,137,
137,137,137,137,137,137,137,137,137,137,137,137,137,137,137,137,137,137,137,137,137,137,137,137,137,137,137,137,137,137,137,137,137,137,137,137,137,137,137,137,137,137,137,137,137,137,137,137,137,137,137,137,137,137,137,137,137,137,137,137,
137,137,137,137,137,137,137,137,137,137,137,137,137,137,137,137,137,137,137,137,137,137,137,137,137,137,137,137,0,0,0,0,0,0,0,137,137,137,137,137,0,0,137,137,137,137,137,137,137,137,137,137,137,137,137,137,137,137,137,137,
137,137,137,137,137,137,137,137,137,137,137,137,137,137,137,137,137,137,137,137,137,137,137,137,137,137,137,137,0,0,0,0,0,0,0,137,137,137,137,137,0,0,137,137,137,137,137,137,137,137,137,137,137,137,137,137,137,137,137,137,
137,137,137,137,137,137,137,137,137,137,137,137,137,137,137,137,137,137,137,137,137,137,137,137,137,137,0,0,0,0,0,0,0,0,0,0,0,137,137,137,137,137,137,137,137,137,137,137,137,137,137,137,137,137,137,137,137,137,137,137,
137,137,137,137,137,137,137,137,137,137,137,137,137,137,137,137,137,0,0,137,137,137,137,137,137,0,0,0,0,0,0,0,0,0,0,0,0,0,137,137,137,137,137,137,137,137,137,137,137,137,137,137,137,137,137,137,137,137,137,137,
137,137,137,137,137,137,137,137,137,137,137,137,137,137,137,137,137,0,0,137,137,137,137,137,137,0,0,0,0,0,0,0,0,0,0,0,0,0,137,137,137,137,137,137,137,137,137,137,137,137,137,137,137,137,137,137,137,137,137,137,
137,137,137,137,137,137,137,137,137,137,137,137,137,137,137,137,137,137,137,137,137,137,137,137,0,0,0,0,0,0,0,0,0,0,0,0,0,0,137,137,137,137,0,0,0,0,0,0,0,0,0,0,137,137,137,137,137,137,137,137,
137,137,137,137,137,137,137,137,137,137,137,137,137,137,137,137,137,137,137,137,137,137,137,137,0,0,0,0,0,0,0,0,0,0,0,0,0,0,137,137,0,0,0,0,0,0,0,0,0,0,0,0,0,137,137,137,137,137,137,137,
137,137,137,137,137,137,137,137,137,137,137,137,137,137,137,137,137,137,137,137,137,137,137,137,0,0,0,0,0,0,0,0,0,0,0,0,0,0,137,137,0,0,0,0,0,0,0,0,0,0,0,0,0,0,0,137,137,137,137,137,
137,137,137,137,137,137,137,137,137,137,137,137,137,137,137,137,137,137,137,137,137,137,137,137,0,0,0,0,0,0,0,0,0,0,0,0,0,0,137,0,0,0,0,0,0,0,0,0,0,0,0,0,0,0,0,137,137,137,137,137,
137,137,137,137,137,137,137,137,137,137,137,137,137,137,137,137,137,137,137,137,137,137,137,137,0,0,0,0,0,0,0,0,0,0,0,0,0,0,0,0,0,0,0,0,0,0,0,0,0,0,0,0,0,0,0,137,137,137,137,137,
137,137,137,137,137,137,137,137,137,137,137,137,137,137,137,137,137,137,137,137,137,137,137,0,0,0,0,0,0,0,0,0,0,0,0,0,0,0,0,0,0,0,0,0,0,0,0,0,0,0,0,0,0,0,0,137,137,137,137,137,
137,137,137,137,137,137,137,137,137,137,137,137,137,137,137,137,137,137,137,137,137,137,137,0,0,0,0,0,0,0,0,0,0,0,0,0,0,0,0,0,0,0,0,0,0,0,0,0,0,0,0,0,0,0,137,137,137,137,137,137,
137,137,137,137,137,137,137,137,137,137,137,137,137,137,137,137,137,137,137,137,137,137,0,0,0,0,0,0,137,137,137,137,137,137,137,137,0,0,0,0,0,0,0,0,0,0,0,0,0,0,0,0,0,0,137,137,137,137,137,137,
137,137,137,137,137,137,137,137,137,137,137,137,137,137,137,137,137,137,137,137,137,137,0,0,0,0,137,137,137,137,137,137,137,137,137,137,137,0,0,0,0,0,0,0,0,0,0,0,0,0,0,0,0,137,137,137,137,137,137,137,
137,137,137,137,137,137,137,137,137,137,137,137,137,0,0,137,137,137,137,137,137,137,0,0,0,137,137,137,137,137,137,137,137,137,137,137,137,0,0,0,0,0,0,0,0,0,0,0,0,0,0,0,0,137,137,137,137,137,137,137,
137,137,137,137,137,137,137,137,137,137,137,137,137,0,0,137,137,137,137,137,0,0,0,0,0,137,137,137,137,137,137,137,137,137,137,137,137,0,0,0,0,0,0,0,0,0,0,0,0,0,0,0,0,0,137,137,137,137,137,137,
137,137,137,137,137,137,137,137,137,137,137,137,137,137,137,137,137,137,137,0,0,0,0,0,0,137,137,137,137,137,137,137,137,137,137,137,137,0,0,0,0,0,0,0,0,0,0,0,0,0,0,0,0,0,0,137,137,137,137,137,
137,137,137,137,137,137,137,137,137,137,137,137,137,137,137,137,137,137,137,0,0,0,0,0,0,0,0,137,137,137,137,137,137,137,137,137,137,0,0,0,0,0,0,0,0,0,0,0,0,0,0,0,0,0,0,137,137,137,137,137,
137,137,137,137,137,137,137,137,137,137,137,137,137,137,137,137,137,137,137,0,0,0,0,0,0,0,0,137,137,137,137,137,137,137,137,137,137,0,0,0,0,0,0,0,0,0,0,0,0,0,0,0,0,0,0,137,137,137,137,137,
137,137,137,137,137,137,137,137,137,137,137,137,137,137,137,137,137,137,137,0,0,0,0,0,0,0,0,0,137,137,137,137,137,137,137,137,137,137,0,0,0,0,0,0,0,0,0,0,0,0,0,0,0,0,0,137,137,137,137,137,
137,137,137,137,137,137,137,137,137,137,137,137,137,137,137,137,137,0,0,0,0,0,0,0,0,0,0,0,137,137,137,137,137,137,137,137,137,137,137,137,137,0,0,0,0,0,0,0,0,0,0,0,0,0,0,137,137,137,137,137,
137,137,137,137,137,137,137,137,137,137,137,137,137,137,137,0,0,0,0,0,0,0,0,0,0,0,0,0,0,0,137,137,137,137,137,137,137,137,137,137,137,0,0,0,0,0,0,0,0,0,0,0,0,0,0,137,137,137,137,137,
137,137,137,137,137,137,137,137,137,137,137,137,137,137,137,0,0,0,0,0,0,0,0,0,0,0,0,0,0,0,137,137,137,0,0,0,0,137,137,137,137,0,0,0,0,0,0,0,0,0,0,0,0,0,0,137,137,137,137,137,
137,137,137,137,137,137,137,137,137,137,137,137,137,137,137,0,0,0,0,0,0,0,0,0,0,0,0,0,0,0,0,0,0,0,0,0,0,0,137,137,137,137,0,0,0,0,0,0,0,0,0,0,0,0,137,137,137,137,137,137,
137,137,137,137,137,137,137,137,137,137,137,137,137,137,137,0,0,0,0,0,0,0,137,137,137,0,0,0,0,0,0,0,0,0,0,0,0,0,0,0,0,0,0,0,0,0,0,0,137,137,137,137,137,137,137,137,137,137,137,137,
137,137,137,137,137,137,137,137,137,137,137,137,137,137,137,0,0,0,0,0,0,0,137,137,137,137,137,0,0,0,0,0,0,0,0,0,0,0,0,0,0,0,0,0,0,0,0,137,137,137,137,137,137,137,137,137,137,137,137,137,
137,137,137,137,137,137,137,137,137,137,137,137,137,137,137,0,0,0,0,0,0,137,137,137,137,137,137,137,137,137,137,0,0,0,0,0,0,0,137,137,137,137,137,137,137,137,137,137,137,137,137,137,137,137,137,137,137,137,137,137,
137,137,137,137,137,137,137,137,137,137,137,137,137,137,137,0,0,0,0,0,0,137,137,137,137,137,137,137,137,137,137,137,0,0,0,0,0,0,137,137,137,137,137,137,137,137,137,137,137,137,137,137,137,137,137,137,137,137,137,137,
137,137,137,137,137,137,137,137,137,137,137,137,137,137,137,137,0,0,0,0,137,137,137,137,137,137,137,137,137,137,137,137,0,0,0,0,0,137,137,137,137,137,137,137,137,137,137,137,137,137,137,137,137,137,137,137,137,137,137,137,
137,137,137,137,137,137,137,137,137,137,137,137,137,137,137,137,137,137,137,137,137,137,137,137,137,137,137,137,137,137,137,137,0,0,0,0,0,137,137,137,137,137,137,137,137,137,137,137,137,137,137,137,137,137,137,137,137,137,137,137,
137,137,137,137,137,137,137,137,137,137,137,137,137,137,137,137,137,137,137,137,137,137,137,137,137,137,137,137,137,137,137,0,0,0,0,0,0,0,137,137,137,137,137,137,137,0,0,137,137,137,137,137,137,137,137,137,137,137,137,137,
137,137,137,137,137,137,137,137,137,137,0,0,137,137,137,137,137,137,137,137,137,137,137,137,137,137,137,137,0,0,0,0,0,0,0,0,0,0,0,0,0,0,137,137,137,0,0,137,137,137,137,137,137,137,137,137,137,137,137,137,
137,137,137,137,137,137,137,137,137,137,0,0,0,0,0,0,137,137,137,137,137,137,137,137,137,137,0,0,0,0,0,0,0,0,0,0,0,0,0,0,0,0,0,137,137,137,137,137,137,137,137,137,137,137,137,137,137,137,137,137,
137,137,137,137,137,137,137,137,137,137,137,137,0,0,0,0,137,137,137,137,137,137,137,137,137,137,0,0,0,0,0,0,0,0,0,0,0,0,0,0,0,0,0,137,137,137,137,137,137,137,137,137,137,137,137,137,137,137,137,137,
137,137,137,137,137,137,137,137,137,137,137,137,0,0,137,137,137,137,137,137,137,137,137,137,137,0,0,0,0,0,0,0,0,0,0,0,0,0,0,0,0,0,0,137,137,137,137,137,137,137,137,137,137,137,137,137,137,137,137,137,
137,137,137,137,137,137,137,137,137,137,137,137,137,137,137,137,137,137,137,137,137,137,137,137,137,0,0,0,0,0,0,0,0,0,0,0,0,0,0,0,0,0,0,0,137,137,137,137,137,0,0,137,137,137,137,137,137,137,137,137,
137,137,137,137,137,137,137,137,137,137,137,137,137,137,137,137,137,137,137,137,137,137,137,137,137,0,0,0,0,0,0,0,0,0,0,0,0,0,0,0,0,0,0,0,0,0,137,137,137,0,0,137,137,137,137,137,137,137,137,137,
137,137,137,137,137,137,137,137,137,137,137,137,137,137,137,137,137,137,137,137,137,137,137,137,137,0,0,0,0,0,0,0,0,0,0,0,0,0,0,0,0,0,0,0,0,0,137,137,137,137,137,137,137,137,137,137,137,137,137,137,
137,137,137,137,137,137,137,137,137,137,137,137,137,137,137,137,137,137,137,137,137,137,137,137,137,0,0,0,0,0,0,0,0,0,0,0,0,0,0,0,0,0,0,0,0,0,137,137,137,137,137,137,137,137,137,137,137,137,137,137,
137,137,137,137,137,137,137,137,137,137,137,137,137,137,137,137,137,137,137,137,137,137,137,137,137,137,0,0,0,0,0,0,0,0,0,0,0,0,0,0,0,0,0,0,0,0,137,137,137,137,137,137,137,137,137,137,137,137,137,137,
137,137,137,137,137,137,137,137,137,137,0,0,137,137,137,137,137,137,137,137,137,137,137,137,137,137,0,0,0,0,0,0,0,0,0,0,0,0,0,0,0,0,0,0,0,0,0,0,0,0,0,137,137,137,137,137,137,137,137,137,
137,137,137,137,137,137,137,137,137,137,0,0,137,137,137,137,137,137,137,137,137,137,137,137,137,137,137,0,0,0,0,0,0,0,0,0,0,0,0,0,0,0,0,0,0,0,0,0,0,0,0,0,137,137,137,137,137,137,137,137,
137,137,137,137,137,137,137,137,137,137,137,137,137,137,137,137,0,0,0,0,0,0,137,137,137,137,137,0,0,0,0,0,0,0,0,0,0,0,0,0,0,0,0,0,0,0,0,0,0,0,0,0,137,137,137,137,137,137,137,137,
137,137,137,137,137,137,137,137,137,137,137,137,137,137,137,0,0,0,0,0,0,0,0,137,137,137,137,0,0,0,0,0,0,0,0,0,0,0,0,0,0,0,0,0,0,0,0,0,0,0,0,0,137,137,137,137,137,137,137,137,
137,137,137,137,137,137,137,137,137,137,137,137,137,137,137,0,0,0,0,0,0,0,0,137,137,137,137,0,0,0,0,0,0,0,0,0,0,0,0,0,0,0,0,0,0,0,0,0,0,0,0,137,137,137,137,137,137,137,137,137,
137,137,137,137,137,137,137,137,137,137,137,137,0,0,0,0,0,0,137,137,0,0,0,0,0,0,0,0,0,0,0,0,0,0,0,0,0,0,0,0,0,0,0,0,0,0,137,137,137,137,137,137,137,137,137,137,137,137,137,137,
137,137,137,137,137,137,137,137,137,137,137,0,0,0,0,0,0,137,137,137,0,0,0,0,0,0,0,0,0,0,0,0,0,0,0,0,0,0,0,0,0,0,0,0,0,137,137,137,137,137,137,137,137,137,137,137,137,137,137,137,
137,137,137,137,137,137,137,137,137,137,137,0,0,0,0,0,0,137,137,137,137,137,0,0,0,0,0,0,0,0,0,0,0,0,0,0,137,137,137,137,137,137,137,137,137,137,137,137,137,137,137,137,137,137,137,137,137,137,137,137,
137,137,137,137,137,137,137,137,137,137,137,137,0,0,0,0,0,137,137,137,137,137,0,0,0,0,0,0,0,0,0,0,0,137,137,137,137,137,137,137,137,137,137,137,137,137,137,137,137,137,137,137,137,137,137,137,137,137,137,137,
137,137,137,137,137,137,137,137,137,137,137,137,137,0,0,0,137,137,137,137,137,137,0,0,0,0,0,0,0,0,0,0,137,137,137,137,137,137,137,137,137,137,137,137,137,137,137,137,137,137,137,137,137,137,137,137,137,137,137,137,
137,137,137,137,137,137,137,137,137,137,137,137,137,137,0,0,137,137,137,137,137,137,137,137,0,0,0,0,0,0,0,137,137,137,137,137,137,137,137,137,137,137,137,137,137,137,137,137,137,137,137,137,137,137,137,137,137,137,137,137,
137,137,137,137,137,137,137,137,137,137,137,137,137,137,0,0,137,137,137,137,137,137,137,137,137,137,137,137,137,137,137,137,137,137,137,137,137,137,137,137,137,137,137,137,137,137,137,137,137,137,137,137,137,137,137,137,137,137,137,137,
137,137,137,137,137,137,137,137,137,137,137,137,137,137,0,0,137,137,137,137,137,137,137,137,137,137,137,137,137,137,137,137,137,137,137,137,137,0,0,137,137,137,137,137,137,137,137,137,137,137,137,137,137,137,137,137,137,137,137,137,
137,137,137,137,137,137,137,137,137,137,137,137,137,137,0,0,137,137,137,137,137,137,137,137,137,137,137,137,137,137,137,137,137,137,137,137,137,0,0,137,137,137,137,137,137,137,137,137,137,137,137,137,137,137,137,137,137,137,137,137,
137,137,137,137,137,137,137,137,137,137,137,137,137,137,0,0,137,137,137,137,137,137,137,137,137,137,137,137,137,137,137,137,137,137,137,137,137,137,137,137,137,137,137,137,137,137,137,137,137,137,137,137,137,137,137,137,137,137,137,137,
137,137,137,137,137,137,137,137,137,137,137,137,137,137,0,0,137,137,137,137,137,137,137,137,137,137,137,137,137,137,137,137,137,137,137,137,137,137,137,137,137,137,137,137,137,137,137,137,137,137,137,137,137,137,137,137,137,137,137,137
</data>
 </layer>
 <objectgroup id="3" name="kittycatcasey.Stardew3D/FloorData_Center"/>
 <objectgroup id="4" name="kittycatcasey.Stardew3D/WaterData_Center"/>
</map>