<?xml version="1.0" encoding="UTF-8"?>
<map version="1.4" tiledversion="1.4.2" orientation="orthogonal" renderorder="right-down" compressionlevel="0" width="50" height="72" tilewidth="16" tileheight="16" infinite="0" nextlayerid="5" nextobjectid="1">
 
 <tileset firstgid="1" name="dataValues3d" tilewidth="16" tileheight="16" tilecount="512" columns="32">
  <image source="ThirdDimensionData/data" width="512" height="256"/>
 </tileset>
 <tileset firstgid="513" name="desert-extended" tilewidth="16" tileheight="16" tilecount="33" columns="3">
  <image source="DesertTiles_Extended" width="48" height="176"/>
 </tileset>
 <tileset firstgid="546" name="desert-festival" tilewidth="16" tileheight="16" tilecount="1088" columns="32">
  <image source="desert_festival_tilesheet" width="512" height="544"/>
  <tile id="17">
   <properties>
    <property name="Type" value="Dirt"/>
   </properties>
  </tile>
  <tile id="26">
   <properties>
    <property name="Type" value="Stone"/>
   </properties>
  </tile>
  <tile id="27">
   <properties>
    <property name="Type" value="Stone"/>
   </properties>
  </tile>
  <tile id="28">
   <properties>
    <property name="Type" value="Stone"/>
   </properties>
  </tile>
  <tile id="29">
   <properties>
    <property name="Type" value="Stone"/>
   </properties>
  </tile>
  <tile id="30">
   <properties>
    <property name="Type" value="Stone"/>
   </properties>
  </tile>
  <tile id="31">
   <properties>
    <property name="Type" value="Stone"/>
   </properties>
  </tile>
  <tile id="49">
   <properties>
    <property name="Type" value="Dirt"/>
   </properties>
  </tile>
  <tile id="58">
   <properties>
    <property name="Type" value="Stone"/>
   </properties>
  </tile>
  <tile id="59">
   <properties>
    <property name="Type" value="Stone"/>
   </properties>
  </tile>
  <tile id="60">
   <properties>
    <property name="Type" value="Stone"/>
   </properties>
  </tile>
  <tile id="61">
   <properties>
    <property name="Type" value="Stone"/>
   </properties>
  </tile>
  <tile id="62">
   <properties>
    <property name="Type" value="Stone"/>
   </properties>
  </tile>
  <tile id="63">
   <properties>
    <property name="Type" value="Stone"/>
   </properties>
  </tile>
  <tile id="81">
   <properties>
    <property name="Type" value="Stone"/>
   </properties>
  </tile>
  <tile id="90">
   <properties>
    <property name="Type" value="Stone"/>
   </properties>
  </tile>
  <tile id="91">
   <properties>
    <property name="Type" value="Stone"/>
   </properties>
  </tile>
  <tile id="92">
   <properties>
    <property name="Type" value="Stone"/>
   </properties>
  </tile>
  <tile id="93">
   <properties>
    <property name="Type" value="Stone"/>
   </properties>
  </tile>
  <tile id="94">
   <properties>
    <property name="Type" value="Stone"/>
   </properties>
  </tile>
  <tile id="95">
   <properties>
    <property name="Type" value="Stone"/>
   </properties>
  </tile>
  <tile id="122">
   <properties>
    <property name="Type" value="Stone"/>
   </properties>
  </tile>
  <tile id="123">
   <properties>
    <property name="Type" value="Stone"/>
   </properties>
  </tile>
  <tile id="124">
   <properties>
    <property name="Type" value="Stone"/>
   </properties>
  </tile>
  <tile id="125">
   <properties>
    <property name="Type" value="Stone"/>
   </properties>
  </tile>
  <tile id="126">
   <properties>
    <property name="Type" value="Stone"/>
   </properties>
  </tile>
  <tile id="127">
   <properties>
    <property name="Type" value="Stone"/>
   </properties>
  </tile>
  <tile id="142">
   <properties>
    <property name="Type" value="Dirt"/>
   </properties>
  </tile>
  <tile id="143">
   <properties>
    <property name="Type" value="Dirt"/>
   </properties>
  </tile>
  <tile id="145">
   <properties>
    <property name="Type" value="Dirt"/>
   </properties>
  </tile>
  <tile id="154">
   <properties>
    <property name="Type" value="Stone"/>
   </properties>
  </tile>
  <tile id="155">
   <properties>
    <property name="Type" value="Stone"/>
   </properties>
  </tile>
  <tile id="156">
   <properties>
    <property name="Type" value="Stone"/>
   </properties>
  </tile>
  <tile id="157">
   <properties>
    <property name="Type" value="Stone"/>
   </properties>
  </tile>
  <tile id="158">
   <properties>
    <property name="Type" value="Stone"/>
   </properties>
  </tile>
  <tile id="159">
   <properties>
    <property name="Type" value="Stone"/>
   </properties>
  </tile>
  <tile id="160">
   <properties>
    <property name="Type" value="Dirt"/>
   </properties>
  </tile>
  <tile id="174">
   <properties>
    <property name="Type" value="dirt"/>
   </properties>
  </tile>
  <tile id="175">
   <properties>
    <property name="Type" value="Stone"/>
   </properties>
  </tile>
  <tile id="176">
   <properties>
    <property name="Type" value="Stone"/>
   </properties>
  </tile>
  <tile id="177">
   <properties>
    <property name="Type" value="Stone"/>
   </properties>
  </tile>
  <tile id="178">
   <properties>
    <property name="Type" value="Stone"/>
   </properties>
  </tile>
  <tile id="181">
   <properties>
    <property name="Type" value="Dirt"/>
   </properties>
  </tile>
  <tile id="182">
   <properties>
    <property name="Type" value="Dirt"/>
   </properties>
  </tile>
  <tile id="183">
   <properties>
    <property name="Type" value="Dirt"/>
   </properties>
  </tile>
  <tile id="186">
   <properties>
    <property name="Type" value="Dirt"/>
   </properties>
  </tile>
  <tile id="187">
   <properties>
    <property name="Type" value="Dirt"/>
   </properties>
  </tile>
  <tile id="188">
   <properties>
    <property name="Type" value="Dirt"/>
   </properties>
  </tile>
  <tile id="189">
   <properties>
    <property name="Type" value="Dirt"/>
   </properties>
  </tile>
  <tile id="190">
   <properties>
    <property name="Type" value="Dirt"/>
   </properties>
  </tile>
  <tile id="191">
   <properties>
    <property name="Type" value="Dirt"/>
   </properties>
  </tile>
  <tile id="194">
   <properties>
    <property name="Type" value="Dirt"/>
   </properties>
  </tile>
  <tile id="195">
   <properties>
    <property name="Type" value="Dirt"/>
   </properties>
  </tile>
  <tile id="196">
   <properties>
    <property name="Type" value="Dirt"/>
   </properties>
  </tile>
  <tile id="197">
   <properties>
    <property name="Type" value="Dirt"/>
   </properties>
  </tile>
  <tile id="198">
   <properties>
    <property name="Type" value="Dirt"/>
   </properties>
  </tile>
  <tile id="206">
   <properties>
    <property name="Type" value="dirt"/>
   </properties>
  </tile>
  <tile id="207">
   <properties>
    <property name="Type" value="Stone"/>
   </properties>
  </tile>
  <tile id="208">
   <properties>
    <property name="Type" value="Stone"/>
   </properties>
  </tile>
  <tile id="209">
   <properties>
    <property name="Type" value="Stone"/>
   </properties>
  </tile>
  <tile id="210">
   <properties>
    <property name="Type" value="Stone"/>
   </properties>
  </tile>
  <tile id="212">
   <properties>
    <property name="Type" value="Dirt"/>
   </properties>
  </tile>
  <tile id="213">
   <properties>
    <property name="Type" value="Dirt"/>
   </properties>
  </tile>
  <tile id="214">
   <properties>
    <property name="Type" value="Dirt"/>
   </properties>
  </tile>
  <tile id="215">
   <properties>
    <property name="Type" value="Dirt"/>
   </properties>
  </tile>
  <tile id="218">
   <properties>
    <property name="Type" value="Dirt"/>
   </properties>
  </tile>
  <tile id="219">
   <properties>
    <property name="Type" value="Dirt"/>
   </properties>
  </tile>
  <tile id="220">
   <properties>
    <property name="Type" value="Dirt"/>
   </properties>
  </tile>
  <tile id="221">
   <properties>
    <property name="Type" value="Dirt"/>
   </properties>
  </tile>
  <tile id="222">
   <properties>
    <property name="Type" value="Dirt"/>
   </properties>
  </tile>
  <tile id="223">
   <properties>
    <property name="Type" value="Dirt"/>
   </properties>
  </tile>
  <tile id="226">
   <properties>
    <property name="Type" value="Dirt"/>
   </properties>
  </tile>
  <tile id="227">
   <properties>
    <property name="Type" value="Dirt"/>
   </properties>
  </tile>
  <tile id="228">
   <properties>
    <property name="Type" value="Dirt"/>
   </properties>
  </tile>
  <tile id="229">
   <properties>
    <property name="Type" value="Dirt"/>
   </properties>
  </tile>
  <tile id="235">
   <properties>
    <property name="Type" value="Wood"/>
   </properties>
  </tile>
  <tile id="236">
   <properties>
    <property name="Type" value="Wood"/>
   </properties>
  </tile>
  <tile id="237">
   <properties>
    <property name="Type" value="Wood"/>
   </properties>
  </tile>
  <tile id="238">
   <properties>
    <property name="Type" value="Stone"/>
   </properties>
  </tile>
  <tile id="239">
   <properties>
    <property name="Type" value="Dirt"/>
   </properties>
  </tile>
  <tile id="240">
   <properties>
    <property name="Type" value="Dirt"/>
   </properties>
  </tile>
  <tile id="241">
   <properties>
    <property name="Type" value="Dirt"/>
   </properties>
  </tile>
  <tile id="242">
   <properties>
    <property name="Type" value="Dirt"/>
   </properties>
  </tile>
  <tile id="244">
   <properties>
    <property name="Type" value="Dirt"/>
   </properties>
  </tile>
  <tile id="245">
   <properties>
    <property name="Type" value="Dirt"/>
   </properties>
  </tile>
  <tile id="254">
   <properties>
    <property name="Type" value="Dirt"/>
   </properties>
  </tile>
  <tile id="255">
   <properties>
    <property name="Type" value="Dirt"/>
   </properties>
  </tile>
  <tile id="267">
   <properties>
    <property name="Type" value="Wood"/>
   </properties>
  </tile>
  <tile id="268">
   <properties>
    <property name="Type" value="Wood"/>
   </properties>
  </tile>
  <tile id="269">
   <properties>
    <property name="Type" value="Wood"/>
   </properties>
  </tile>
  <tile id="270">
   <properties>
    <property name="Type" value="Stone"/>
   </properties>
  </tile>
  <tile id="271">
   <properties>
    <property name="Type" value="Dirt"/>
   </properties>
  </tile>
  <tile id="272">
   <properties>
    <property name="Type" value="Dirt"/>
   </properties>
  </tile>
  <tile id="273">
   <properties>
    <property name="Type" value="Dirt"/>
   </properties>
  </tile>
  <tile id="274">
   <properties>
    <property name="Type" value="Dirt"/>
   </properties>
  </tile>
  <tile id="276">
   <properties>
    <property name="Type" value="Stone"/>
   </properties>
  </tile>
  <tile id="286">
   <properties>
    <property name="Type" value="Dirt"/>
   </properties>
  </tile>
  <tile id="287">
   <properties>
    <property name="Type" value="Dirt"/>
   </properties>
  </tile>
  <tile id="299">
   <properties>
    <property name="Type" value="Wood"/>
   </properties>
  </tile>
  <tile id="300">
   <properties>
    <property name="Type" value="Wood"/>
   </properties>
  </tile>
  <tile id="301">
   <properties>
    <property name="Type" value="Wood"/>
   </properties>
  </tile>
  <tile id="302">
   <properties>
    <property name="Type" value="Stone"/>
   </properties>
  </tile>
  <tile id="303">
   <properties>
    <property name="Type" value="Dirt"/>
   </properties>
  </tile>
  <tile id="304">
   <properties>
    <property name="Type" value="Dirt"/>
   </properties>
  </tile>
  <tile id="305">
   <properties>
    <property name="Type" value="Dirt"/>
   </properties>
  </tile>
  <tile id="306">
   <properties>
    <property name="Type" value="Dirt"/>
   </properties>
  </tile>
  <tile id="308">
   <properties>
    <property name="Type" value="Stone"/>
   </properties>
  </tile>
  <tile id="318">
   <properties>
    <property name="Type" value="Dirt"/>
   </properties>
  </tile>
  <tile id="319">
   <properties>
    <property name="Type" value="Dirt"/>
   </properties>
  </tile>
  <tile id="335">
   <properties>
    <property name="Type" value="Dirt"/>
   </properties>
  </tile>
  <tile id="336">
   <properties>
    <property name="Type" value="Dirt"/>
   </properties>
  </tile>
  <tile id="337">
   <properties>
    <property name="Type" value="Dirt"/>
   </properties>
  </tile>
  <tile id="338">
   <properties>
    <property name="Type" value="Dirt"/>
   </properties>
  </tile>
  <tile id="340">
   <properties>
    <property name="Type" value="Stone"/>
   </properties>
  </tile>
  <tile id="348">
   <properties>
    <property name="Type" value="Dirt"/>
   </properties>
  </tile>
  <tile id="349">
   <properties>
    <property name="Type" value="Dirt"/>
   </properties>
  </tile>
  <tile id="350">
   <properties>
    <property name="Type" value="Dirt"/>
   </properties>
  </tile>
  <tile id="351">
   <properties>
    <property name="Type" value="Dirt"/>
   </properties>
  </tile>
  <tile id="367">
   <properties>
    <property name="Type" value="Dirt"/>
   </properties>
  </tile>
  <tile id="368">
   <properties>
    <property name="Type" value="Dirt"/>
   </properties>
  </tile>
  <tile id="369">
   <properties>
    <property name="Type" value="Dirt"/>
   </properties>
  </tile>
  <tile id="372">
   <properties>
    <property name="Type" value="Stone"/>
   </properties>
  </tile>
  <tile id="376">
   <properties>
    <property name="Type" value="Dirt"/>
   </properties>
  </tile>
  <tile id="377">
   <properties>
    <property name="Type" value="Dirt"/>
   </properties>
  </tile>
  <tile id="378">
   <properties>
    <property name="Type" value="Dirt"/>
   </properties>
  </tile>
  <tile id="402">
   <properties>
    <property name="Type" value="Dirt"/>
   </properties>
  </tile>
  <tile id="403">
   <properties>
    <property name="Type" value="Dirt"/>
   </properties>
  </tile>
  <tile id="404">
   <properties>
    <property name="Type" value="Dirt"/>
   </properties>
  </tile>
  <tile id="408">
   <properties>
    <property name="Type" value="Dirt"/>
   </properties>
  </tile>
  <tile id="409">
   <properties>
    <property name="Type" value="Dirt"/>
   </properties>
  </tile>
  <tile id="410">
   <properties>
    <property name="Type" value="Dirt"/>
   </properties>
  </tile>
  <tile id="467">
   <properties>
    <property name="Type" value="dirt"/>
   </properties>
  </tile>
  <tile id="468">
   <properties>
    <property name="Type" value="dirt"/>
   </properties>
  </tile>
  <tile id="472">
   <properties>
    <property name="Type" value="Dirt"/>
   </properties>
  </tile>
  <tile id="473">
   <properties>
    <property name="Type" value="Dirt"/>
   </properties>
  </tile>
  <tile id="474">
   <properties>
    <property name="Type" value="Dirt"/>
   </properties>
  </tile>
  <tile id="475">
   <properties>
    <property name="Type" value="Dirt"/>
   </properties>
  </tile>
  <tile id="476">
   <properties>
    <property name="Type" value="Dirt"/>
   </properties>
  </tile>
  <tile id="495">
   <properties>
    <property name="Type" value="Dirt"/>
   </properties>
  </tile>
  <tile id="496">
   <properties>
    <property name="Type" value="Dirt"/>
   </properties>
  </tile>
  <tile id="497">
   <properties>
    <property name="Type" value="Dirt"/>
   </properties>
  </tile>
  <tile id="498">
   <properties>
    <property name="Type" value="Dirt"/>
   </properties>
  </tile>
  <tile id="499">
   <properties>
    <property name="Type" value="Dirt"/>
   </properties>
  </tile>
  <tile id="504">
   <properties>
    <property name="Type" value="Dirt"/>
   </properties>
  </tile>
  <tile id="505">
   <properties>
    <property name="Type" value="Dirt"/>
   </properties>
  </tile>
  <tile id="506">
   <properties>
    <property name="Type" value="Dirt"/>
   </properties>
  </tile>
  <tile id="507">
   <properties>
    <property name="Type" value="Dirt"/>
   </properties>
  </tile>
  <tile id="508">
   <properties>
    <property name="Type" value="Dirt"/>
   </properties>
  </tile>
  <tile id="527">
   <properties>
    <property name="Type" value="Dirt"/>
   </properties>
  </tile>
  <tile id="528">
   <properties>
    <property name="Type" value="Dirt"/>
   </properties>
  </tile>
  <tile id="529">
   <properties>
    <property name="Type" value="Dirt"/>
   </properties>
  </tile>
  <tile id="530">
   <properties>
    <property name="Type" value="Dirt"/>
   </properties>
  </tile>
  <tile id="531">
   <properties>
    <property name="Type" value="Dirt"/>
   </properties>
  </tile>
  <tile id="538">
   <properties>
    <property name="Type" value="Dirt"/>
   </properties>
  </tile>
  <tile id="539">
   <properties>
    <property name="Type" value="Dirt"/>
   </properties>
  </tile>
  <tile id="540">
   <properties>
    <property name="Type" value="Dirt"/>
   </properties>
  </tile>
  <tile id="559">
   <properties>
    <property name="Type" value="Dirt"/>
   </properties>
  </tile>
  <tile id="560">
   <properties>
    <property name="Type" value="Dirt"/>
   </properties>
  </tile>
  <tile id="561">
   <properties>
    <property name="Type" value="Dirt"/>
   </properties>
  </tile>
  <tile id="562">
   <properties>
    <property name="Type" value="Dirt"/>
   </properties>
  </tile>
  <tile id="563">
   <properties>
    <property name="Type" value="Dirt"/>
   </properties>
  </tile>
  <tile id="660">
   <properties>
    <property name="Type" value="Dirt"/>
   </properties>
  </tile>
  <tile id="661">
   <properties>
    <property name="Type" value="Dirt"/>
   </properties>
  </tile>
  <tile id="662">
   <properties>
    <property name="Type" value="Dirt"/>
   </properties>
  </tile>
  <tile id="663">
   <properties>
    <property name="Type" value="Dirt"/>
   </properties>
  </tile>
  <tile id="664">
   <properties>
    <property name="Type" value="Dirt"/>
   </properties>
  </tile>
  <tile id="665">
   <properties>
    <property name="Type" value="Dirt"/>
   </properties>
  </tile>
  <tile id="692">
   <properties>
    <property name="Type" value="Dirt"/>
   </properties>
  </tile>
  <tile id="693">
   <properties>
    <property name="Type" value="Dirt"/>
   </properties>
  </tile>
  <tile id="694">
   <properties>
    <property name="Type" value="Dirt"/>
   </properties>
  </tile>
  <tile id="695">
   <properties>
    <property name="Type" value="Dirt"/>
   </properties>
  </tile>
  <tile id="696">
   <properties>
    <property name="Type" value="Dirt"/>
   </properties>
  </tile>
  <tile id="697">
   <properties>
    <property name="Type" value="Dirt"/>
   </properties>
  </tile>
  <tile id="724">
   <properties>
    <property name="Type" value="Dirt"/>
   </properties>
  </tile>
  <tile id="725">
   <properties>
    <property name="Type" value="Dirt"/>
   </properties>
  </tile>
  <tile id="726">
   <properties>
    <property name="Type" value="Dirt"/>
   </properties>
  </tile>
  <tile id="727">
   <properties>
    <property name="Type" value="Dirt"/>
   </properties>
  </tile>
  <tile id="755">
   <properties>
    <property name="Type" value="Dirt"/>
   </properties>
  </tile>
  <tile id="756">
   <properties>
    <property name="Type" value="Dirt"/>
   </properties>
  </tile>
  <tile id="757">
   <properties>
    <property name="Type" value="Dirt"/>
   </properties>
  </tile>
  <tile id="787">
   <properties>
    <property name="Type" value="Dirt"/>
   </properties>
  </tile>
  <tile id="788">
   <properties>
    <property name="Type" value="Dirt"/>
   </properties>
  </tile>
  <tile id="789">
   <properties>
    <property name="Type" value="Dirt"/>
   </properties>
  </tile>
  <tile id="819">
   <properties>
    <property name="Type" value="Dirt"/>
   </properties>
  </tile>
  <tile id="820">
   <properties>
    <property name="Type" value="Dirt"/>
   </properties>
  </tile>
  <tile id="821">
   <properties>
    <property name="Type" value="Dirt"/>
   </properties>
  </tile>
  <tile id="851">
   <properties>
    <property name="Type" value="Stone"/>
   </properties>
  </tile>
  <tile id="852">
   <properties>
    <property name="Type" value="Stone"/>
   </properties>
  </tile>
  <tile id="853">
   <properties>
    <property name="Type" value="Stone"/>
   </properties>
  </tile>
  <tile id="854">
   <properties>
    <property name="Type" value="Stone"/>
   </properties>
  </tile>
  <tile id="855">
   <properties>
    <property name="Type" value="Stone"/>
   </properties>
  </tile>
  <tile id="856">
   <properties>
    <property name="Type" value="Stone"/>
   </properties>
  </tile>
  <tile id="857">
   <properties>
    <property name="Type" value="Stone"/>
   </properties>
  </tile>
  <tile id="858">
   <properties>
    <property name="Type" value="Stone"/>
   </properties>
  </tile>
  <tile id="859">
   <properties>
    <property name="Type" value="Stone"/>
   </properties>
  </tile>
  <tile id="860">
   <properties>
    <property name="Type" value="Stone"/>
   </properties>
  </tile>
  <tile id="861">
   <properties>
    <property name="Type" value="Stone"/>
   </properties>
  </tile>
  <tile id="862">
   <properties>
    <property name="Type" value="Stone"/>
   </properties>
  </tile>
  <tile id="863">
   <properties>
    <property name="Type" value="Stone"/>
   </properties>
  </tile>
  <tile id="1012">
   <properties>
    <property name="Type" value="Stone"/>
   </properties>
  </tile>
  <tile id="1026">
   <properties>
    <property name="Type" value="Dirt"/>
   </properties>
  </tile>
  <tile id="1027">
   <properties>
    <property name="Type" value="Stone"/>
   </properties>
  </tile>
  <tile id="1028">
   <properties>
    <property name="Type" value="Stone"/>
   </properties>
  </tile>
  <tile id="1029">
   <properties>
    <property name="Type" value="Stone"/>
   </properties>
  </tile>
  <tile id="1030">
   <properties>
    <property name="Type" value="Dirt"/>
   </properties>
  </tile>
  <tile id="1058">
   <properties>
    <property name="Type" value="Stone"/>
   </properties>
  </tile>
  <tile id="1059">
   <properties>
    <property name="Type" value="Stone"/>
   </properties>
  </tile>
  <tile id="1060">
   <properties>
    <property name="Type" value="Stone"/>
   </properties>
  </tile>
  <tile id="1061">
   <properties>
    <property name="Type" value="dirt"/>
   </properties>
  </tile>
  <tile id="1062">
   <properties>
    <property name="Type" value="Dirt"/>
   </properties>
  </tile>
  <tile id="1076">
   <properties>
    <property name="Type" value="Stone"/>
   </properties>
  </tile>
  <tile id="1077">
   <properties>
    <property name="Type" value="Stone"/>
   </properties>
  </tile>
  <tile id="1078">
   <properties>
    <property name="Type" value="Stone"/>
   </properties>
  </tile>
  <tile id="1079">
   <properties>
    <property name="Type" value="Stone"/>
   </properties>
  </tile>
  <tile id="1080">
   <properties>
    <property name="Type" value="Stone"/>
   </properties>
  </tile>
  <tile id="1081">
   <properties>
    <property name="Type" value="Stone"/>
   </properties>
  </tile>
  <tile id="1082">
   <properties>
    <property name="Type" value="Stone"/>
   </properties>
  </tile>
  <tile id="1083">
   <properties>
    <property name="Type" value="Stone"/>
   </properties>
  </tile>
 </tileset>
 <tileset firstgid="1634" name="desert-festival-text" tilewidth="16" tileheight="16" tilecount="64" columns="8">
  <image source="desert_festival_tilesheet_text" width="128" height="128"/>
 </tileset>
 <tileset firstgid="1698" name="desert-new" tilewidth="16" tileheight="16" tilecount="368" columns="16">
  <image source="DesertTiles" width="256" height="368"/>
  <tile id="0">
   <properties>
    <property name="Diggable" value="T"/>
    <property name="Type" value="Dirt"/>
   </properties>
  </tile>
  <tile id="1">
   <properties>
    <property name="Diggable" value="T"/>
   </properties>
  </tile>
  <tile id="2">
   <properties>
    <property name="Diggable" value="T"/>
   </properties>
  </tile>
  <tile id="16">
   <properties>
    <property name="Diggable" value="T"/>
   </properties>
  </tile>
  <tile id="17">
   <properties>
    <property name="Diggable" value="T"/>
    <property name="Type" value="Dirt"/>
   </properties>
  </tile>
  <tile id="18">
   <properties>
    <property name="Diggable" value="T"/>
   </properties>
  </tile>
  <tile id="32">
   <properties>
    <property name="Diggable" value="T"/>
   </properties>
  </tile>
  <tile id="33">
   <properties>
    <property name="Diggable" value="T"/>
   </properties>
  </tile>
  <tile id="34">
   <properties>
    <property name="Diggable" value="T"/>
   </properties>
  </tile>
  <tile id="64">
   <properties>
    <property name="Type" value="Dirt"/>
   </properties>
  </tile>
  <tile id="65">
   <properties>
    <property name="Diggable" value="T"/>
    <property name="Spawnable" value="T"/>
    <property name="Type" value="Dirt"/>
   </properties>
  </tile>
  <tile id="66">
   <properties>
    <property name="Type" value="Dirt"/>
   </properties>
  </tile>
  <tile id="67">
   <properties>
    <property name="Diggable" value="T"/>
   </properties>
  </tile>
  <tile id="68">
   <properties>
    <property name="Diggable" value="T"/>
    <property name="Spawnable" value="T"/>
    <property name="Type" value="Dirt"/>
   </properties>
  </tile>
  <tile id="91">
   <properties>
    <property name="Water" value="T"/>
   </properties>
  </tile>
  <tile id="92">
   <properties>
    <property name="Water" value="T"/>
   </properties>
  </tile>
  <tile id="93">
   <properties>
    <property name="Water" value="T"/>
   </properties>
  </tile>
  <tile id="94">
   <properties>
    <property name="Water" value="T"/>
   </properties>
  </tile>
  <tile id="95">
   <properties>
    <property name="Water" value="T"/>
   </properties>
  </tile>
  <tile id="107">
   <properties>
    <property name="Water" value="T"/>
   </properties>
  </tile>
  <tile id="108">
   <properties>
    <property name="Water" value="T"/>
   </properties>
  </tile>
  <tile id="109">
   <properties>
    <property name="Water" value="T"/>
   </properties>
  </tile>
  <tile id="110">
   <properties>
    <property name="Water" value="T"/>
   </properties>
  </tile>
  <tile id="111">
   <properties>
    <property name="Water" value="T"/>
   </properties>
  </tile>
  <tile id="123">
   <properties>
    <property name="Water" value="T"/>
   </properties>
  </tile>
  <tile id="124">
   <properties>
    <property name="Water" value="T"/>
   </properties>
  </tile>
  <tile id="125">
   <properties>
    <property name="Water" value="T"/>
   </properties>
  </tile>
  <tile id="126">
   <properties>
    <property name="Water" value="T"/>
   </properties>
  </tile>
  <tile id="127">
   <properties>
    <property name="Water" value="T"/>
   </properties>
  </tile>
  <tile id="139">
   <properties>
    <property name="Water" value="T"/>
   </properties>
  </tile>
  <tile id="140">
   <properties>
    <property name="Water" value="T"/>
   </properties>
  </tile>
  <tile id="141">
   <properties>
    <property name="Water" value="T"/>
   </properties>
  </tile>
  <tile id="143">
   <properties>
    <property name="Type" value="Stone"/>
   </properties>
  </tile>
  <tile id="155">
   <properties>
    <property name="Water" value="T"/>
   </properties>
  </tile>
  <tile id="156">
   <properties>
    <property name="Water" value="T"/>
   </properties>
  </tile>
  <tile id="171">
   <properties>
    <property name="Water" value="T"/>
   </properties>
  </tile>
  <tile id="172">
   <properties>
    <property name="Water" value="T"/>
   </properties>
  </tile>
  <tile id="174">
   <properties>
    <property name="Type" value="Stone"/>
   </properties>
  </tile>
  <tile id="190">
   <properties>
    <property name="Type" value="Stone"/>
   </properties>
  </tile>
  <tile id="206">
   <properties>
    <property name="Type" value="Stone"/>
   </properties>
  </tile>
 </tileset>
 <tileset firstgid="2066" name="paths" tilewidth="16" tileheight="16" tilecount="64" columns="4">
  <image source="paths" width="64" height="256"/>
 </tileset>
 <layer id="1" name="kittycatcasey.Stardew3D/FloorData_Center" width="50" height="72">
  <data encoding="csv">
129,129,129,129,129,129,129,129,129,129,129,129,129,129,129,129,129,129,129,129,129,129,129,129,129,129,129,129,129,129,129,129,129,129,129,129,129,129,129,129,129,129,129,129,129,129,129,129,129,129,
129,129,129,129,129,129,129,129,129,129,129,129,129,129,129,129,129,129,129,129,129,129,129,129,129,129,129,129,129,129,129,129,129,129,129,129,129,129,129,129,129,129,129,129,129,129,129,129,129,129,
129,129,129,129,129,129,129,129,129,129,129,129,129,129,129,129,129,129,129,129,129,129,129,129,129,129,129,129,129,129,129,129,129,129,129,129,129,129,129,129,129,129,129,129,129,129,129,129,129,129,
129,129,129,129,129,129,129,129,129,129,129,129,129,129,129,129,129,129,129,129,129,129,129,129,129,129,129,129,129,129,129,129,129,129,129,129,129,129,129,129,129,129,129,129,129,129,129,129,129,129,
129,129,129,129,129,129,129,129,1,129,129,129,129,129,129,129,129,129,129,129,129,129,129,129,129,129,129,129,129,129,129,129,129,129,129,129,129,129,129,129,129,129,129,129,129,129,129,129,129,129,
129,129,129,129,129,129,129,129,1,129,129,129,129,129,129,129,129,129,129,129,129,129,129,129,129,129,129,1,1,1,1,1,1,1,1,1,1,1,1,1,1,129,129,129,129,129,129,129,129,129,
129,129,129,129,129,129,129,129,1,129,129,129,129,129,129,129,129,129,129,129,129,129,129,129,1,1,1,1,1,1,1,1,1,1,1,1,1,1,1,1,1,1,1,129,129,129,129,129,129,129,
129,129,129,129,129,129,1,1,1,1,1,1,1,1,1,1,1,1,1,1,1,1,1,1,1,1,1,1,1,1,1,1,1,1,1,1,1,1,1,1,1,1,1,1,1,129,129,129,129,129,
129,129,129,129,1,1,1,1,1,1,1,1,1,1,1,1,1,1,1,1,1,1,1,1,1,1,1,1,1,1,1,1,1,1,1,1,1,1,1,1,1,1,1,1,1,1,1,129,129,129,
129,129,1,1,1,1,1,1,1,1,1,1,1,1,1,1,1,1,1,1,1,1,1,1,1,1,1,1,1,1,1,1,1,1,1,1,1,1,1,1,1,1,1,1,1,1,1,129,129,129,
129,129,1,1,1,1,1,1,1,1,1,1,1,1,1,1,1,1,1,1,1,1,1,1,1,1,1,1,1,1,1,1,1,1,1,1,1,1,1,1,1,1,1,1,1,1,1,129,129,129,
129,129,1,1,1,1,1,81,81,81,81,81,81,1,1,1,1,1,1,1,1,1,1,1,1,1,1,1,1,1,1,1,1,1,1,1,1,1,1,1,1,1,1,1,1,1,1,129,129,129,
129,129,1,1,1,1,1,81,81,81,81,81,81,1,1,1,1,1,1,1,1,1,1,1,1,1,1,1,1,1,1,1,1,1,1,1,1,1,1,1,1,1,1,1,1,1,1,129,129,129,
129,129,1,1,1,81,81,81,81,81,81,81,81,81,1,1,1,1,1,1,1,1,1,1,1,1,1,1,1,1,1,1,1,1,1,1,1,1,1,1,1,1,1,1,1,1,1,1,129,129,
129,129,1,1,1,81,81,81,81,81,81,81,81,81,1,1,1,1,1,1,1,1,1,1,1,1,1,1,1,1,1,1,1,1,1,1,1,1,1,1,1,1,1,1,1,1,1,1,129,129,
129,129,1,1,81,81,81,81,81,81,81,81,81,81,1,1,1,1,1,1,1,1,1,1,1,1,1,1,1,1,1,1,1,1,1,1,1,1,1,1,1,1,1,1,1,1,1,1,129,129,
129,129,1,1,81,81,81,81,81,81,81,81,81,81,1,1,1,1,1,1,1,1,1,1,1,1,1,1,1,1,1,1,1,1,1,1,1,1,1,1,1,1,1,1,1,1,1,1,129,129,
129,129,1,1,81,81,81,81,81,81,81,81,81,1,1,1,1,1,1,1,1,1,1,1,1,1,1,1,1,1,1,1,1,1,1,1,1,1,1,1,1,1,1,1,1,1,1,1,129,129,
129,129,1,1,81,81,81,81,81,81,1,1,1,1,1,1,1,1,1,1,1,1,1,1,1,1,1,1,1,1,1,1,1,1,1,1,1,1,1,1,1,1,1,1,1,1,1,1,129,129,
129,129,1,1,1,81,81,81,81,1,1,1,1,1,1,1,1,1,1,1,1,1,1,1,1,1,1,1,1,1,1,1,1,1,1,1,1,1,1,1,1,1,1,1,1,1,1,1,129,129,
129,129,1,1,1,1,1,1,1,1,1,1,1,1,1,1,1,1,1,1,1,1,1,1,1,1,1,1,1,1,1,1,1,1,1,1,1,1,1,1,1,1,1,1,1,1,1,1,129,129,
1,1,1,1,1,1,1,1,1,1,1,1,1,1,1,1,1,1,1,1,1,1,1,1,1,1,1,1,1,1,1,1,1,1,1,1,1,1,1,1,1,1,1,1,1,1,1,1,129,129,
1,1,1,1,1,1,1,1,1,1,1,1,1,1,1,1,1,1,1,1,1,1,1,1,1,1,1,1,1,1,1,1,1,1,1,1,1,1,1,1,1,1,1,1,1,1,1,1,129,129,
1,1,1,1,1,1,1,1,1,1,1,1,1,1,1,1,1,1,1,1,1,1,1,1,1,1,1,1,1,1,1,1,1,1,1,1,1,1,1,1,1,1,1,1,1,1,1,1,129,129,
1,1,1,1,1,1,1,1,1,1,1,1,1,1,1,1,1,1,1,1,1,1,1,1,1,1,1,1,1,1,1,1,1,1,1,1,1,1,1,1,1,1,1,1,1,1,1,1,1,1,
1,1,1,1,1,1,1,1,1,1,1,1,1,1,1,1,1,1,1,1,1,1,1,1,1,1,1,1,1,1,1,1,1,1,1,1,1,1,1,1,1,1,1,1,1,1,1,1,1,1,
1,1,1,1,1,1,1,1,1,1,1,1,1,1,1,1,1,1,1,1,1,1,1,1,1,1,1,1,1,1,1,1,1,1,1,1,1,1,1,1,1,1,1,1,1,1,1,1,1,1,
1,1,1,1,1,1,1,1,1,1,1,1,1,1,1,1,1,1,1,1,1,1,1,1,1,1,1,1,1,1,1,1,1,1,1,1,1,1,1,1,1,1,1,1,1,1,1,1,1,1,
1,1,1,1,1,1,1,1,1,1,1,1,1,1,1,1,1,1,1,1,1,1,1,1,1,1,1,1,1,1,1,1,1,1,1,1,1,1,1,1,1,1,1,1,1,1,1,1,1,1,
1,1,1,1,1,1,1,1,1,1,1,1,1,1,1,1,1,1,1,1,1,1,1,1,1,1,1,1,1,1,1,1,1,1,1,1,1,1,1,1,1,1,1,1,1,1,1,1,1,1,
257,257,1,1,1,1,1,1,1,1,1,1,1,1,1,1,1,1,1,1,1,1,1,1,1,1,1,1,1,1,1,1,1,1,1,1,1,1,1,1,1,1,1,1,1,1,1,1,129,129,
257,257,129,129,129,129,129,129,129,129,129,129,1,1,1,1,1,1,1,1,1,1,1,1,1,1,1,1,1,1,1,1,1,1,1,1,1,1,1,1,1,1,1,1,1,1,1,1,129,129,
257,257,129,129,129,129,129,129,129,129,129,129,1,1,1,1,1,1,1,1,1,1,1,1,1,1,1,1,1,1,1,129,129,129,129,129,129,129,129,1,1,1,1,1,1,1,1,1,129,129,
257,257,129,129,129,129,129,129,129,129,129,129,1,1,1,1,1,1,1,1,1,1,1,1,1,1,1,1,1,1,1,129,129,129,129,129,129,129,129,129,1,1,1,1,1,1,1,1,129,129,
257,257,129,129,129,129,129,129,129,129,129,129,1,1,1,1,1,1,1,1,1,1,1,1,1,1,1,1,1,1,129,129,129,129,129,129,129,129,129,129,1,1,1,1,1,1,1,1,129,129,
257,257,129,129,129,129,129,129,129,129,129,129,1,1,1,1,1,1,1,1,1,1,1,1,1,1,1,1,1,1,129,129,129,129,129,129,129,129,129,129,1,1,1,1,1,1,1,1,129,129,
257,257,129,129,129,129,129,129,129,129,129,129,1,1,1,1,1,1,1,1,1,1,1,1,1,1,1,1,1,1,129,129,129,129,129,129,129,129,129,129,1,1,1,1,1,1,1,1,129,129,
257,257,129,129,129,129,129,129,129,129,129,129,1,1,1,1,1,1,1,1,1,1,1,1,1,1,1,1,1,1,129,129,129,129,129,129,129,129,129,129,1,1,1,1,1,1,1,1,129,129,
257,257,129,129,129,129,129,129,129,129,129,129,1,1,1,1,1,1,1,1,1,1,1,1,1,1,1,1,1,1,129,129,129,129,129,129,129,129,129,129,1,1,1,1,1,1,1,1,129,129,
257,257,129,129,129,129,129,129,129,129,129,129,1,1,1,1,1,1,1,1,1,1,1,1,1,1,1,1,1,1,129,129,129,129,129,129,129,129,129,129,1,1,1,1,1,1,1,1,129,129,
257,257,129,129,129,129,129,129,129,129,129,129,1,1,1,1,1,1,1,1,1,1,1,1,1,1,1,1,1,1,129,129,129,129,129,129,129,129,129,129,1,1,1,1,1,1,1,1,129,129,
129,129,129,129,129,129,129,129,129,129,129,129,1,1,1,1,1,1,1,1,1,1,1,1,1,1,1,1,1,1,129,129,129,129,129,129,129,129,129,129,1,1,1,1,1,1,1,1,129,129,
129,129,129,129,129,129,129,129,129,129,129,129,1,1,1,1,1,1,1,1,1,1,1,1,1,1,1,1,1,1,129,129,129,129,129,129,129,129,1,1,1,1,1,1,1,1,1,1,129,129,
129,129,129,129,129,129,129,129,129,129,129,129,1,1,1,1,1,1,1,1,1,1,1,1,1,1,1,1,1,1,1,1,1,1,1,1,1,1,1,1,1,1,1,1,1,1,1,1,129,129,
129,129,1,1,1,1,1,1,1,1,1,1,1,1,1,1,1,1,1,1,1,1,1,1,1,1,1,1,1,1,1,1,1,1,1,1,1,1,1,1,1,1,1,1,1,1,1,1,129,129,
129,129,1,1,1,1,1,1,1,1,1,1,1,1,1,1,1,1,1,1,1,1,1,1,1,1,1,1,1,1,1,1,1,1,1,1,1,1,1,1,1,1,1,1,1,1,1,1,129,129,
129,129,1,1,1,1,1,1,1,1,1,1,1,1,1,1,1,1,1,1,1,1,1,1,1,1,1,1,1,1,1,1,1,1,1,1,1,1,1,1,1,1,1,1,1,1,1,1,129,129,
129,129,1,1,1,1,1,1,1,1,1,1,1,1,1,1,1,1,1,1,1,1,1,1,1,1,1,1,1,1,1,1,1,1,1,1,1,1,1,1,1,1,1,1,1,1,1,1,129,129,
129,129,1,1,1,1,1,1,1,1,1,1,1,1,1,1,1,1,1,1,1,1,1,1,1,1,1,1,1,1,1,1,1,1,1,1,1,1,1,1,1,1,1,1,1,1,1,1,129,129,
129,1,1,1,1,1,1,1,1,1,1,1,1,1,1,1,1,1,1,1,1,1,1,1,1,1,1,1,1,1,1,1,1,1,1,1,1,1,1,1,1,1,1,1,1,1,1,1,129,129,
129,1,1,1,1,1,1,1,1,1,1,1,1,1,1,1,1,1,1,1,1,1,1,1,1,1,1,1,1,1,1,1,1,1,1,1,1,1,1,1,1,1,1,1,1,1,1,1,129,129,
129,1,1,1,1,1,1,1,1,1,1,1,1,1,1,1,1,1,1,1,1,1,1,1,1,1,1,1,1,1,1,1,1,1,1,1,1,1,1,1,1,1,1,1,1,1,1,1,129,129,
129,1,1,1,1,1,1,1,1,1,1,1,1,1,1,1,1,1,1,1,1,1,1,1,1,1,1,1,1,1,1,1,1,1,1,1,1,1,1,1,1,1,1,1,1,1,1,1,129,129,
129,1,1,1,1,1,1,1,1,1,1,1,1,1,1,1,1,1,1,1,1,1,1,1,1,1,1,1,1,145,145,145,145,145,145,1,1,1,1,1,1,1,1,1,1,1,1,1,129,129,
129,1,1,1,1,1,1,1,1,1,1,1,1,1,1,1,1,1,1,1,1,1,1,1,1,1,1,1,1,145,145,145,145,145,145,145,145,1,1,1,1,1,1,1,1,1,1,1,129,129,
129,1,1,1,1,1,1,1,1,1,1,1,1,1,1,1,1,1,1,1,1,1,1,1,1,1,1,1,1,145,145,145,145,145,145,145,145,145,145,1,1,1,1,1,1,1,1,1,1,1,
129,1,1,1,1,1,1,1,1,1,1,1,1,1,1,1,1,1,1,1,1,1,1,1,1,1,1,1,1,209,209,209,209,209,209,145,145,145,145,1,1,1,1,1,1,1,1,1,1,1,
1,1,1,1,1,1,1,1,1,1,1,1,1,1,1,1,1,1,1,1,1,1,1,1,1,1,1,1,1,209,209,209,209,209,209,145,145,145,145,1,1,1,1,1,1,1,1,1,1,1,
1,1,1,1,1,1,1,1,1,1,1,1,1,1,1,1,1,1,1,1,1,1,1,145,145,145,145,145,145,209,209,209,209,209,209,209,145,145,145,1,1,1,1,1,1,1,1,1,1,1,
1,1,1,1,1,1,1,1,1,1,1,1,1,1,1,1,1,145,145,145,145,145,145,145,145,145,145,145,145,209,209,209,209,209,209,209,145,145,145,1,1,1,1,1,1,1,1,1,1,1,
1,1,1,145,145,145,145,145,145,145,145,145,145,145,145,145,145,145,145,145,145,145,145,145,145,145,145,209,209,209,209,209,209,209,209,209,145,145,145,145,145,145,145,145,145,145,145,145,145,145,
145,145,145,145,145,145,145,145,145,145,145,145,145,145,145,145,145,145,145,145,145,145,145,145,145,145,145,209,209,209,209,209,209,209,209,145,145,145,145,145,145,145,145,145,145,145,145,145,145,145,
145,145,145,145,145,145,145,145,145,145,145,145,145,145,145,145,145,145,145,145,145,145,145,145,145,145,209,209,209,209,209,209,209,209,145,145,145,145,145,145,145,145,145,145,145,145,145,145,145,145,
145,145,145,145,145,145,145,145,145,145,145,145,145,145,145,145,145,145,145,145,145,145,145,145,145,145,209,209,209,209,209,209,209,209,145,145,145,145,145,145,145,145,145,145,145,145,145,145,145,145,
145,145,145,145,145,145,145,145,145,145,145,145,145,145,145,145,145,145,145,145,145,145,145,145,145,145,209,209,209,209,209,209,209,209,145,145,145,145,145,145,145,145,145,145,145,145,145,145,145,145,
273,273,273,273,273,273,273,145,145,145,145,145,145,145,145,145,145,145,145,145,145,145,145,145,145,145,209,209,209,209,209,209,145,145,145,145,145,145,145,145,145,145,273,273,273,273,273,273,273,273,
273,273,273,273,273,273,273,273,273,273,145,145,145,145,145,273,273,273,273,273,273,273,145,145,145,145,145,145,145,145,145,145,145,145,145,145,145,145,273,273,273,273,273,273,273,273,273,273,273,273,
273,273,273,273,273,273,273,273,273,273,273,273,273,273,273,273,273,273,273,273,273,273,145,145,145,145,145,145,145,145,145,145,145,145,145,145,145,145,273,273,273,273,273,273,273,273,273,273,273,273,
273,273,273,273,273,273,273,273,273,273,273,273,273,273,273,273,273,273,273,273,273,273,145,145,145,145,145,145,145,145,145,145,145,145,145,145,145,145,273,273,273,273,273,273,273,273,273,273,273,273,
273,273,273,273,273,273,273,273,273,273,273,273,273,273,273,273,273,273,273,273,273,273,145,145,145,145,145,145,145,145,145,145,145,145,145,145,145,145,273,273,273,273,273,273,273,273,273,273,273,273,
273,273,273,273,273,273,273,273,273,273,273,273,273,273,273,273,273,273,273,273,273,273,145,145,145,145,145,145,145,145,145,145,145,145,145,145,145,145,273,273,273,273,273,273,273,273,273,273,273,273,
273,273,273,273,273,273,273,273,273,273,273,273,273,273,273,273,273,273,273,273,273,273,273,273,145,145,145,145,145,145,145,145,145,145,145,145,145,145,273,273,273,273,273,273,273,401,401,401,401,401
</data>
 </layer>
 <layer id="2" name="kittycatcasey.Stardew3D/WaterData_Center" width="50" height="72">
  <data encoding="csv">
0,0,0,0,0,0,0,0,0,0,0,0,0,0,0,0,0,0,0,0,0,0,0,0,0,0,0,0,0,0,0,0,0,0,0,0,0,0,0,0,0,0,0,0,0,0,0,0,0,0,
0,0,0,0,0,0,0,0,0,0,0,0,0,0,0,0,0,0,0,0,0,0,0,0,0,0,0,0,0,0,0,0,0,0,0,0,0,0,0,0,0,0,0,0,0,0,0,0,0,0,
0,0,0,0,0,0,0,0,0,0,0,0,0,0,0,0,0,0,0,0,0,0,0,0,0,0,0,0,0,0,0,0,0,0,0,0,0,0,0,0,0,0,0,0,0,0,0,0,0,0,
0,0,0,0,0,0,0,0,0,0,0,0,0,0,0,0,0,0,0,0,0,0,0,0,0,0,0,0,0,0,0,0,0,0,0,0,0,0,0,0,0,0,0,0,0,0,0,0,0,0,
0,0,0,0,0,0,0,0,0,0,0,0,0,0,0,0,0,0,0,0,0,0,0,0,0,0,0,0,0,0,0,0,0,0,0,0,0,0,0,0,0,0,0,0,0,0,0,0,0,0,
0,0,0,0,0,0,0,0,0,0,0,0,0,0,0,0,0,0,0,0,0,0,0,0,0,0,0,0,0,0,0,0,0,0,0,0,0,0,0,0,0,0,0,0,0,0,0,0,0,0,
0,0,0,0,0,0,0,0,0,0,0,0,0,0,0,0,0,0,0,0,0,0,0,0,0,0,0,0,0,0,0,0,0,0,0,0,0,0,0,0,0,0,0,0,0,0,0,0,0,0,
0,0,0,0,0,0,0,0,0,0,0,0,0,0,0,0,0,0,0,0,0,0,0,0,0,0,0,0,0,0,0,0,0,0,0,0,0,0,0,0,0,0,0,0,0,0,0,0,0,0,
0,0,0,0,0,0,0,0,0,0,0,0,0,0,0,0,0,0,0,0,0,0,0,0,0,0,0,0,0,0,0,0,0,0,0,0,0,0,0,0,0,0,0,0,0,0,0,0,0,0,
0,0,0,0,0,0,0,0,0,0,0,0,0,0,0,0,0,0,0,0,0,0,0,0,0,0,0,0,0,0,0,0,0,0,0,0,0,0,0,0,0,0,0,0,0,0,0,0,0,0,
0,0,0,0,0,0,0,0,0,0,0,0,0,0,0,0,0,0,0,0,0,0,0,0,0,0,0,0,0,0,0,0,0,0,0,0,0,0,0,0,0,0,0,0,0,0,0,0,0,0,
0,0,0,0,0,0,0,25,25,25,25,25,25,0,0,0,0,0,0,0,0,0,0,0,0,0,0,0,0,0,0,0,0,0,0,0,0,0,0,0,0,0,0,0,0,0,0,0,0,0,
0,0,0,0,0,0,0,25,25,25,25,25,25,0,0,0,0,0,0,0,0,0,0,0,0,0,0,0,0,0,0,0,0,0,0,0,0,0,0,0,0,0,0,0,0,0,0,0,0,0,
0,0,0,0,0,25,25,25,25,25,25,25,25,25,0,0,0,0,0,0,0,0,0,0,0,0,0,0,0,0,0,0,0,0,0,0,0,0,0,0,0,0,0,0,0,0,0,0,0,0,
0,0,0,0,0,25,25,25,25,25,25,25,25,25,0,0,0,0,0,0,0,0,0,0,0,0,0,0,0,0,0,0,0,0,0,0,0,0,0,0,0,0,0,0,0,0,0,0,0,0,
0,0,0,0,25,25,25,25,25,25,25,25,25,25,0,0,0,0,0,0,0,0,0,0,0,0,0,0,0,0,0,0,0,0,0,0,0,0,0,0,0,0,0,0,0,0,0,0,0,0,
0,0,0,0,25,25,25,25,25,25,25,25,25,25,0,0,0,0,0,0,0,0,0,0,0,0,0,0,0,0,0,0,0,0,0,0,0,0,0,0,0,0,0,0,0,0,0,0,0,0,
0,0,0,0,25,25,25,25,25,25,25,25,25,0,0,0,0,0,0,0,0,0,0,0,0,0,0,0,0,0,0,0,0,0,0,0,0,0,0,0,0,0,0,0,0,0,0,0,0,0,
0,0,0,0,25,25,25,25,25,25,0,0,0,0,0,0,0,0,0,0,0,0,0,0,0,0,0,0,0,0,0,0,0,0,0,0,0,0,0,0,0,0,0,0,0,0,0,0,0,0,
0,0,0,0,0,25,25,25,25,0,0,0,0,0,0,0,0,0,0,0,0,0,0,0,0,0,0,0,0,0,0,0,0,0,0,0,0,0,0,0,0,0,0,0,0,0,0,0,0,0,
0,0,0,0,0,0,0,0,0,0,0,0,0,0,0,0,0,0,0,0,0,0,0,0,0,0,0,0,0,0,0,0,0,0,0,0,0,0,0,0,0,0,0,0,0,0,0,0,0,0,
0,0,0,0,0,0,0,0,0,0,0,0,0,0,0,0,0,0,0,0,0,0,0,0,0,0,0,0,0,0,0,0,0,0,0,0,0,0,0,0,0,0,0,0,0,0,0,0,0,0,
0,0,0,0,0,0,0,0,0,0,0,0,0,0,0,0,0,0,0,0,0,0,0,0,0,0,0,0,0,0,0,0,0,0,0,0,0,0,0,0,0,0,0,0,0,0,0,0,0,0,
0,0,0,0,0,0,0,0,0,0,0,0,0,0,0,0,0,0,0,0,0,0,0,0,0,0,0,0,0,0,0,0,0,0,0,0,0,0,0,0,0,0,0,0,0,0,0,0,0,0,
0,0,0,0,0,0,0,0,0,0,0,0,0,0,0,0,0,0,0,0,0,0,0,0,0,0,0,0,0,0,0,0,0,0,0,0,0,0,0,0,0,0,0,0,0,0,0,0,0,0,
0,0,0,0,0,0,0,0,0,0,0,0,0,0,0,0,0,0,0,0,0,0,0,0,0,0,0,0,0,0,0,0,0,0,0,0,0,0,0,0,0,0,0,0,0,0,0,0,0,0,
0,0,0,0,0,0,0,0,0,0,0,0,0,0,0,0,0,0,0,0,0,0,0,0,0,0,0,0,0,0,0,0,0,0,0,0,0,0,0,0,0,0,0,0,0,0,0,0,0,0,
0,0,0,0,0,0,0,0,0,0,0,0,0,0,0,0,0,0,0,0,0,0,0,0,0,0,0,0,0,0,0,0,0,0,0,0,0,0,0,0,0,0,0,0,0,0,0,0,0,0,
0,0,0,0,0,0,0,0,0,0,0,0,0,0,0,0,0,0,0,0,0,0,0,0,0,0,0,0,0,0,0,0,0,0,0,0,0,0,0,0,0,0,0,0,0,0,0,0,0,0,
0,0,0,0,0,0,0,0,0,0,0,0,0,0,0,0,0,0,0,0,0,0,0,0,0,0,0,0,0,0,0,0,0,0,0,0,0,0,0,0,0,0,0,0,0,0,0,0,0,0,
0,0,0,0,0,0,0,0,0,0,0,0,0,0,0,0,0,0,0,0,0,0,0,0,0,0,0,0,0,0,0,0,0,0,0,0,0,0,0,0,0,0,0,0,0,0,0,0,0,0,
0,0,0,0,0,0,0,0,0,0,0,0,0,0,0,0,0,0,0,0,0,0,0,0,0,0,0,0,0,0,0,0,0,0,0,0,0,0,0,0,0,0,0,0,0,0,0,0,0,0,
0,0,0,0,0,0,0,0,0,0,0,0,0,0,0,0,0,0,0,0,0,0,0,0,0,0,0,0,0,0,0,0,0,0,0,0,0,0,0,0,0,0,0,0,0,0,0,0,0,0,
0,0,0,0,0,0,0,0,0,0,0,0,0,0,0,0,0,0,0,0,0,0,0,0,0,0,0,0,0,0,0,0,0,0,0,0,0,0,0,0,0,0,0,0,0,0,0,0,0,0,
0,0,0,0,0,0,0,0,0,0,0,0,0,0,0,0,0,0,0,0,0,0,0,0,0,0,0,0,0,0,0,0,0,0,0,0,0,0,0,0,0,0,0,0,0,0,0,0,0,0,
0,0,0,0,0,0,0,0,0,0,0,0,0,0,0,0,0,0,0,0,0,0,0,0,0,0,0,0,0,0,0,0,0,0,0,0,0,0,0,0,0,0,0,0,0,0,0,0,0,0,
0,0,0,0,0,0,0,0,0,0,0,0,0,0,0,0,0,0,0,0,0,0,0,0,0,0,0,0,0,0,0,0,0,0,0,0,0,0,0,0,0,0,0,0,0,0,0,0,0,0,
0,0,0,0,0,0,0,0,0,0,0,0,0,0,0,0,0,0,0,0,0,0,0,0,0,0,0,0,0,0,0,0,0,0,0,0,0,0,0,0,0,0,0,0,0,0,0,0,0,0,
0,0,0,0,0,0,0,0,0,0,0,0,0,0,0,0,0,0,0,0,0,0,0,0,0,0,0,0,0,0,0,0,0,0,0,0,0,0,0,0,0,0,0,0,0,0,0,0,0,0,
0,0,0,0,0,0,0,0,0,0,0,0,0,0,0,0,0,0,0,0,0,0,0,0,0,0,0,0,0,0,0,0,0,0,0,0,0,0,0,0,0,0,0,0,0,0,0,0,0,0,
0,0,0,0,0,0,0,0,0,0,0,0,0,0,0,0,0,0,0,0,0,0,0,0,0,0,0,0,0,0,0,0,0,0,0,0,0,0,0,0,0,0,0,0,0,0,0,0,0,0,
0,0,0,0,0,0,0,0,0,0,0,0,0,0,0,0,0,0,0,0,0,0,0,0,0,0,0,0,0,0,0,0,0,0,0,0,0,0,0,0,0,0,0,0,0,0,0,0,0,0,
0,0,0,0,0,0,0,0,0,0,0,0,0,0,0,0,0,0,0,0,0,0,0,0,0,0,0,0,0,0,0,0,0,0,0,0,0,0,0,0,0,0,0,0,0,0,0,0,0,0,
0,0,0,0,0,0,0,0,0,0,0,0,0,0,0,0,0,0,0,0,0,0,0,0,0,0,0,0,0,0,0,0,0,0,0,0,0,0,0,0,0,0,0,0,0,0,0,0,0,0,
0,0,0,0,0,0,0,0,0,0,0,0,0,0,0,0,0,0,0,0,0,0,0,0,0,0,0,0,0,0,0,0,0,0,0,0,0,0,0,0,0,0,0,0,0,0,0,0,0,0,
0,0,0,0,0,0,0,0,0,0,0,0,0,0,0,0,0,0,0,0,0,0,0,0,0,0,0,0,0,0,0,0,0,0,0,0,0,0,0,0,0,0,0,0,0,0,0,0,0,0,
0,0,0,0,0,0,0,0,0,0,0,0,0,0,0,0,0,0,0,0,0,0,0,0,0,0,0,0,0,0,0,0,0,0,0,0,0,0,0,0,0,0,0,0,0,0,0,0,0,0,
0,0,0,0,0,0,0,0,0,0,0,0,0,0,0,0,0,0,0,0,0,0,0,0,0,0,0,0,0,0,0,0,0,0,0,0,0,0,0,0,0,0,0,0,0,0,0,0,0,0,
0,0,0,0,0,0,0,0,0,0,0,0,0,0,0,0,0,0,0,0,0,0,0,0,0,0,0,0,0,0,0,0,0,0,0,0,0,0,0,0,0,0,0,0,0,0,0,0,0,0,
0,0,0,0,0,0,0,0,0,0,0,0,0,0,0,0,0,0,0,0,0,0,0,0,0,0,0,0,0,0,0,0,0,0,0,0,0,0,0,0,0,0,0,0,0,0,0,0,0,0,
0,0,0,0,0,0,0,0,0,0,0,0,0,0,0,0,0,0,0,0,0,0,0,0,0,0,0,0,0,0,0,0,0,0,0,0,0,0,0,0,0,0,0,0,0,0,0,0,0,0,
0,0,0,0,0,0,0,0,0,0,0,0,0,0,0,0,0,0,0,0,0,0,0,0,0,0,0,0,0,0,0,0,0,0,0,0,0,0,0,0,0,0,0,0,0,0,0,0,0,0,
0,0,0,0,0,0,0,0,0,0,0,0,0,0,0,0,0,0,0,0,0,0,0,0,0,0,0,0,0,0,0,0,0,0,0,0,0,0,0,0,0,0,0,0,0,0,0,0,0,0,
0,0,0,0,0,0,0,0,0,0,0,0,0,0,0,0,0,0,0,0,0,0,0,0,0,0,0,0,0,0,0,0,0,0,0,0,0,0,0,0,0,0,0,0,0,0,0,0,0,0,
0,0,0,0,0,0,0,0,0,0,0,0,0,0,0,0,0,0,0,0,0,0,0,0,0,0,0,0,0,0,0,0,0,0,0,0,0,0,0,0,0,0,0,0,0,0,0,0,0,0,
0,0,0,0,0,0,0,0,0,0,0,0,0,0,0,0,0,0,0,0,0,0,0,0,0,0,0,0,0,0,0,0,0,0,0,0,0,0,0,0,0,0,0,0,0,0,0,0,0,0,
0,0,0,0,0,0,0,0,0,0,0,0,0,0,0,0,0,0,0,0,0,0,0,0,0,0,0,0,0,153,153,153,153,153,153,0,0,0,0,0,0,0,0,0,0,0,0,0,0,0,
0,0,0,0,0,0,0,0,0,0,0,0,0,0,0,0,0,0,0,0,0,0,0,0,0,0,0,0,0,153,153,153,153,153,153,0,0,0,0,0,0,0,0,0,0,0,0,0,0,0,
0,0,0,0,0,0,0,0,0,0,0,0,0,0,0,0,0,0,0,0,0,0,0,0,0,0,0,0,0,153,153,153,153,153,153,153,0,0,0,0,0,0,0,0,0,0,0,0,0,0,
0,0,0,0,0,0,0,0,0,0,0,0,0,0,0,0,0,0,0,0,0,0,0,0,0,0,0,0,0,153,153,153,153,153,153,153,0,0,0,0,0,0,0,0,0,0,0,0,0,0,
0,0,0,0,0,0,0,0,0,0,0,0,0,0,0,0,0,0,0,0,0,0,0,0,0,0,0,153,153,153,153,153,153,153,153,153,0,0,0,0,0,0,0,0,0,0,0,0,0,0,
0,0,0,0,0,0,0,0,0,0,0,0,0,0,0,0,0,0,0,0,0,0,0,0,0,0,0,153,153,153,153,153,153,153,153,0,0,0,0,0,0,0,0,0,0,0,0,0,0,0,
0,0,0,0,0,0,0,0,0,0,0,0,0,0,0,0,0,0,0,0,0,0,0,0,0,0,153,153,153,153,153,153,153,153,0,0,0,0,0,0,0,0,0,0,0,0,0,0,0,0,
0,0,0,0,0,0,0,0,0,0,0,0,0,0,0,0,0,0,0,0,0,0,0,0,0,0,153,153,153,153,153,153,153,153,0,0,0,0,0,0,0,0,0,0,0,0,0,0,0,0,
0,0,0,0,0,0,0,0,0,0,0,0,0,0,0,0,0,0,0,0,0,0,0,0,0,0,153,153,153,153,153,153,153,153,0,0,0,0,0,0,0,0,0,0,0,0,0,0,0,0,
0,0,0,0,0,0,0,0,0,0,0,0,0,0,0,0,0,0,0,0,0,0,0,0,0,0,153,153,153,153,153,153,0,0,0,0,0,0,0,0,0,0,0,0,0,0,0,0,0,0,
0,0,0,0,0,0,0,0,0,0,0,0,0,0,0,0,0,0,0,0,0,0,0,0,0,0,0,0,0,0,0,0,0,0,0,0,0,0,0,0,0,0,0,529,0,0,0,0,0,0,
0,0,0,0,0,0,0,0,0,0,0,0,0,0,0,0,0,0,0,0,0,0,0,0,0,0,0,0,0,0,0,0,0,0,0,0,0,0,0,0,529,529,529,529,529,529,529,529,529,529,
529,529,529,529,529,529,0,0,0,0,0,0,0,0,0,0,529,529,529,529,529,0,0,0,0,0,0,0,0,0,0,0,0,0,0,0,0,0,0,0,529,529,529,529,529,529,529,529,529,529,
0,0,0,529,529,529,0,0,0,0,0,0,0,0,0,0,0,0,0,0,0,0,0,0,0,0,0,0,0,0,0,0,0,0,0,0,0,0,0,529,529,529,529,529,529,529,529,529,529,529,
0,0,0,0,0,529,529,529,529,0,0,0,0,0,0,0,0,0,0,0,0,0,0,0,0,0,0,0,0,0,0,0,0,0,0,0,0,0,0,529,529,529,529,0,0,0,0,0,0,0,
0,0,0,0,0,0,529,529,0,0,0,0,0,0,0,0,0,0,0,0,0,0,0,0,0,0,0,0,0,0,0,0,0,0,0,0,529,0,529,529,529,529,0,0,0,0,0,0,0,0
</data>
 </layer>
 <objectgroup id="3" name="kittycatcasey.Stardew3D/FloorData_Center"/>
 <objectgroup id="4" name="kittycatcasey.Stardew3D/WaterData_Center"/>
</map>