<?xml version="1.0" encoding="UTF-8"?>
<map version="1.4" tiledversion="1.4.2" orientation="orthogonal" renderorder="right-down" compressionlevel="0" width="12" height="14" tilewidth="16" tileheight="16" infinite="0" nextlayerid="5" nextobjectid="1">
 
 <tileset firstgid="1" name="cave" tilewidth="16" tileheight="16" tilecount="240" columns="16">
  <image source="Mines/mine" width="256" height="240"/>
 </tileset>
 <tileset firstgid="241" name="dataValues3d" tilewidth="16" tileheight="16" tilecount="512" columns="32">
  <image source="ThirdDimensionData/data" width="512" height="256"/>
 </tileset>
 <tileset firstgid="753" name="paths" tilewidth="16" tileheight="16" tilecount="32" columns="4">
  <image source="paths" width="64" height="128"/>
 </tileset>
 <layer id="1" name="kittycatcasey.Stardew3D/FloorData_Center" width="12" height="14">
  <data encoding="csv">
0,0,0,0,0,0,0,0,0,0,0,0,
0,0,0,0,0,0,0,0,0,0,0,0,
0,0,0,0,0,0,0,0,0,0,0,0,
0,0,0,0,0,0,0,0,0,0,0,0,
0,0,0,0,241,241,241,241,241,0,0,0,
0,0,241,241,241,241,241,241,241,241,241,0,
0,0,241,241,241,241,241,241,241,241,241,0,
0,0,241,241,241,241,241,241,241,241,241,0,
0,0,241,241,241,241,241,241,241,241,241,0,
0,0,241,241,241,241,241,241,241,241,241,0,
0,0,0,241,241,241,241,241,241,241,0,0,
0,0,0,0,0,0,0,0,241,0,0,0,
0,0,0,0,0,0,0,0,241,0,0,0,
0,0,0,0,0,0,0,0,0,0,0,0
</data>
 </layer>
 <layer id="2" name="kittycatcasey.Stardew3D/CeilingData_Center" width="12" height="14">
  <data encoding="csv">
0,0,0,0,0,0,0,0,0,0,0,0,
0,0,0,0,0,0,0,0,0,0,0,0,
0,0,0,0,0,0,0,0,0,0,0,0,
0,0,0,0,0,0,0,0,0,0,0,0,
0,0,0,0,369,369,369,369,369,0,0,0,
0,0,369,369,369,369,369,369,369,369,369,0,
0,0,369,369,369,369,369,369,369,369,369,0,
0,0,369,369,369,369,369,369,369,369,369,0,
0,0,369,369,369,369,369,369,369,369,369,0,
0,0,369,369,369,369,369,369,369,369,369,0,
0,0,0,369,369,369,369,369,369,369,0,0,
0,0,0,0,0,0,0,0,369,0,0,0,
0,0,0,0,0,0,0,0,369,0,0,0,
0,0,0,0,0,0,0,0,0,0,0,0
</data>
 </layer>
 <objectgroup id="3" name="kittycatcasey.Stardew3D/FloorData_Center"/>
 <objectgroup id="4" name="kittycatcasey.Stardew3D/CeilingData_Center"/>
</map>