<?xml version="1.0" encoding="UTF-8"?>
<map version="1.4" tiledversion="1.4.2" orientation="orthogonal" renderorder="right-down" compressionlevel="0" width="20" height="24" tilewidth="16" tileheight="16" infinite="0" nextlayerid="5" nextobjectid="1">
 
 <tileset firstgid="1" name="dataValues3d" tilewidth="16" tileheight="16" tilecount="512" columns="32">
  <image source="ThirdDimensionData/data" width="512" height="256"/>
 </tileset>
 <tileset firstgid="513" name="paths" tilewidth="16" tileheight="16" tilecount="16" columns="4">
  <image source="paths" width="64" height="64"/>
 </tileset>
 <tileset firstgid="529" name="untitled tile sheet" tilewidth="16" tileheight="16" tilecount="2112" columns="32">
  <image source="townInterior" width="512" height="1056"/>
  <tile id="1885">
   <properties>
    <property name="Type" value="Wood"/>
   </properties>
  </tile>
  <tile id="1887">
   <properties>
    <property name="Type" value="Stone"/>
   </properties>
  </tile>
  <tile id="1945">
   <properties>
    <property name="Type" value="Stone"/>
   </properties>
  </tile>
  <tile id="1946">
   <properties>
    <property name="Diggable" value="T"/>
    <property name="Type" value="Dirt"/>
   </properties>
  </tile>
  <tile id="2075">
   <properties>
    <property name="Diggable" value="T"/>
    <property name="Type" value="Dirt"/>
   </properties>
  </tile>
  <tile id="2076">
   <properties>
    <property name="Diggable" type="bool" value="True"/>
    <property name="Type" value="Dirt"/>
   </properties>
  </tile>
  <tile id="2078">
   <properties>
    <property name="Type" value="Wood"/>
   </properties>
  </tile>
  <tile id="2079">
   <properties>
    <property name="Type" value="Wood"/>
   </properties>
  </tile>
  <tile id="2106">
   <properties>
    <property name="Type" value="Wood"/>
   </properties>
  </tile>
  <tile id="2107">
   <properties>
    <property name="Diggable" value="T"/>
    <property name="Type" value="Dirt"/>
   </properties>
  </tile>
  <tile id="2108">
   <properties>
    <property name="Diggable" value="T"/>
    <property name="Type" value="Dirt"/>
   </properties>
  </tile>
  <tile id="2109">
   <properties>
    <property name="Type" value="Stone"/>
   </properties>
  </tile>
 </tileset>
 <layer id="1" name="kittycatcasey.Stardew3D/FloorData_Center" width="20" height="24">
  <data encoding="csv">
0,0,0,0,0,0,0,0,0,0,0,0,0,0,0,0,0,0,0,0,
0,0,0,0,0,0,0,0,0,0,0,0,0,0,0,0,0,0,0,0,
0,0,0,0,0,0,0,0,0,0,0,0,0,0,0,0,0,0,0,0,
0,0,0,0,0,0,0,0,0,0,0,0,0,0,0,0,0,0,0,0,
0,0,0,0,0,0,0,0,0,0,0,0,0,0,0,0,0,0,0,0,
0,0,0,0,0,0,0,0,0,0,0,0,0,0,0,0,0,0,0,0,
0,0,0,0,0,0,0,0,0,0,0,0,0,0,0,0,0,0,0,0,
0,1,1,1,1,1,1,1,1,1,1,1,1,1,1,1,1,1,1,0,
0,1,1,1,1,1,1,1,1,1,1,1,1,1,1,1,1,1,1,0,
0,1,1,1,1,1,1,1,1,1,1,1,1,1,1,1,1,1,1,0,
0,1,1,1,1,1,1,1,1,1,1,1,1,1,1,1,1,1,1,0,
0,1,1,1,1,1,1,1,1,1,1,1,1,1,1,1,1,1,1,0,
0,1,1,1,1,1,1,1,1,1,1,1,1,1,1,1,1,1,1,0,
0,1,1,1,1,1,1,1,1,1,1,1,1,1,1,1,1,1,1,0,
0,1,1,1,1,1,1,1,1,1,1,1,1,1,1,1,1,1,1,0,
0,1,1,1,1,1,1,1,1,1,1,1,1,1,1,1,1,1,1,0,
0,1,1,1,1,1,1,1,1,1,1,1,1,1,1,1,1,1,1,0,
0,1,1,1,1,1,1,1,1,1,1,1,1,1,1,1,1,1,1,0,
0,1,1,1,1,1,1,1,1,1,1,1,1,1,1,1,1,1,1,0,
0,1,1,1,1,1,1,1,1,1,1,1,1,1,1,1,1,1,1,0,
0,1,1,1,1,1,1,1,1,1,1,1,1,1,1,1,1,1,1,0,
0,1,1,1,1,1,1,1,1,1,1,1,1,1,1,1,1,1,1,0,
0,1,1,1,1,1,1,1,1,1,1,1,1,1,1,1,1,1,1,0,
0,0,0,0,0,0,0,0,0,0,1,0,0,0,0,0,0,0,0,0
</data>
 </layer>
 <layer id="2" name="kittycatcasey.Stardew3D/CeilingData_Center" width="20" height="24">
  <data encoding="csv">
0,0,0,0,0,0,0,0,0,0,0,0,0,0,0,0,0,0,0,0,
0,0,0,0,0,0,0,0,0,0,0,0,0,0,0,0,0,0,0,0,
0,0,0,0,0,0,0,0,0,0,0,0,0,0,0,0,0,0,0,0,
0,0,0,0,0,0,0,0,0,0,0,0,0,0,0,0,0,0,0,0,
0,0,0,0,0,0,0,0,0,0,0,0,0,0,0,0,0,0,0,0,
0,0,0,0,0,0,0,0,0,0,0,0,0,0,0,0,0,0,0,0,
0,0,0,0,0,0,0,0,0,0,0,0,0,0,0,0,0,0,0,0,
0,225,225,225,225,225,225,225,225,225,225,225,225,225,225,225,225,225,225,0,
0,225,225,225,225,225,225,225,225,225,225,225,225,225,225,225,225,225,225,0,
0,225,225,225,225,225,225,225,225,225,225,225,225,225,225,225,225,225,225,0,
0,225,225,225,225,225,225,225,225,225,225,225,225,225,225,225,225,225,225,0,
0,225,225,225,225,225,225,225,225,225,225,225,225,225,225,225,225,225,225,0,
0,225,225,225,225,225,225,225,225,225,225,225,225,225,225,225,225,225,225,0,
0,225,225,225,225,225,225,225,225,225,225,225,225,225,225,225,225,225,225,0,
0,225,225,225,225,225,225,225,225,225,225,225,225,225,225,225,225,225,225,0,
0,225,225,225,225,225,225,225,225,225,225,225,225,225,225,225,225,225,225,0,
0,225,225,225,225,225,225,225,225,225,225,225,225,225,225,225,225,225,225,0,
0,225,225,225,225,225,225,225,225,225,225,225,225,225,225,225,225,225,225,0,
0,225,225,225,225,225,225,225,225,225,225,225,225,225,225,225,225,225,225,0,
0,225,225,225,225,225,225,225,225,225,225,225,225,225,225,225,225,225,225,0,
0,225,225,225,225,225,225,225,225,225,225,225,225,225,225,225,225,225,225,0,
0,225,225,225,225,225,225,225,225,225,225,225,225,225,225,225,225,225,225,0,
0,225,225,225,225,225,225,225,225,225,225,225,225,225,225,225,225,225,225,0,
0,0,0,0,0,0,0,0,0,0,225,0,0,0,0,0,0,0,0,0
</data>
 </layer>
 <objectgroup id="3" name="kittycatcasey.Stardew3D/FloorData_Center"/>
 <objectgroup id="4" name="kittycatcasey.Stardew3D/CeilingData_Center"/>
</map>