<?xml version="1.0" encoding="UTF-8"?>
<map version="1.4" tiledversion="1.4.2" orientation="orthogonal" renderorder="right-down" compressionlevel="0" width="40" height="41" tilewidth="16" tileheight="16" infinite="0" nextlayerid="7" nextobjectid="1">
 
 <tileset firstgid="1" name="cave" tilewidth="16" tileheight="16" tilecount="288" columns="16">
  <image source="Mines/mine" width="256" height="288"/>
  <tile id="246">
   <properties>
    <property name="Water" value="T"/>
   </properties>
  </tile>
  <tile id="247">
   <properties>
    <property name="Water" value="T"/>
   </properties>
  </tile>
  <tile id="248">
   <properties>
    <property name="Water" value="T"/>
   </properties>
  </tile>
  <tile id="260">
   <properties>
    <property name="Water" value="T"/>
   </properties>
  </tile>
  <tile id="262">
   <properties>
    <property name="Water" value="T"/>
   </properties>
  </tile>
  <tile id="263">
   <properties>
    <property name="Water" value="T"/>
   </properties>
  </tile>
  <tile id="264">
   <properties>
    <property name="Water" value="T"/>
   </properties>
  </tile>
  <tile id="265">
   <properties>
    <property name="Water" value="T"/>
   </properties>
  </tile>
  <tile id="266">
   <properties>
    <property name="Water" value="T"/>
   </properties>
  </tile>
  <tile id="275">
   <properties>
    <property name="Water" value="T"/>
   </properties>
  </tile>
  <tile id="276">
   <properties>
    <property name="Water" value="T"/>
   </properties>
  </tile>
  <tile id="277">
   <properties>
    <property name="Water" value="T"/>
   </properties>
  </tile>
  <tile id="281">
   <properties>
    <property name="Water" value="T"/>
   </properties>
  </tile>
  <tile id="282">
   <properties>
    <property name="Water" value="T"/>
   </properties>
  </tile>
 </tileset>
 <tileset firstgid="289" name="dataValues3d" tilewidth="16" tileheight="16" tilecount="512" columns="32">
  <image source="ThirdDimensionData/data" width="512" height="256"/>
 </tileset>
 <tileset firstgid="801" name="paths" tilewidth="16" tileheight="16" tilecount="36" columns="4">
  <image source="paths" width="64" height="144"/>
 </tileset>
 <tileset firstgid="837" name="untitled tile sheet" tilewidth="16" tileheight="16" tilecount="256" columns="32">
  <image source="island_tilesheet_2" width="512" height="128"/>
  <tile id="9">
   <properties>
    <property name="Passable" value="T"/>
   </properties>
  </tile>
  <tile id="10">
   <properties>
    <property name="Passable" value="T"/>
   </properties>
  </tile>
  <tile id="11">
   <properties>
    <property name="Passable" value="T"/>
   </properties>
  </tile>
  <tile id="12">
   <properties>
    <property name="Water" value="T"/>
   </properties>
  </tile>
  <tile id="16">
   <properties>
    <property name="Water" value="T"/>
   </properties>
  </tile>
  <tile id="17">
   <properties>
    <property name="Water" value="T"/>
   </properties>
  </tile>
  <tile id="18">
   <properties>
    <property name="Water" value="T"/>
   </properties>
  </tile>
  <tile id="35">
   <properties>
    <property name="Passable" value="T"/>
   </properties>
  </tile>
  <tile id="37">
   <properties>
    <property name="Passable" value="T"/>
   </properties>
  </tile>
  <tile id="38">
   <properties>
    <property name="Passable" value="T"/>
   </properties>
  </tile>
  <tile id="41">
   <properties>
    <property name="Passable" value="T"/>
   </properties>
  </tile>
  <tile id="42">
   <properties>
    <property name="Passable" value="T"/>
   </properties>
  </tile>
  <tile id="43">
   <properties>
    <property name="Passable" value="T"/>
   </properties>
  </tile>
  <tile id="44">
   <properties>
    <property name="Water" value="T"/>
   </properties>
  </tile>
  <tile id="48">
   <properties>
    <property name="Water" value="T"/>
   </properties>
  </tile>
  <tile id="49">
   <properties>
    <property name="Water" value="T"/>
   </properties>
  </tile>
  <tile id="50">
   <properties>
    <property name="Water" value="T"/>
   </properties>
  </tile>
  <tile id="67">
   <properties>
    <property name="Passable" value="T"/>
   </properties>
  </tile>
  <tile id="69">
   <properties>
    <property name="Passable" value="T"/>
   </properties>
  </tile>
  <tile id="70">
   <properties>
    <property name="Passable" value="T"/>
   </properties>
  </tile>
  <tile id="73">
   <properties>
    <property name="Passable" value="T"/>
   </properties>
  </tile>
  <tile id="74">
   <properties>
    <property name="Passable" value="T"/>
   </properties>
  </tile>
  <tile id="75">
   <properties>
    <property name="Passable" value="T"/>
   </properties>
  </tile>
 </tileset>
 <layer id="1" name="kittycatcasey.Stardew3D/FloorData_Center" width="40" height="41">
  <data encoding="csv">
0,0,0,0,0,0,0,0,0,0,0,0,0,0,0,0,0,0,0,0,0,0,0,0,0,0,0,0,0,0,0,0,0,0,0,0,0,0,0,0,
0,0,0,0,0,0,0,0,0,0,0,0,0,0,0,0,0,0,0,0,0,0,0,0,0,0,0,0,0,0,0,0,0,0,0,0,0,0,0,0,
0,0,0,0,0,0,0,0,0,0,0,0,0,0,0,0,0,0,0,0,0,0,0,0,0,0,0,0,0,0,0,0,0,0,0,0,0,0,0,0,
0,0,0,0,0,0,0,0,0,0,0,0,0,0,0,0,0,0,0,0,0,0,0,0,0,0,0,0,0,0,0,0,0,0,0,0,0,0,0,0,
0,0,0,0,0,0,0,0,0,0,0,0,0,0,0,0,0,0,0,0,0,0,0,0,0,0,0,0,0,0,0,0,0,0,0,0,0,0,0,0,
0,0,0,289,289,289,289,0,0,0,0,0,0,0,0,0,0,0,0,0,0,0,0,0,0,0,289,289,289,289,289,289,289,289,0,0,0,0,0,0,
0,289,289,289,289,289,289,289,289,289,289,289,289,289,289,369,369,369,369,369,0,0,0,0,0,289,289,289,289,289,289,289,289,289,289,0,0,0,0,0,
289,289,289,289,289,289,289,289,289,369,369,369,289,289,289,289,369,369,369,369,369,0,0,0,289,289,289,289,289,289,289,289,289,289,289,0,0,0,0,0,
289,289,289,289,289,289,289,289,289,369,369,369,369,369,369,289,289,369,369,369,369,369,289,289,289,289,289,289,289,289,289,289,289,289,289,0,0,0,0,0,
0,289,289,289,289,289,289,289,289,369,369,369,369,369,369,289,289,289,289,289,289,289,289,289,289,289,289,289,289,289,289,289,289,289,289,0,0,0,0,0,
0,0,0,289,289,289,289,289,0,0,0,0,0,0,0,289,289,289,289,289,289,289,289,289,289,289,289,289,289,289,289,289,289,289,289,0,0,0,0,0,
0,0,0,0,0,0,0,0,0,0,0,0,0,0,0,0,289,289,289,289,289,289,289,289,289,289,289,289,289,289,289,289,289,289,289,0,0,0,0,0,
0,0,0,0,0,0,0,0,0,0,0,0,0,0,0,0,0,289,289,289,289,289,289,0,0,0,0,0,0,0,0,0,0,0,0,0,0,0,0,0,
0,0,0,0,0,0,0,0,0,0,0,0,0,0,0,0,0,0,289,289,289,289,289,0,0,0,0,0,0,0,0,0,0,0,0,0,0,0,0,0,
0,0,0,0,0,0,0,0,0,0,0,0,0,0,0,0,0,0,0,289,289,289,289,0,0,0,0,0,0,0,0,0,0,0,0,0,0,0,0,0,
0,0,0,0,0,0,0,0,0,0,0,0,0,0,0,0,0,0,0,0,289,289,289,0,0,0,0,0,0,0,0,0,0,0,0,0,0,0,0,0,
0,0,0,0,0,0,0,0,0,0,0,0,0,0,0,0,0,0,0,0,289,289,289,0,0,0,0,0,0,0,0,0,0,0,0,0,0,0,0,0,
0,0,0,0,0,0,0,0,0,0,0,0,0,0,0,0,0,0,0,0,289,289,289,289,289,289,289,289,289,289,0,0,0,0,0,0,0,0,0,0,
0,0,0,0,0,0,0,0,0,0,0,0,0,0,0,0,0,0,0,0,289,289,289,289,289,289,289,289,289,289,289,289,289,0,0,0,0,0,0,0,
0,0,0,0,0,0,0,0,0,0,0,0,0,0,0,0,0,0,0,0,289,289,289,289,289,369,369,369,369,369,289,289,289,289,289,0,0,0,0,0,
0,0,0,0,0,0,0,0,0,0,0,0,0,0,0,0,0,0,0,289,289,289,289,289,369,369,369,369,369,369,369,369,289,289,289,0,0,0,0,0,
0,0,0,0,0,0,0,0,0,0,0,0,0,0,0,0,0,0,289,289,289,289,289,369,369,369,369,369,369,369,369,369,369,289,289,289,0,0,0,0,
0,0,0,0,0,0,0,0,0,0,0,0,0,0,0,0,0,289,289,289,289,289,289,369,369,369,369,369,369,369,369,369,369,289,289,289,289,0,0,0,
0,0,0,0,0,0,0,0,0,0,0,0,0,0,0,0,0,289,289,289,289,289,369,369,369,369,369,369,369,369,369,369,369,289,289,289,289,0,0,0,
0,0,0,0,0,0,0,0,0,0,0,0,0,0,0,0,0,289,289,289,289,369,369,369,369,369,369,369,369,369,369,369,369,289,289,289,289,0,0,0,
0,0,0,0,0,0,0,0,0,0,0,0,0,0,0,0,0,289,289,289,289,369,369,369,369,369,369,369,369,369,369,369,369,369,289,289,289,0,0,0,
0,0,0,0,0,0,0,0,0,0,0,0,0,0,0,0,0,289,289,289,289,369,369,369,369,369,369,369,369,369,369,369,369,369,369,289,289,0,0,0,
0,0,0,0,0,0,0,0,0,0,0,0,0,0,0,0,0,289,289,289,289,369,369,369,369,369,369,369,369,369,369,369,369,369,369,289,289,0,0,0,
0,0,0,0,0,0,0,0,0,0,0,0,0,0,0,0,0,0,289,289,369,369,369,369,369,369,369,369,369,369,369,369,369,369,369,289,289,0,0,0,
0,0,0,0,0,0,0,0,0,0,0,0,0,0,0,0,0,0,0,289,369,369,369,369,369,369,369,369,369,369,369,369,369,369,369,369,369,0,0,0,
0,0,0,0,0,0,0,0,0,0,0,0,0,0,0,0,0,0,0,0,369,369,369,369,369,369,369,369,369,369,369,369,369,369,369,369,369,0,0,0,
0,0,0,0,0,0,0,0,0,0,0,0,0,0,0,0,0,0,0,0,289,369,369,369,369,369,369,369,369,369,369,369,369,369,369,369,369,0,0,0,
0,0,0,0,0,0,0,0,0,0,0,0,0,0,0,0,0,0,0,0,0,0,0,369,369,369,369,369,369,369,369,369,369,369,369,369,0,0,0,0,
0,0,0,0,0,0,0,0,0,0,0,0,0,0,0,0,0,0,0,0,0,0,0,369,369,369,369,369,369,369,369,369,369,369,369,0,0,0,0,0,
0,0,0,0,0,0,0,0,0,0,0,0,0,0,0,0,0,0,0,0,0,0,0,0,369,369,369,369,369,369,369,0,0,0,0,0,0,0,0,0,
0,0,0,0,0,0,0,0,0,0,0,0,0,0,0,0,0,0,0,0,0,0,0,0,369,369,369,369,369,369,369,0,0,0,0,0,0,0,0,0,
0,0,0,0,0,0,0,0,0,0,0,0,0,0,0,0,0,0,0,0,0,0,0,0,369,369,369,369,369,369,369,0,0,0,0,0,0,0,0,0,
0,0,0,0,0,0,0,0,0,0,0,0,0,0,0,0,0,0,0,0,0,0,0,0,369,369,369,369,369,369,369,0,0,0,0,0,0,0,0,0,
0,0,0,0,0,0,0,0,0,0,0,0,0,0,0,0,0,0,0,0,0,0,0,0,369,369,369,369,369,369,369,0,0,0,0,0,0,0,0,0,
0,0,0,0,0,0,0,0,0,0,0,0,0,0,0,0,0,0,0,0,0,0,0,0,369,369,369,369,369,369,369,0,0,0,0,0,0,0,0,0,
0,0,0,0,0,0,0,0,0,0,0,0,0,0,0,0,0,0,0,0,0,0,0,0,369,369,369,369,369,369,369,0,0,0,0,0,0,0,0,0
</data>
 </layer>
 <layer id="2" name="kittycatcasey.Stardew3D/WaterData_Center" width="40" height="41">
  <data encoding="csv">
0,0,0,0,0,0,0,0,0,0,0,0,0,0,0,0,0,0,0,0,0,0,0,0,0,0,0,0,0,0,0,0,0,0,0,0,0,0,0,0,
0,0,0,0,0,0,0,0,0,0,0,0,0,0,0,0,0,0,0,0,0,0,0,0,0,0,0,0,0,0,0,0,0,0,0,0,0,0,0,0,
0,0,0,0,0,0,0,0,0,0,0,0,0,0,0,0,0,0,0,0,0,0,0,0,0,0,0,0,0,0,0,0,0,0,0,0,0,0,0,0,
0,0,0,0,0,0,0,0,0,0,0,0,0,0,0,0,0,0,0,0,0,0,0,0,0,0,0,0,0,0,0,0,0,0,0,0,0,0,0,0,
0,0,0,0,0,0,0,0,0,0,0,0,0,0,0,0,0,0,0,0,0,0,0,0,0,0,0,0,0,0,0,0,0,0,0,0,0,0,0,0,
0,0,0,0,0,0,0,0,0,0,0,0,0,0,0,0,0,0,0,0,0,0,0,0,0,0,0,0,0,0,0,0,0,0,0,0,0,0,0,0,
0,0,0,0,0,0,0,0,0,0,0,0,0,0,0,337,337,337,337,337,0,0,0,0,0,0,0,0,0,0,0,0,0,0,0,0,0,0,0,0,
0,0,0,0,0,0,0,0,0,337,337,337,0,0,0,0,337,337,337,337,337,0,0,0,0,0,0,0,0,0,0,0,0,0,0,0,0,0,0,0,
0,0,0,0,0,0,0,0,0,337,337,337,337,337,337,0,0,337,337,337,337,337,0,0,0,0,0,0,0,0,0,0,0,0,0,0,0,0,0,0,
0,0,0,0,0,0,0,0,0,337,337,337,337,337,337,0,0,0,0,0,0,0,0,0,0,0,0,0,0,0,0,0,0,0,0,0,0,0,0,0,
0,0,0,0,0,0,0,0,0,0,0,0,0,0,0,0,0,0,0,0,0,0,0,0,0,0,0,0,0,0,0,0,0,0,0,0,0,0,0,0,
0,0,0,0,0,0,0,0,0,0,0,0,0,0,0,0,0,0,0,0,0,0,0,0,0,0,0,0,0,0,0,0,0,0,0,0,0,0,0,0,
0,0,0,0,0,0,0,0,0,0,0,0,0,0,0,0,0,0,0,0,0,0,0,0,0,0,0,0,0,0,0,0,0,0,0,0,0,0,0,0,
0,0,0,0,0,0,0,0,0,0,0,0,0,0,0,0,0,0,0,0,0,0,0,0,0,0,0,0,0,0,0,0,0,0,0,0,0,0,0,0,
0,0,0,0,0,0,0,0,0,0,0,0,0,0,0,0,0,0,0,0,0,0,0,0,0,0,0,0,0,0,0,0,0,0,0,0,0,0,0,0,
0,0,0,0,0,0,0,0,0,0,0,0,0,0,0,0,0,0,0,0,0,0,0,0,0,0,0,0,0,0,0,0,0,0,0,0,0,0,0,0,
0,0,0,0,0,0,0,0,0,0,0,0,0,0,0,0,0,0,0,0,0,0,0,0,0,0,0,0,0,0,0,0,0,0,0,0,0,0,0,0,
0,0,0,0,0,0,0,0,0,0,0,0,0,0,0,0,0,0,0,0,0,0,0,0,0,0,0,0,0,0,0,0,0,0,0,0,0,0,0,0,
0,0,0,0,0,0,0,0,0,0,0,0,0,0,0,0,0,0,0,0,0,0,0,0,0,0,0,0,0,0,0,0,0,0,0,0,0,0,0,0,
0,0,0,0,0,0,0,0,0,0,0,0,0,0,0,0,0,0,0,0,0,0,0,0,0,337,337,337,337,337,0,0,0,0,0,0,0,0,0,0,
0,0,0,0,0,0,0,0,0,0,0,0,0,0,0,0,0,0,0,0,0,0,0,0,337,337,337,337,337,337,337,337,0,0,0,0,0,0,0,0,
0,0,0,0,0,0,0,0,0,0,0,0,0,0,0,0,0,0,0,0,0,0,0,337,337,337,337,337,337,337,337,337,337,0,0,0,0,0,0,0,
0,0,0,0,0,0,0,0,0,0,0,0,0,0,0,0,0,0,0,0,0,0,0,337,337,337,337,337,337,337,337,337,337,0,0,0,0,0,0,0,
0,0,0,0,0,0,0,0,0,0,0,0,0,0,0,0,0,0,0,0,0,0,337,337,337,337,337,337,337,337,337,337,337,0,0,0,0,0,0,0,
0,0,0,0,0,0,0,0,0,0,0,0,0,0,0,0,0,0,0,0,0,337,337,337,337,337,337,337,337,337,337,337,337,0,0,0,0,0,0,0,
0,0,0,0,0,0,0,0,0,0,0,0,0,0,0,0,0,0,0,0,0,337,337,337,337,337,337,337,337,337,337,337,337,337,0,0,0,0,0,0,
0,0,0,0,0,0,0,0,0,0,0,0,0,0,0,0,0,0,0,0,0,337,337,337,337,337,337,337,337,337,337,337,337,337,337,0,0,0,0,0,
0,0,0,0,0,0,0,0,0,0,0,0,0,0,0,0,0,0,0,0,0,337,337,337,337,337,337,337,337,337,337,337,337,337,337,0,0,0,0,0,
0,0,0,0,0,0,0,0,0,0,0,0,0,0,0,0,0,0,0,0,337,337,337,337,337,337,337,337,337,337,337,337,337,337,337,0,0,0,0,0,
0,0,0,0,0,0,0,0,0,0,0,0,0,0,0,0,0,0,0,0,337,337,337,337,337,337,337,337,337,337,337,337,337,337,337,337,337,0,0,0,
0,0,0,0,0,0,0,0,0,0,0,0,0,0,0,0,0,0,0,0,337,337,337,337,337,337,337,337,337,337,337,337,337,337,337,337,337,0,0,0,
0,0,0,0,0,0,0,0,0,0,0,0,0,0,0,0,0,0,0,0,0,337,337,337,337,337,337,337,337,337,337,337,337,337,337,337,337,0,0,0,
0,0,0,0,0,0,0,0,0,0,0,0,0,0,0,0,0,0,0,0,0,0,0,337,337,337,337,337,337,337,337,337,337,337,337,337,0,0,0,0,
0,0,0,0,0,0,0,0,0,0,0,0,0,0,0,0,0,0,0,0,0,0,0,337,337,337,337,337,337,337,337,337,337,337,337,0,0,0,0,0,
0,0,0,0,0,0,0,0,0,0,0,0,0,0,0,0,0,0,0,0,0,0,0,0,337,337,337,337,337,337,337,0,0,0,0,0,0,0,0,0,
0,0,0,0,0,0,0,0,0,0,0,0,0,0,0,0,0,0,0,0,0,0,0,0,337,337,337,337,337,337,337,0,0,0,0,0,0,0,0,0,
0,0,0,0,0,0,0,0,0,0,0,0,0,0,0,0,0,0,0,0,0,0,0,0,337,337,337,337,337,337,337,0,0,0,0,0,0,0,0,0,
0,0,0,0,0,0,0,0,0,0,0,0,0,0,0,0,0,0,0,0,0,0,0,0,337,337,337,337,337,337,337,0,0,0,0,0,0,0,0,0,
0,0,0,0,0,0,0,0,0,0,0,0,0,0,0,0,0,0,0,0,0,0,0,0,337,337,337,337,337,337,337,0,0,0,0,0,0,0,0,0,
0,0,0,0,0,0,0,0,0,0,0,0,0,0,0,0,0,0,0,0,0,0,0,0,337,337,337,337,337,337,337,0,0,0,0,0,0,0,0,0,
0,0,0,0,0,0,0,0,0,0,0,0,0,0,0,0,0,0,0,0,0,0,0,0,337,337,337,337,337,337,337,0,0,0,0,0,0,0,0,0
</data>
 </layer>
 <layer id="3" name="kittycatcasey.Stardew3D/CeilingData_Center" width="40" height="41">
  <data encoding="csv">
0,0,0,0,0,0,0,0,0,0,0,0,0,0,0,0,0,0,0,0,0,0,0,0,0,0,0,0,0,0,0,0,0,0,0,0,0,0,0,0,
0,0,0,0,0,0,0,0,0,0,0,0,0,0,0,0,0,0,0,0,0,0,0,0,0,0,0,0,0,0,0,0,0,0,0,0,0,0,0,0,
0,0,0,0,0,0,0,0,0,0,0,0,0,0,0,0,0,0,0,0,0,0,0,0,0,0,0,0,0,0,0,0,0,0,0,0,0,0,0,0,
0,0,0,0,0,0,0,0,0,0,0,0,0,0,0,0,0,0,0,0,0,0,0,0,0,0,0,0,0,0,0,0,0,0,0,0,0,0,0,0,
0,0,0,0,0,0,0,0,0,0,0,0,0,0,0,0,0,0,0,0,0,0,0,0,0,0,0,0,0,0,0,0,0,0,0,0,0,0,0,0,
0,0,0,417,417,417,417,0,0,0,0,0,0,0,0,0,0,0,0,0,0,0,0,0,0,0,417,417,417,417,417,417,417,417,0,0,0,0,0,0,
0,417,417,417,417,417,417,417,417,417,417,417,417,417,417,417,417,417,417,417,0,0,0,0,0,417,417,417,417,417,417,417,417,417,417,0,0,0,0,0,
417,417,417,417,417,417,417,417,417,417,417,417,417,417,417,417,417,417,417,417,417,0,0,0,417,417,417,417,417,417,417,417,417,417,417,0,0,0,0,0,
417,417,417,417,417,417,417,417,417,417,417,417,417,417,417,417,417,417,417,417,417,417,417,417,417,417,417,417,417,417,417,417,417,417,417,0,0,0,0,0,
0,417,417,417,417,417,417,417,417,417,417,417,417,417,417,417,417,417,417,417,417,417,417,417,417,417,417,417,417,417,417,417,417,417,417,0,0,0,0,0,
0,0,0,417,417,417,417,417,0,0,0,0,0,0,0,417,417,417,417,417,417,417,417,417,417,417,417,417,417,417,417,417,417,417,417,0,0,0,0,0,
0,0,0,0,0,0,0,0,0,0,0,0,0,0,0,0,417,417,417,417,417,417,417,417,417,417,417,417,417,417,417,417,417,417,417,0,0,0,0,0,
0,0,0,0,0,0,0,0,0,0,0,0,0,0,0,0,0,417,417,417,417,417,417,0,0,0,0,0,0,0,0,0,0,0,0,0,0,0,0,0,
0,0,0,0,0,0,0,0,0,0,0,0,0,0,0,0,0,0,417,417,417,417,417,0,0,0,0,0,0,0,0,0,0,0,0,0,0,0,0,0,
0,0,0,0,0,0,0,0,0,0,0,0,0,0,0,0,0,0,0,417,417,417,417,0,0,0,0,0,0,0,0,0,0,0,0,0,0,0,0,0,
0,0,0,0,0,0,0,0,0,0,0,0,0,0,0,0,0,0,0,0,417,417,417,0,0,0,0,0,0,0,0,0,0,0,0,0,0,0,0,0,
0,0,0,0,0,0,0,0,0,0,0,0,0,0,0,0,0,0,0,0,417,417,417,0,0,0,0,0,0,0,0,0,0,0,0,0,0,0,0,0,
0,0,0,0,0,0,0,0,0,0,0,0,0,0,0,0,0,0,0,0,417,417,417,417,417,417,417,417,417,417,0,0,0,0,0,0,0,0,0,0,
0,0,0,0,0,0,0,0,0,0,0,0,0,0,0,0,0,0,0,0,417,417,417,417,417,417,417,417,417,417,417,417,417,0,0,0,0,0,0,0,
0,0,0,0,0,0,0,0,0,0,0,0,0,0,0,0,0,0,0,0,417,417,417,417,417,417,417,417,417,417,417,417,417,417,417,0,0,0,0,0,
0,0,0,0,0,0,0,0,0,0,0,0,0,0,0,0,0,0,0,417,417,417,417,417,417,417,417,417,417,417,417,417,417,417,417,0,0,0,0,0,
0,0,0,0,0,0,0,0,0,0,0,0,0,0,0,0,0,0,417,417,417,417,417,417,417,417,417,417,417,417,417,417,417,417,417,417,0,0,0,0,
0,0,0,0,0,0,0,0,0,0,0,0,0,0,0,0,0,417,417,417,417,417,417,417,417,417,417,417,417,417,417,417,417,417,417,417,417,0,0,0,
0,0,0,0,0,0,0,0,0,0,0,0,0,0,0,0,0,417,417,417,417,417,417,417,417,417,417,417,417,417,417,417,417,417,417,417,417,0,0,0,
0,0,0,0,0,0,0,0,0,0,0,0,0,0,0,0,0,417,417,417,417,417,417,417,417,417,417,417,417,417,417,417,417,417,417,417,417,0,0,0,
0,0,0,0,0,0,0,0,0,0,0,0,0,0,0,0,0,417,417,417,417,417,417,417,417,417,417,417,417,417,417,417,417,417,417,417,417,0,0,0,
0,0,0,0,0,0,0,0,0,0,0,0,0,0,0,0,0,417,417,417,417,417,417,417,417,417,417,417,417,417,417,417,417,417,417,417,417,0,0,0,
0,0,0,0,0,0,0,0,0,0,0,0,0,0,0,0,0,417,417,417,417,417,417,417,417,417,417,417,417,417,417,417,417,417,417,417,417,0,0,0,
0,0,0,0,0,0,0,0,0,0,0,0,0,0,0,0,0,0,417,417,417,417,417,417,417,417,417,417,417,417,417,417,417,417,417,417,417,0,0,0,
0,0,0,0,0,0,0,0,0,0,0,0,0,0,0,0,0,0,0,417,417,417,417,417,417,417,417,417,417,417,417,417,417,417,417,417,417,0,0,0,
0,0,0,0,0,0,0,0,0,0,0,0,0,0,0,0,0,0,0,0,417,417,417,417,417,417,417,417,417,417,417,417,417,417,417,417,417,0,0,0,
0,0,0,0,0,0,0,0,0,0,0,0,0,0,0,0,0,0,0,0,0,417,417,417,417,417,417,417,417,417,417,417,417,417,417,417,417,0,0,0,
0,0,0,0,0,0,0,0,0,0,0,0,0,0,0,0,0,0,0,0,0,0,0,417,417,417,417,417,417,417,417,417,417,417,417,417,0,0,0,0,
0,0,0,0,0,0,0,0,0,0,0,0,0,0,0,0,0,0,0,0,0,0,0,417,417,417,417,417,417,417,417,417,417,417,417,0,0,0,0,0,
0,0,0,0,0,0,0,0,0,0,0,0,0,0,0,0,0,0,0,0,0,0,0,0,417,417,417,417,417,417,417,0,0,0,0,0,0,0,0,0,
0,0,0,0,0,0,0,0,0,0,0,0,0,0,0,0,0,0,0,0,0,0,0,0,417,417,417,417,417,417,417,0,0,0,0,0,0,0,0,0,
0,0,0,0,0,0,0,0,0,0,0,0,0,0,0,0,0,0,0,0,0,0,0,0,417,417,417,417,417,417,417,0,0,0,0,0,0,0,0,0,
0,0,0,0,0,0,0,0,0,0,0,0,0,0,0,0,0,0,0,0,0,0,0,0,417,417,417,417,417,417,417,0,0,0,0,0,0,0,0,0,
0,0,0,0,0,0,0,0,0,0,0,0,0,0,0,0,0,0,0,0,0,0,0,0,417,417,417,417,417,417,417,0,0,0,0,0,0,0,0,0,
0,0,0,0,0,0,0,0,0,0,0,0,0,0,0,0,0,0,0,0,0,0,0,0,417,417,417,417,417,417,417,0,0,0,0,0,0,0,0,0,
0,0,0,0,0,0,0,0,0,0,0,0,0,0,0,0,0,0,0,0,0,0,0,0,417,417,417,417,417,417,417,0,0,0,0,0,0,0,0,0
</data>
 </layer>
 <objectgroup id="4" name="kittycatcasey.Stardew3D/FloorData_Center"/>
 <objectgroup id="5" name="kittycatcasey.Stardew3D/WaterData_Center"/>
 <objectgroup id="6" name="kittycatcasey.Stardew3D/CeilingData_Center"/>
</map>