<?xml version="1.0" encoding="UTF-8"?>
<map version="1.4" tiledversion="1.4.2" orientation="orthogonal" renderorder="right-down" compressionlevel="0" width="13" height="13" tilewidth="16" tileheight="16" infinite="0" nextlayerid="17" nextobjectid="40">
 
 <tileset firstgid="1" name="1" tilewidth="16" tileheight="16" tilecount="2176" columns="32">
  <image source="townInterior" width="512" height="1088"/>
 </tileset>
 <tileset firstgid="2177" name="p" tilewidth="16" tileheight="16" tilecount="64" columns="4">
  <image source="paths" width="64" height="256"/>
 </tileset>
 <tileset firstgid="2241" name="v15_townInterior_2" tilewidth="16" tileheight="16" tilecount="1312" columns="32">
  <image source="townInterior_2" width="512" height="656"/>
 </tileset>
 <tileset firstgid="3553" name="z_dataValues3d" tilewidth="16" tileheight="16" tilecount="512" columns="32">
  <image source="ThirdDimensionData/data" width="512" height="256"/>
 </tileset>
 <layer id="1" name="kittycatcasey.Stardew3D/FloorData_Center" width="13" height="13">
  <data encoding="csv">
0,3585,0,0,0,0,0,0,0,0,0,0,0,
0,3561,0,0,0,0,0,0,0,0,0,0,0,
0,3553,0,0,0,0,0,0,0,0,0,0,0,
0,3553,0,0,0,0,0,0,0,0,0,0,0,
0,3553,3553,3553,3553,3553,3553,3553,3553,3553,3553,3553,0,
0,3553,3553,3553,3553,3553,3553,3553,3553,3553,3553,3553,0,
0,3553,3553,3553,3553,3553,3553,3553,3553,3553,3553,3553,0,
0,3553,3553,3553,3553,3553,3553,3553,3553,3553,3553,3553,0,
0,3553,3553,3553,3553,3553,3553,3553,3553,3553,3553,3553,0,
0,3553,3553,3553,3553,3553,3553,3553,3553,3553,3553,3553,0,
0,3553,3553,3553,3553,3553,3553,3553,3553,3553,3553,3553,0,
0,3553,3553,3553,3553,3553,3553,3553,3553,3553,3553,3553,0,
0,0,0,0,0,0,0,0,0,0,0,0,0
</data>
 </layer>
 <layer id="2" name="kittycatcasey.Stardew3D/FloorData_North" width="13" height="13">
  <data encoding="csv">
0,3561,0,0,0,0,0,0,0,0,0,0,0,
0,3561,0,0,0,0,0,0,0,0,0,0,0,
0,3561,0,0,0,0,0,0,0,0,0,0,0,
0,0,0,0,0,0,0,0,0,0,0,0,0,
0,0,0,0,0,0,0,0,0,0,0,0,0,
0,0,0,0,0,0,0,0,0,0,0,0,0,
0,0,0,0,0,0,0,0,0,0,0,0,0,
0,0,0,0,0,0,0,0,0,0,0,0,0,
0,0,0,0,0,0,0,0,0,0,0,0,0,
0,0,0,0,0,0,0,0,0,0,0,0,0,
0,0,0,0,0,0,0,0,0,0,0,0,0,
0,0,0,0,0,0,0,0,0,0,0,0,0,
0,0,0,0,0,0,0,0,0,0,0,0,0
</data>
 </layer>
 <layer id="3" name="kittycatcasey.Stardew3D/CeilingData_Center" width="13" height="13">
  <data encoding="csv">
0,3689,0,0,0,0,0,0,0,0,0,0,0,
0,3681,0,0,0,0,0,0,0,0,0,0,0,
0,3657,0,0,0,0,0,0,0,0,0,0,0,
0,3649,0,0,0,0,0,0,0,0,0,0,0,
0,3649,3649,3649,3649,3649,3649,3649,3649,3649,3649,3649,0,
0,3649,3649,3649,3649,3649,3649,3649,3649,3649,3649,3649,0,
0,3649,3649,3649,3649,3649,3649,3649,3649,3649,3649,3649,0,
0,3649,3649,3649,3649,3649,3649,3649,3649,3649,3649,3649,0,
0,3649,3649,3649,3649,3649,3649,3649,3649,3649,3649,3649,0,
0,3649,3649,3649,3649,3649,3649,3649,3649,3649,3649,3649,0,
0,3649,3649,3649,3649,3649,3649,3649,3649,3649,3649,3649,0,
0,3649,3649,3649,3649,3649,3649,3649,3649,3649,3649,3649,0,
0,0,0,0,0,0,0,0,0,0,0,0,0
</data>
 </layer>
 <layer id="4" name="kittycatcasey.Stardew3D/CeilingData_North" width="13" height="13">
  <data encoding="csv">
0,0,0,0,0,0,0,0,0,0,0,0,0,
0,3561,0,0,0,0,0,0,0,0,0,0,0,
0,3561,0,0,0,0,0,0,0,0,0,0,0,
0,3561,0,0,0,0,0,0,0,0,0,0,0,
0,0,0,0,0,0,0,0,0,0,0,0,0,
0,0,0,0,0,0,0,0,0,0,0,0,0,
0,0,0,0,0,0,0,0,0,0,0,0,0,
0,0,0,0,0,0,0,0,0,0,0,0,0,
0,0,0,0,0,0,0,0,0,0,0,0,0,
0,0,0,0,0,0,0,0,0,0,0,0,0,
0,0,0,0,0,0,0,0,0,0,0,0,0,
0,0,0,0,0,0,0,0,0,0,0,0,0,
0,0,0,0,0,0,0,0,0,0,0,0,0
</data>
 </layer>
 <layer id="5" name="kittycatcasey.Stardew3D/WallData_South" width="13" height="13">
  <data encoding="csv">
0,0,0,0,0,0,0,0,0,0,0,0,0,
0,0,0,0,0,0,0,0,0,0,0,0,0,
0,0,0,0,0,0,0,0,0,0,0,0,0,
0,0,0,0,0,0,0,0,0,0,0,0,0,
0,0,0,0,0,0,0,0,0,0,0,0,0,
0,0,0,0,0,0,0,0,0,0,0,0,0,
0,0,0,0,0,0,0,0,0,0,0,0,0,
0,0,0,0,0,0,0,0,0,0,0,0,0,
0,0,0,0,0,0,0,0,0,0,0,0,0,
0,0,0,0,0,0,0,0,0,0,0,0,0,
0,0,0,0,0,0,0,0,0,0,0,0,0,
0,3553,3553,3553,3553,3553,3553,3553,3553,3553,3553,3553,0,
0,0,0,0,0,0,0,0,0,0,0,0,0
</data>
 </layer>
 <layer id="6" name="kittycatcasey.Stardew3D/WallData_West" width="13" height="13">
  <data encoding="csv">
0,0,0,0,0,0,0,0,0,0,0,0,0,
0,0,0,0,0,0,0,0,0,0,0,0,0,
0,0,0,0,0,0,0,0,0,0,0,0,0,
0,3553,0,0,0,0,0,0,0,0,0,0,0,
0,3553,0,0,0,0,0,0,0,0,0,0,0,
0,3553,0,0,0,0,0,0,0,0,0,0,0,
0,3553,0,0,0,0,0,0,0,0,0,0,0,
0,3553,0,0,0,0,0,0,0,0,0,0,0,
0,3553,0,0,0,0,0,0,0,0,0,0,0,
0,3553,0,0,0,0,0,0,0,0,0,0,0,
0,3553,0,0,0,0,0,0,0,0,0,0,0,
0,3553,0,0,0,0,0,0,0,0,0,0,0,
0,0,0,0,0,0,0,0,0,0,0,0,0
</data>
 </layer>
 <layer id="7" name="kittycatcasey.Stardew3D/WallData_North" width="13" height="13">
  <data encoding="csv">
0,0,0,0,0,0,0,0,0,0,0,0,0,
0,0,0,0,0,0,0,0,0,0,0,0,0,
0,0,0,0,0,0,0,0,0,0,0,0,0,
0,0,0,0,0,0,0,0,0,0,0,0,0,
0,0,3553,3553,3553,3553,3553,3553,3553,3553,3553,3553,0,
0,0,0,0,0,0,0,0,0,0,0,0,0,
0,0,0,0,0,0,0,0,0,0,0,0,0,
0,0,0,0,0,0,0,0,0,0,0,0,0,
0,0,0,0,0,0,0,0,0,0,0,0,0,
0,0,0,0,0,0,0,0,0,0,0,0,0,
0,0,0,0,0,0,0,0,0,0,0,0,0,
0,0,0,0,0,0,0,0,0,0,0,0,0,
0,0,0,0,0,0,0,0,0,0,0,0,0
</data>
 </layer>
 <layer id="8" name="kittycatcasey.Stardew3D/WallData_East" width="13" height="13">
  <data encoding="csv">
0,0,0,0,0,0,0,0,0,0,0,0,0,
0,0,0,0,0,0,0,0,0,0,0,0,0,
0,0,0,0,0,0,0,0,0,0,0,0,0,
0,3553,0,0,0,0,0,0,0,0,0,0,0,
0,0,0,0,0,0,0,0,0,0,0,3553,0,
0,0,0,0,0,0,0,0,0,0,0,3553,0,
0,0,0,0,0,0,0,0,0,0,0,3553,0,
0,0,0,0,0,0,0,0,0,0,0,3553,0,
0,0,0,0,0,0,0,0,0,0,0,3553,0,
0,0,0,0,0,0,0,0,0,0,0,3553,0,
0,0,0,0,0,0,0,0,0,0,0,3553,0,
0,0,0,0,0,0,0,0,0,0,0,3553,0,
0,0,0,0,0,0,0,0,0,0,0,0,0
</data>
 </layer>
 <objectgroup id="9" name="kittycatcasey.Stardew3D/FloorData_Center"/>
 <objectgroup id="10" name="kittycatcasey.Stardew3D/FloorData_North"/>
 <objectgroup id="11" name="kittycatcasey.Stardew3D/CeilingData_Center"/>
 <objectgroup id="12" name="kittycatcasey.Stardew3D/CeilingData_North"/>
 <objectgroup id="13" name="kittycatcasey.Stardew3D/WallData_South">
  <object id="1" name="TileData" x="16" y="176" width="16" height="16">
   <properties>
    <property name="kittycatcasey.Stardew3D/WallDefinitionOverride" value="kittycatcasey.Stardew3D/SebastianRoom"/>
   </properties>
  </object>
  <object id="2" name="TileData" x="32" y="176" width="16" height="16">
   <properties>
    <property name="kittycatcasey.Stardew3D/WallDefinitionOverride" value="kittycatcasey.Stardew3D/SebastianRoom"/>
   </properties>
  </object>
  <object id="3" name="TileData" x="48" y="176" width="16" height="16">
   <properties>
    <property name="kittycatcasey.Stardew3D/WallDefinitionOverride" value="kittycatcasey.Stardew3D/SebastianRoom"/>
   </properties>
  </object>
  <object id="4" name="TileData" x="64" y="176" width="16" height="16">
   <properties>
    <property name="kittycatcasey.Stardew3D/WallDefinitionOverride" value="kittycatcasey.Stardew3D/SebastianRoom"/>
   </properties>
  </object>
  <object id="5" name="TileData" x="80" y="176" width="16" height="16">
   <properties>
    <property name="kittycatcasey.Stardew3D/WallDefinitionOverride" value="kittycatcasey.Stardew3D/SebastianRoom"/>
   </properties>
  </object>
  <object id="6" name="TileData" x="96" y="176" width="16" height="16">
   <properties>
    <property name="kittycatcasey.Stardew3D/WallDefinitionOverride" value="kittycatcasey.Stardew3D/SebastianRoom"/>
   </properties>
  </object>
  <object id="7" name="TileData" x="112" y="176" width="16" height="16">
   <properties>
    <property name="kittycatcasey.Stardew3D/WallDefinitionOverride" value="kittycatcasey.Stardew3D/SebastianRoom"/>
   </properties>
  </object>
  <object id="8" name="TileData" x="128" y="176" width="16" height="16">
   <properties>
    <property name="kittycatcasey.Stardew3D/WallDefinitionOverride" value="kittycatcasey.Stardew3D/SebastianRoom"/>
   </properties>
  </object>
  <object id="9" name="TileData" x="144" y="176" width="16" height="16">
   <properties>
    <property name="kittycatcasey.Stardew3D/WallDefinitionOverride" value="kittycatcasey.Stardew3D/SebastianRoom"/>
   </properties>
  </object>
  <object id="10" name="TileData" x="160" y="176" width="16" height="16">
   <properties>
    <property name="kittycatcasey.Stardew3D/WallDefinitionOverride" value="kittycatcasey.Stardew3D/SebastianRoom"/>
   </properties>
  </object>
  <object id="11" name="TileData" x="176" y="176" width="16" height="16">
   <properties>
    <property name="kittycatcasey.Stardew3D/WallDefinitionOverride" value="kittycatcasey.Stardew3D/SebastianRoom"/>
   </properties>
  </object>
 </objectgroup>
 <objectgroup id="14" name="kittycatcasey.Stardew3D/WallData_West">
  <object id="12" name="TileData" x="16" y="48" width="16" height="16">
   <properties>
    <property name="kittycatcasey.Stardew3D/WallDefinitionOverride" value="kittycatcasey.Stardew3D/GenericHouseWall"/>
   </properties>
  </object>
  <object id="13" name="TileData" x="16" y="64" width="16" height="16">
   <properties>
    <property name="kittycatcasey.Stardew3D/WallDefinitionOverride" value="kittycatcasey.Stardew3D/SebastianRoom"/>
   </properties>
  </object>
  <object id="14" name="TileData" x="16" y="80" width="16" height="16">
   <properties>
    <property name="kittycatcasey.Stardew3D/WallDefinitionOverride" value="kittycatcasey.Stardew3D/SebastianRoom"/>
   </properties>
  </object>
  <object id="15" name="TileData" x="16" y="96" width="16" height="16">
   <properties>
    <property name="kittycatcasey.Stardew3D/WallDefinitionOverride" value="kittycatcasey.Stardew3D/SebastianRoom"/>
   </properties>
  </object>
  <object id="16" name="TileData" x="16" y="112" width="16" height="16">
   <properties>
    <property name="kittycatcasey.Stardew3D/WallDefinitionOverride" value="kittycatcasey.Stardew3D/SebastianRoom"/>
   </properties>
  </object>
  <object id="17" name="TileData" x="16" y="128" width="16" height="16">
   <properties>
    <property name="kittycatcasey.Stardew3D/WallDefinitionOverride" value="kittycatcasey.Stardew3D/SebastianRoom"/>
   </properties>
  </object>
  <object id="18" name="TileData" x="16" y="144" width="16" height="16">
   <properties>
    <property name="kittycatcasey.Stardew3D/WallDefinitionOverride" value="kittycatcasey.Stardew3D/SebastianRoom"/>
   </properties>
  </object>
  <object id="19" name="TileData" x="16" y="160" width="16" height="16">
   <properties>
    <property name="kittycatcasey.Stardew3D/WallDefinitionOverride" value="kittycatcasey.Stardew3D/SebastianRoom"/>
   </properties>
  </object>
  <object id="20" name="TileData" x="16" y="176" width="16" height="16">
   <properties>
    <property name="kittycatcasey.Stardew3D/WallDefinitionOverride" value="kittycatcasey.Stardew3D/SebastianRoom"/>
   </properties>
  </object>
 </objectgroup>
 <objectgroup id="15" name="kittycatcasey.Stardew3D/WallData_North">
  <object id="21" name="TileData" x="32" y="64" width="16" height="16">
   <properties>
    <property name="kittycatcasey.Stardew3D/WallDefinitionOverride" value="kittycatcasey.Stardew3D/SebastianRoom"/>
   </properties>
  </object>
  <object id="22" name="TileData" x="48" y="64" width="16" height="16">
   <properties>
    <property name="kittycatcasey.Stardew3D/WallDefinitionOverride" value="kittycatcasey.Stardew3D/SebastianRoom"/>
   </properties>
  </object>
  <object id="23" name="TileData" x="64" y="64" width="16" height="16">
   <properties>
    <property name="kittycatcasey.Stardew3D/WallDefinitionOverride" value="kittycatcasey.Stardew3D/SebastianRoom"/>
   </properties>
  </object>
  <object id="24" name="TileData" x="80" y="64" width="16" height="16">
   <properties>
    <property name="kittycatcasey.Stardew3D/WallDefinitionOverride" value="kittycatcasey.Stardew3D/SebastianRoom"/>
   </properties>
  </object>
  <object id="25" name="TileData" x="96" y="64" width="16" height="16">
   <properties>
    <property name="kittycatcasey.Stardew3D/WallDefinitionOverride" value="kittycatcasey.Stardew3D/SebastianRoom"/>
   </properties>
  </object>
  <object id="26" name="TileData" x="112" y="64" width="16" height="16">
   <properties>
    <property name="kittycatcasey.Stardew3D/WallDefinitionOverride" value="kittycatcasey.Stardew3D/SebastianRoom"/>
   </properties>
  </object>
  <object id="27" name="TileData" x="128" y="64" width="16" height="16">
   <properties>
    <property name="kittycatcasey.Stardew3D/WallDefinitionOverride" value="kittycatcasey.Stardew3D/SebastianRoom"/>
   </properties>
  </object>
  <object id="28" name="TileData" x="144" y="64" width="16" height="16">
   <properties>
    <property name="kittycatcasey.Stardew3D/WallDefinitionOverride" value="kittycatcasey.Stardew3D/SebastianRoom"/>
   </properties>
  </object>
  <object id="29" name="TileData" x="160" y="64" width="16" height="16">
   <properties>
    <property name="kittycatcasey.Stardew3D/WallDefinitionOverride" value="kittycatcasey.Stardew3D/SebastianRoom"/>
   </properties>
  </object>
  <object id="30" name="TileData" x="176" y="64" width="16" height="16">
   <properties>
    <property name="kittycatcasey.Stardew3D/WallDefinitionOverride" value="kittycatcasey.Stardew3D/SebastianRoom"/>
   </properties>
  </object>
 </objectgroup>
 <objectgroup id="16" name="kittycatcasey.Stardew3D/WallData_East">
  <object id="31" name="TileData" x="16" y="48" width="16" height="16">
   <properties>
    <property name="kittycatcasey.Stardew3D/WallDefinitionOverride" value="kittycatcasey.Stardew3D/GenericHouseWall"/>
   </properties>
  </object>
  <object id="32" name="TileData" x="176" y="64" width="16" height="16">
   <properties>
    <property name="kittycatcasey.Stardew3D/WallDefinitionOverride" value="kittycatcasey.Stardew3D/SebastianRoom"/>
   </properties>
  </object>
  <object id="33" name="TileData" x="176" y="80" width="16" height="16">
   <properties>
    <property name="kittycatcasey.Stardew3D/WallDefinitionOverride" value="kittycatcasey.Stardew3D/SebastianRoom"/>
   </properties>
  </object>
  <object id="34" name="TileData" x="176" y="96" width="16" height="16">
   <properties>
    <property name="kittycatcasey.Stardew3D/WallDefinitionOverride" value="kittycatcasey.Stardew3D/SebastianRoom"/>
   </properties>
  </object>
  <object id="35" name="TileData" x="176" y="112" width="16" height="16">
   <properties>
    <property name="kittycatcasey.Stardew3D/WallDefinitionOverride" value="kittycatcasey.Stardew3D/SebastianRoom"/>
   </properties>
  </object>
  <object id="36" name="TileData" x="176" y="128" width="16" height="16">
   <properties>
    <property name="kittycatcasey.Stardew3D/WallDefinitionOverride" value="kittycatcasey.Stardew3D/SebastianRoom"/>
   </properties>
  </object>
  <object id="37" name="TileData" x="176" y="144" width="16" height="16">
   <properties>
    <property name="kittycatcasey.Stardew3D/WallDefinitionOverride" value="kittycatcasey.Stardew3D/SebastianRoom"/>
   </properties>
  </object>
  <object id="38" name="TileData" x="176" y="160" width="16" height="16">
   <properties>
    <property name="kittycatcasey.Stardew3D/WallDefinitionOverride" value="kittycatcasey.Stardew3D/SebastianRoom"/>
   </properties>
  </object>
  <object id="39" name="TileData" x="176" y="176" width="16" height="16">
   <properties>
    <property name="kittycatcasey.Stardew3D/WallDefinitionOverride" value="kittycatcasey.Stardew3D/SebastianRoom"/>
   </properties>
  </object>
 </objectgroup>
</map>