<?xml version="1.0" encoding="UTF-8"?>
<map version="1.4" tiledversion="1.4.2" orientation="orthogonal" renderorder="right-down" compressionlevel="0" width="19" height="17" tilewidth="16" tileheight="16" infinite="0" nextlayerid="5" nextobjectid="1">
 
 <tileset firstgid="1" name="dataValues3d" tilewidth="16" tileheight="16" tilecount="512" columns="32">
  <image source="ThirdDimensionData/data" width="512" height="256"/>
 </tileset>
 <tileset firstgid="513" name="dummy" tilewidth="16" tileheight="16" tilecount="2176" columns="32">
  <image source="townInterior" width="512" height="1088"/>
 </tileset>
 <tileset firstgid="2689" name="untitled tile sheet" tilewidth="16" tileheight="16" tilecount="2176" columns="32">
  <image source="townInterior" width="512" height="1088"/>
 </tileset>
 <tileset firstgid="4865" name="walls_and_floors" tilewidth="16" tileheight="16" tilecount="512" columns="16">
  <image source="walls_and_floors" width="256" height="512"/>
 </tileset>
 <layer id="1" name="kittycatcasey.Stardew3D/FloorData_Center" width="19" height="17">
  <data encoding="csv">
0,0,0,0,0,0,0,0,0,0,0,0,0,0,0,0,0,0,0,
0,0,0,0,0,0,0,0,0,0,0,0,0,0,0,0,0,0,0,
0,0,0,0,0,0,0,0,0,0,0,0,0,0,0,0,0,0,0,
0,0,0,0,0,0,0,0,0,0,0,0,0,0,0,0,0,0,0,
0,1,1,1,1,1,1,1,1,1,1,1,1,1,1,1,1,1,0,
0,1,1,1,1,1,1,1,1,1,1,1,1,1,1,1,1,1,0,
0,1,1,1,1,1,1,1,1,1,1,1,1,1,1,1,1,1,0,
0,1,1,1,1,1,1,1,1,1,1,1,1,1,1,1,1,1,0,
0,1,1,1,1,1,1,1,1,1,1,1,1,1,1,1,1,1,0,
0,1,1,1,1,1,1,1,1,1,1,1,1,1,1,1,1,1,0,
0,1,1,1,1,1,1,1,1,1,1,1,1,1,1,1,1,1,0,
0,1,1,1,1,1,1,1,1,1,1,1,1,1,1,1,1,1,0,
0,1,1,1,1,1,1,1,1,1,1,1,1,1,1,1,1,1,0,
0,1,1,1,1,1,1,1,1,1,1,1,1,1,1,1,1,1,0,
0,1,1,1,1,1,1,1,1,1,1,1,1,1,1,1,1,1,0,
0,1,1,1,1,1,1,1,1,1,1,1,1,1,1,1,1,1,0,
0,0,0,0,0,0,0,0,0,1,0,0,0,0,0,0,0,0,0
</data>
 </layer>
 <layer id="2" name="kittycatcasey.Stardew3D/CeilingData_Center" width="19" height="17">
  <data encoding="csv">
0,0,0,0,0,0,0,0,0,0,0,0,0,0,0,0,0,0,0,
0,0,0,0,0,0,0,0,0,0,0,0,0,0,0,0,0,0,0,
0,0,0,0,0,0,0,0,0,0,0,0,0,0,0,0,0,0,0,
0,0,0,0,0,0,0,0,0,0,0,0,0,0,0,0,0,0,0,
0,97,97,97,97,97,97,97,97,97,97,97,97,97,97,97,97,97,0,
0,97,97,97,97,97,97,97,97,97,97,97,97,97,97,97,97,97,0,
0,97,97,97,97,97,97,97,97,97,97,97,97,97,97,97,97,97,0,
0,97,97,97,97,97,97,97,97,97,97,97,97,97,97,97,97,97,0,
0,97,97,97,97,97,97,97,97,97,97,97,97,97,97,97,97,97,0,
0,97,97,97,97,97,97,97,97,97,97,97,97,97,97,97,97,97,0,
0,97,97,97,97,97,97,97,97,97,97,97,97,97,97,97,97,97,0,
0,97,97,97,97,97,97,97,97,97,97,97,97,97,97,97,97,97,0,
0,97,97,97,97,97,97,97,97,97,97,97,97,97,97,97,97,97,0,
0,97,97,97,97,97,97,97,97,97,97,97,97,97,97,97,97,97,0,
0,97,97,97,97,97,97,97,97,97,97,97,97,97,97,97,97,97,0,
0,97,97,97,97,97,97,97,97,97,97,97,97,97,97,97,97,97,0,
0,0,0,0,0,0,0,0,0,97,0,0,0,0,0,0,0,0,0
</data>
 </layer>
 <objectgroup id="3" name="kittycatcasey.Stardew3D/FloorData_Center"/>
 <objectgroup id="4" name="kittycatcasey.Stardew3D/CeilingData_Center"/>
</map>