<?xml version="1.0" encoding="UTF-8"?>
<map version="1.4" tiledversion="1.4.2" orientation="orthogonal" renderorder="right-down" compressionlevel="0" width="30" height="27" tilewidth="16" tileheight="16" infinite="0" nextlayerid="7" nextobjectid="19">
 
 <tileset firstgid="1" name="dataValues3d" tilewidth="16" tileheight="16" tilecount="512" columns="32">
  <image source="ThirdDimensionData/data" width="512" height="256"/>
 </tileset>
 <tileset firstgid="513" name="indoor" tilewidth="16" tileheight="16" tilecount="2176" columns="32">
  <image source="townInterior" width="512" height="1088"/>
 </tileset>
 <tileset firstgid="2689" name="p" tilewidth="16" tileheight="16" tilecount="36" columns="4">
  <image source="paths" width="64" height="144"/>
 </tileset>
 <tileset firstgid="2725" name="sewer" tilewidth="16" tileheight="16" tilecount="88" columns="8">
  <image source="SewerTiles" width="128" height="176"/>
 </tileset>
 <layer id="1" name="kittycatcasey.Stardew3D/WallData_North" width="30" height="27">
  <data encoding="csv">
0,0,0,0,0,0,0,0,0,0,0,0,0,0,0,0,0,0,0,0,0,0,0,0,0,0,0,0,0,0,
0,0,0,0,0,0,0,0,0,0,0,0,0,0,0,0,0,0,0,0,0,0,0,0,0,0,0,0,0,0,
0,0,0,0,0,0,0,0,0,0,0,0,0,0,0,0,0,0,0,0,0,0,0,0,0,0,0,0,0,0,
0,0,0,0,0,0,1,1,1,1,1,1,0,0,0,0,0,0,0,0,0,0,0,0,0,0,0,0,0,0,
0,0,0,0,0,0,0,0,0,0,0,0,0,0,0,0,0,0,0,0,0,0,0,0,0,0,0,0,0,0,
0,0,0,0,0,0,0,0,0,0,0,0,0,0,0,0,0,0,0,0,0,0,0,0,0,0,0,0,0,0,
0,0,0,0,0,0,0,0,0,0,0,0,0,0,0,0,0,0,0,0,0,0,0,0,0,0,0,0,0,0,
0,0,0,0,0,0,0,0,0,0,0,0,0,0,0,0,0,0,0,0,0,0,0,0,0,0,0,0,0,0,
0,0,0,0,0,0,0,0,0,0,0,0,0,0,0,0,0,0,0,0,0,0,0,0,0,0,0,0,0,0,
0,0,0,0,0,0,0,0,0,0,0,0,0,0,0,0,0,0,0,0,0,0,0,0,0,0,0,0,0,0,
0,0,0,0,0,0,0,0,0,0,0,0,0,0,0,0,0,0,0,0,0,0,0,0,0,0,0,0,0,0,
0,0,0,0,0,0,0,0,0,0,0,0,0,0,0,0,0,0,0,0,0,0,0,0,0,0,0,0,0,0,
0,0,0,0,0,0,0,0,0,0,0,0,0,0,0,0,0,0,0,0,0,0,0,0,0,0,0,0,0,0,
0,0,0,0,0,0,0,0,0,0,0,0,0,0,0,0,0,0,0,0,0,0,0,0,0,0,0,0,0,0,
0,0,0,0,0,0,0,0,0,0,0,0,0,0,0,0,0,0,0,0,0,0,0,0,0,0,0,0,0,0,
0,0,0,0,0,0,0,0,0,0,0,0,0,0,0,0,0,0,0,0,0,0,0,0,0,0,0,0,0,0,
0,0,0,0,0,0,0,0,0,0,0,0,0,0,0,0,0,0,0,0,0,0,0,0,0,0,0,0,0,0,
0,0,0,0,0,0,0,0,0,0,0,0,0,0,0,0,0,0,0,0,0,0,0,0,0,0,0,0,0,0,
0,0,0,0,0,0,0,0,0,0,0,0,0,0,0,0,0,0,0,0,0,0,0,0,0,0,0,0,0,0,
0,0,0,0,0,0,0,0,0,0,0,0,0,0,0,0,0,0,0,0,0,0,0,0,0,0,0,0,0,0,
0,0,0,0,0,0,0,0,0,0,0,0,0,0,0,0,0,0,0,0,0,0,0,0,0,0,0,0,0,0,
0,0,0,0,0,0,0,0,0,0,0,0,0,0,0,0,0,0,0,0,0,0,0,0,0,0,0,0,0,0,
0,0,0,0,0,0,0,0,0,0,0,0,0,0,0,0,0,0,0,0,0,0,0,0,0,0,0,0,0,0,
0,0,0,0,0,0,0,0,0,0,0,0,0,0,0,0,0,0,0,0,0,0,0,0,0,0,0,0,0,0,
0,0,0,0,0,0,0,0,0,0,0,0,0,0,0,0,0,0,0,0,0,0,0,0,0,0,0,0,0,0,
0,0,0,0,0,0,0,0,0,0,0,0,0,0,0,0,0,0,0,0,0,0,0,0,0,0,0,0,0,0,
0,0,0,0,0,0,0,0,0,0,0,0,0,0,0,0,0,0,0,0,0,0,0,0,0,0,0,0,0,0
</data>
 </layer>
 <layer id="2" name="kittycatcasey.Stardew3D/WallData_East" width="30" height="27">
  <data encoding="csv">
0,0,0,0,0,0,0,0,0,0,0,0,0,0,0,0,0,0,0,0,0,0,0,0,0,0,0,0,0,0,
0,0,0,0,0,0,0,0,0,0,0,0,0,0,0,0,0,0,0,0,0,0,0,0,0,0,0,0,0,0,
0,0,0,0,0,0,0,0,0,0,0,0,0,0,0,0,0,0,0,0,0,0,0,0,0,0,0,0,0,0,
0,0,0,0,0,0,0,0,0,0,0,1,0,0,0,0,0,0,0,0,0,0,0,0,0,0,0,0,0,0,
0,0,0,0,0,0,0,0,0,0,0,1,0,0,0,0,0,0,0,0,0,0,0,0,0,0,0,0,0,0,
0,0,0,0,0,0,0,0,0,0,0,1,0,0,0,0,0,0,0,0,0,0,0,0,0,0,0,0,0,0,
0,0,0,0,0,0,0,0,0,0,0,1,0,0,0,0,0,0,0,0,0,0,0,0,0,0,0,0,0,0,
0,0,0,0,0,0,0,0,0,0,0,1,0,0,0,0,0,0,0,0,0,0,0,0,0,0,0,0,0,0,
0,0,0,0,0,0,0,0,0,0,0,1,0,0,0,0,0,0,0,0,0,0,0,0,0,0,0,0,0,0,
0,0,0,0,0,0,0,0,0,0,0,0,0,0,0,0,0,0,0,0,0,0,0,0,0,0,0,0,0,0,
0,0,0,0,0,0,0,0,0,0,0,0,0,0,0,0,0,0,0,0,0,0,0,0,0,0,0,0,0,0,
0,0,0,0,0,0,0,0,0,0,0,0,0,0,0,0,0,0,0,0,0,0,0,0,0,0,0,0,0,0,
0,0,0,0,0,0,0,0,0,0,0,0,0,0,0,0,0,0,0,0,0,0,0,0,0,0,0,0,0,0,
0,0,0,0,0,0,0,0,0,0,0,0,0,0,0,0,0,0,0,0,0,0,0,0,0,0,0,0,0,0,
0,0,0,0,0,0,0,0,0,0,0,0,0,0,0,0,0,0,0,0,0,0,0,0,0,0,0,0,0,0,
0,0,0,0,0,0,0,0,0,0,0,0,0,0,0,0,0,0,0,0,0,0,0,0,0,0,0,0,0,0,
0,0,0,0,0,0,0,0,0,0,0,0,0,0,0,0,0,0,0,0,0,0,0,0,0,0,0,0,0,0,
0,0,0,0,0,0,0,0,0,0,0,0,0,0,0,0,0,0,0,0,0,0,0,0,0,0,0,0,0,0,
0,0,0,0,0,0,0,0,0,0,0,0,0,0,0,0,0,0,0,0,0,0,0,0,0,0,0,0,0,0,
0,0,0,0,0,0,0,0,0,0,0,0,0,0,0,0,0,0,0,0,0,0,0,0,0,0,0,0,0,0,
0,0,0,0,0,0,0,0,0,0,0,0,0,0,0,0,0,0,0,0,0,0,0,0,0,0,0,0,0,0,
0,0,0,0,0,0,0,0,0,0,0,0,0,0,0,0,0,0,0,0,0,0,0,0,0,0,0,0,0,0,
0,0,0,0,0,0,0,0,0,0,0,0,0,0,0,0,0,0,0,0,0,0,0,0,0,0,0,0,0,0,
0,0,0,0,0,0,0,0,0,0,0,0,0,0,0,0,0,0,0,0,0,0,0,0,0,0,0,0,0,0,
0,0,0,0,0,0,0,0,0,0,0,0,0,0,0,0,0,0,0,0,0,0,0,0,0,0,0,0,0,0,
0,0,0,0,0,0,0,0,0,0,0,0,0,0,0,0,0,0,0,0,0,0,0,0,0,0,0,0,0,0,
0,0,0,0,0,0,0,0,0,0,0,0,0,0,0,0,0,0,0,0,0,0,0,0,0,0,0,0,0,0
</data>
 </layer>
 <layer id="3" name="kittycatcasey.Stardew3D/WallData_South" width="30" height="27">
  <data encoding="csv">
0,0,0,0,0,0,0,0,0,0,0,0,0,0,0,0,0,0,0,0,0,0,0,0,0,0,0,0,0,0,
0,0,0,0,0,0,0,0,0,0,0,0,0,0,0,0,0,0,0,0,0,0,0,0,0,0,0,0,0,0,
0,0,0,0,0,0,0,0,0,0,0,0,0,0,0,0,0,0,0,0,0,0,0,0,0,0,0,0,0,0,
0,0,0,0,0,0,0,0,0,0,0,0,0,0,0,0,0,0,0,0,0,0,0,0,0,0,0,0,0,0,
0,0,0,0,0,0,0,0,0,0,0,0,0,0,0,0,0,0,0,0,0,0,0,0,0,0,0,0,0,0,
0,0,0,0,0,0,0,0,0,0,0,0,0,0,0,0,0,0,0,0,0,0,0,0,0,0,0,0,0,0,
0,0,0,0,0,0,0,0,0,0,0,0,0,0,0,0,0,0,0,0,0,0,0,0,0,0,0,0,0,0,
0,0,0,0,0,0,0,0,0,0,0,0,0,0,0,0,0,0,0,0,0,0,0,0,0,0,0,0,0,0,
0,0,0,0,0,0,1,1,1,1,1,1,0,0,0,0,0,0,0,0,0,0,0,0,0,0,0,0,0,0,
0,0,0,0,0,0,0,0,0,0,0,0,0,0,0,0,0,0,0,0,0,0,0,0,0,0,0,0,0,0,
0,0,0,0,0,0,0,0,0,0,0,0,0,0,0,0,0,0,0,0,0,0,0,0,0,0,0,0,0,0,
0,0,0,0,0,0,0,0,0,0,0,0,0,0,0,0,0,0,0,0,0,0,0,0,0,0,0,0,0,0,
0,0,0,0,0,0,0,0,0,0,0,0,0,0,0,0,0,0,0,0,0,0,0,0,0,0,0,0,0,0,
0,0,0,0,0,0,0,0,0,0,0,0,0,0,0,0,0,0,0,0,0,0,0,0,0,0,0,0,0,0,
0,0,0,0,0,0,0,0,0,0,0,0,0,0,0,0,0,0,0,0,0,0,0,0,0,0,0,0,0,0,
0,0,0,0,0,0,0,0,0,0,0,0,0,0,0,0,0,0,0,0,0,0,0,0,0,0,0,0,0,0,
0,0,0,0,0,0,0,0,0,0,0,0,0,0,0,0,0,0,0,0,0,0,0,0,0,0,0,0,0,0,
0,0,0,0,0,0,0,0,0,0,0,0,0,0,0,0,0,0,0,0,0,0,0,0,0,0,0,0,0,0,
0,0,0,0,0,0,0,0,0,0,0,0,0,0,0,0,0,0,0,0,0,0,0,0,0,0,0,0,0,0,
0,0,0,0,0,0,0,0,0,0,0,0,0,0,0,0,0,0,0,0,0,0,0,0,0,0,0,0,0,0,
0,0,0,0,0,0,0,0,0,0,0,0,0,0,0,0,0,0,0,0,0,0,0,0,0,0,0,0,0,0,
0,0,0,0,0,0,0,0,0,0,0,0,0,0,0,0,0,0,0,0,0,0,0,0,0,0,0,0,0,0,
0,0,0,0,0,0,0,0,0,0,0,0,0,0,0,0,0,0,0,0,0,0,0,0,0,0,0,0,0,0,
0,0,0,0,0,0,0,0,0,0,0,0,0,0,0,0,0,0,0,0,0,0,0,0,0,0,0,0,0,0,
0,0,0,0,0,0,0,0,0,0,0,0,0,0,0,0,0,0,0,0,0,0,0,0,0,0,0,0,0,0,
0,0,0,0,0,0,0,0,0,0,0,0,0,0,0,0,0,0,0,0,0,0,0,0,0,0,0,0,0,0,
0,0,0,0,0,0,0,0,0,0,0,0,0,0,0,0,0,0,0,0,0,0,0,0,0,0,0,0,0,0
</data>
 </layer>
 <objectgroup id="4" name="kittycatcasey.Stardew3D/WallData_North">
  <object id="1" name="TileData" x="96" y="48" width="16" height="16">
   <properties>
    <property name="kittycatcasey.Stardew3D/WallDefinitionOverride" value="kittycatcasey.Stardew3D/SpouseRoom_Penny"/>
   </properties>
  </object>
  <object id="2" name="TileData" x="112" y="48" width="16" height="16">
   <properties>
    <property name="kittycatcasey.Stardew3D/WallDefinitionOverride" value="kittycatcasey.Stardew3D/SpouseRoom_Penny"/>
   </properties>
  </object>
  <object id="3" name="TileData" x="128" y="48" width="16" height="16">
   <properties>
    <property name="kittycatcasey.Stardew3D/WallDefinitionOverride" value="kittycatcasey.Stardew3D/SpouseRoom_Penny"/>
   </properties>
  </object>
  <object id="4" name="TileData" x="144" y="48" width="16" height="16">
   <properties>
    <property name="kittycatcasey.Stardew3D/WallDefinitionOverride" value="kittycatcasey.Stardew3D/SpouseRoom_Penny"/>
   </properties>
  </object>
  <object id="5" name="TileData" x="160" y="48" width="16" height="16">
   <properties>
    <property name="kittycatcasey.Stardew3D/WallDefinitionOverride" value="kittycatcasey.Stardew3D/SpouseRoom_Penny"/>
   </properties>
  </object>
  <object id="6" name="TileData" x="176" y="48" width="16" height="16">
   <properties>
    <property name="kittycatcasey.Stardew3D/WallDefinitionOverride" value="kittycatcasey.Stardew3D/SpouseRoom_Penny"/>
   </properties>
  </object>
 </objectgroup>
 <objectgroup id="5" name="kittycatcasey.Stardew3D/WallData_East">
  <object id="7" name="TileData" x="176" y="48" width="16" height="16">
   <properties>
    <property name="kittycatcasey.Stardew3D/WallDefinitionOverride" value="kittycatcasey.Stardew3D/SpouseRoom_Penny"/>
   </properties>
  </object>
  <object id="8" name="TileData" x="176" y="64" width="16" height="16">
   <properties>
    <property name="kittycatcasey.Stardew3D/WallDefinitionOverride" value="kittycatcasey.Stardew3D/SpouseRoom_Penny"/>
   </properties>
  </object>
  <object id="9" name="TileData" x="176" y="80" width="16" height="16">
   <properties>
    <property name="kittycatcasey.Stardew3D/WallDefinitionOverride" value="kittycatcasey.Stardew3D/SpouseRoom_Penny"/>
   </properties>
  </object>
  <object id="10" name="TileData" x="176" y="96" width="16" height="16">
   <properties>
    <property name="kittycatcasey.Stardew3D/WallDefinitionOverride" value="kittycatcasey.Stardew3D/SpouseRoom_Penny"/>
   </properties>
  </object>
  <object id="11" name="TileData" x="176" y="112" width="16" height="16">
   <properties>
    <property name="kittycatcasey.Stardew3D/WallDefinitionOverride" value="kittycatcasey.Stardew3D/SpouseRoom_Penny"/>
   </properties>
  </object>
  <object id="12" name="TileData" x="176" y="128" width="16" height="16">
   <properties>
    <property name="kittycatcasey.Stardew3D/WallDefinitionOverride" value="kittycatcasey.Stardew3D/SpouseRoom_Penny"/>
   </properties>
  </object>
 </objectgroup>
 <objectgroup id="6" name="kittycatcasey.Stardew3D/WallData_South">
  <object id="13" name="TileData" x="96" y="128" width="16" height="16">
   <properties>
    <property name="kittycatcasey.Stardew3D/WallDefinitionOverride" value="kittycatcasey.Stardew3D/SpouseRoom_Penny"/>
   </properties>
  </object>
  <object id="14" name="TileData" x="112" y="128" width="16" height="16">
   <properties>
    <property name="kittycatcasey.Stardew3D/WallDefinitionOverride" value="kittycatcasey.Stardew3D/SpouseRoom_Penny"/>
   </properties>
  </object>
  <object id="15" name="TileData" x="128" y="128" width="16" height="16">
   <properties>
    <property name="kittycatcasey.Stardew3D/WallDefinitionOverride" value="kittycatcasey.Stardew3D/SpouseRoom_Penny"/>
   </properties>
  </object>
  <object id="16" name="TileData" x="144" y="128" width="16" height="16">
   <properties>
    <property name="kittycatcasey.Stardew3D/WallDefinitionOverride" value="kittycatcasey.Stardew3D/SpouseRoom_Penny"/>
   </properties>
  </object>
  <object id="17" name="TileData" x="160" y="128" width="16" height="16">
   <properties>
    <property name="kittycatcasey.Stardew3D/WallDefinitionOverride" value="kittycatcasey.Stardew3D/SpouseRoom_Penny"/>
   </properties>
  </object>
  <object id="18" name="TileData" x="176" y="128" width="16" height="16">
   <properties>
    <property name="kittycatcasey.Stardew3D/WallDefinitionOverride" value="kittycatcasey.Stardew3D/SpouseRoom_Penny"/>
   </properties>
  </object>
 </objectgroup>
</map>