<?xml version="1.0" encoding="UTF-8"?>
<map version="1.4" tiledversion="1.4.2" orientation="orthogonal" renderorder="right-down" compressionlevel="0" width="25" height="18" tilewidth="16" tileheight="16" infinite="0" nextlayerid="7" nextobjectid="1">
 
 <tileset firstgid="1" name="dataValues3d" tilewidth="16" tileheight="16" tilecount="512" columns="32">
  <image source="ThirdDimensionData/data" width="512" height="256"/>
 </tileset>
 <tileset firstgid="513" name="paths" tilewidth="16" tileheight="16" tilecount="32" columns="4">
  <image source="paths" width="64" height="128"/>
 </tileset>
 <tileset firstgid="545" name="submarine tiles" tilewidth="16" tileheight="16" tilecount="528" columns="24">
  <image source="submarine_tilesheet" width="384" height="352"/>
  <tile id="186">
   <properties>
    <property name="Water" value="T"/>
   </properties>
  </tile>
  <tile id="187">
   <properties>
    <property name="Water" value="T"/>
   </properties>
  </tile>
  <tile id="200">
   <properties>
    <property name="Water" value="T"/>
   </properties>
  </tile>
  <tile id="211">
   <properties>
    <property name="Water" value="T"/>
   </properties>
  </tile>
  <tile id="282">
   <properties>
    <property name="Water" value="T"/>
   </properties>
  </tile>
  <tile id="283">
   <properties>
    <property name="Water" value="T"/>
   </properties>
  </tile>
 </tileset>
 <layer id="1" name="kittycatcasey.Stardew3D/FloorData_Center" width="25" height="18">
  <data encoding="csv">
0,0,0,0,0,0,0,0,0,0,0,0,0,0,0,0,0,0,0,0,0,0,0,0,0,
0,0,0,0,0,0,0,0,0,0,0,0,0,0,0,0,0,0,0,0,0,0,0,0,0,
0,0,0,0,0,0,0,0,0,0,0,0,0,0,0,0,0,0,0,0,0,0,0,0,0,
0,0,0,0,0,0,0,0,0,0,0,0,0,0,0,0,0,0,0,0,0,0,0,0,0,
0,0,0,0,0,0,1,1,1,1,1,1,1,1,1,1,1,1,1,1,1,1,1,1,0,
0,0,0,0,0,0,1,1,1,1,1,1,1,1,1,1,1,1,1,1,1,1,1,1,0,
0,0,0,0,0,0,1,1,1,1,1,1,1,1,1,1,1,1,1,1,1,1,1,1,0,
0,0,0,0,0,0,1,1,1,49,49,49,49,49,49,49,49,49,49,49,49,1,1,1,0,
0,0,0,0,0,0,1,1,1,49,49,49,49,49,49,49,49,49,49,49,49,1,1,1,0,
0,1,1,1,1,1,1,1,1,49,49,49,49,49,49,49,49,49,49,49,49,1,1,1,0,
0,1,1,1,1,1,1,1,1,49,49,49,49,49,49,49,49,49,49,49,49,1,1,1,0,
0,1,1,1,1,1,1,1,1,49,49,49,49,49,49,49,49,49,49,49,49,1,1,1,0,
0,0,0,0,0,0,1,1,1,1,1,1,1,1,1,1,1,1,1,1,1,1,1,1,0,
0,0,0,0,0,0,1,1,1,1,1,1,1,1,1,1,1,1,1,1,1,1,1,1,0,
0,0,0,0,0,0,1,1,1,1,1,1,1,1,1,1,1,1,1,1,1,1,1,1,0,
0,0,0,0,0,0,0,0,0,0,0,0,0,0,1,0,0,0,0,0,0,0,0,0,0,
0,0,0,0,0,0,0,0,0,0,0,0,0,0,0,0,0,0,0,0,0,0,0,0,0,
0,0,0,0,0,0,0,0,0,0,0,0,0,0,0,0,0,0,0,0,0,0,0,0,0
</data>
 </layer>
 <layer id="2" name="kittycatcasey.Stardew3D/WaterData_Center" width="25" height="18">
  <data encoding="csv">
0,0,0,0,0,0,0,0,0,0,0,0,0,0,0,0,0,0,0,0,0,0,0,0,0,
0,0,0,0,0,0,0,0,0,0,0,0,0,0,0,0,0,0,0,0,0,0,0,0,0,
0,0,0,0,0,0,0,0,0,0,0,0,0,0,0,0,0,0,0,0,0,0,0,0,0,
0,0,0,0,0,0,0,0,0,0,0,0,0,0,0,0,0,0,0,0,0,0,0,0,0,
0,0,0,0,0,0,0,0,0,0,0,0,0,0,0,0,0,0,0,0,0,0,0,0,0,
0,0,0,0,0,0,0,0,0,0,0,0,0,0,0,0,0,0,0,0,0,0,0,0,0,
0,0,0,0,0,0,0,0,0,0,0,0,0,0,0,0,0,0,0,0,0,0,0,0,0,
0,0,0,0,0,0,0,0,0,25,25,25,25,25,25,25,25,25,25,25,25,0,0,0,0,
0,0,0,0,0,0,0,0,0,25,25,25,25,25,25,25,25,25,25,25,25,0,0,0,0,
0,0,0,0,0,0,0,0,0,25,25,25,25,25,25,25,25,25,25,25,25,0,0,0,0,
0,0,0,0,0,0,0,0,0,25,25,25,25,25,25,25,25,25,25,25,25,0,0,0,0,
0,0,0,0,0,0,0,0,0,25,25,25,25,25,25,25,25,25,25,25,25,0,0,0,0,
0,0,0,0,0,0,0,0,0,0,0,0,0,0,0,0,0,0,0,0,0,0,0,0,0,
0,0,0,0,0,0,0,0,0,0,0,0,0,0,0,0,0,0,0,0,0,0,0,0,0,
0,0,0,0,0,0,0,0,0,0,0,0,0,0,0,0,0,0,0,0,0,0,0,0,0,
0,0,0,0,0,0,0,0,0,0,0,0,0,0,0,0,0,0,0,0,0,0,0,0,0,
0,0,0,0,0,0,0,0,0,0,0,0,0,0,0,0,0,0,0,0,0,0,0,0,0,
0,0,0,0,0,0,0,0,0,0,0,0,0,0,0,0,0,0,0,0,0,0,0,0,0
</data>
 </layer>
 <layer id="3" name="kittycatcasey.Stardew3D/CeilingData_Center" width="25" height="18">
  <data encoding="csv">
0,0,0,0,0,0,0,0,0,0,0,0,0,0,0,0,0,0,0,0,0,0,0,0,0,
0,0,0,0,0,0,0,0,0,0,0,0,0,0,0,0,0,0,0,0,0,0,0,0,0,
0,0,0,0,0,0,0,0,0,0,0,0,0,0,0,0,0,0,0,0,0,0,0,0,0,
0,0,0,0,0,0,0,0,0,0,0,0,0,0,0,0,0,0,0,0,0,0,0,0,0,
0,0,0,0,0,0,97,97,97,97,97,97,97,97,97,97,97,97,97,97,97,97,97,97,0,
0,0,0,0,0,0,97,97,97,97,97,97,97,97,97,97,97,97,97,97,97,97,97,97,0,
0,0,0,0,0,0,97,97,97,97,97,97,97,97,97,97,97,97,97,97,97,97,97,97,0,
0,0,0,0,0,0,97,97,97,97,97,97,97,97,97,97,97,97,97,97,97,97,97,97,0,
0,0,0,0,0,0,97,97,97,97,97,97,97,97,97,97,97,97,97,97,97,97,97,97,0,
0,97,97,97,97,97,97,97,97,97,97,97,97,97,97,97,97,97,97,97,97,97,97,97,0,
0,97,97,97,97,97,97,97,97,97,97,97,97,97,97,97,97,97,97,97,97,97,97,97,0,
0,97,97,97,97,97,97,97,97,97,97,97,97,97,97,97,97,97,97,97,97,97,97,97,0,
0,0,0,0,0,0,97,97,97,97,97,97,97,97,97,97,97,97,97,97,97,97,97,97,0,
0,0,0,0,0,0,97,97,97,97,97,97,97,97,97,97,97,97,97,97,97,97,97,97,0,
0,0,0,0,0,0,97,97,97,97,97,97,97,97,97,97,97,97,97,97,97,97,97,97,0,
0,0,0,0,0,0,0,0,0,0,0,0,0,0,97,0,0,0,0,0,0,0,0,0,0,
0,0,0,0,0,0,0,0,0,0,0,0,0,0,0,0,0,0,0,0,0,0,0,0,0,
0,0,0,0,0,0,0,0,0,0,0,0,0,0,0,0,0,0,0,0,0,0,0,0,0
</data>
 </layer>
 <objectgroup id="4" name="kittycatcasey.Stardew3D/FloorData_Center"/>
 <objectgroup id="5" name="kittycatcasey.Stardew3D/WaterData_Center"/>
 <objectgroup id="6" name="kittycatcasey.Stardew3D/CeilingData_Center"/>
</map>