<?xml version="1.0" encoding="UTF-8"?>
<map version="1.4" tiledversion="1.4.2" orientation="orthogonal" renderorder="right-down" compressionlevel="0" width="20" height="30" tilewidth="16" tileheight="16" infinite="0" nextlayerid="3" nextobjectid="1">
 
 <tileset firstgid="1" name="dataValues3d" tilewidth="16" tileheight="16" tilecount="512" columns="32">
  <image source="ThirdDimensionData/data" width="512" height="256"/>
 </tileset>
 <tileset firstgid="513" name="untitled tile sheet" tilewidth="16" tileheight="16" tilecount="1225" columns="25">
  <image source="spring_outdoorsTileSheet" width="400" height="784"/>
  <tile id="1220">
   <properties>
    <property name="Type" value="Stone"/>
   </properties>
  </tile>
 </tileset>
 <tileset firstgid="1738" name="untitled tile sheet2" tilewidth="16" tileheight="16" tilecount="256" columns="16">
  <image source="spring_outdoorsTileSheet2" width="256" height="256"/>
 </tileset>
 <layer id="1" name="kittycatcasey.Stardew3D/FloorData_Center" width="20" height="30">
  <data encoding="csv">
0,0,0,0,0,0,0,0,0,0,0,0,0,0,0,0,0,0,0,0,
0,0,0,0,0,0,0,0,0,0,0,0,0,0,0,0,0,0,0,0,
0,0,0,0,0,0,0,0,0,0,0,0,0,0,0,0,0,0,0,0,
0,0,0,0,0,0,0,0,0,0,0,0,0,0,0,0,0,0,0,0,
0,0,0,0,0,0,0,0,0,0,0,0,0,0,0,0,0,0,0,0,
0,0,0,0,0,0,0,0,0,0,0,0,0,0,0,0,0,0,0,0,
0,0,0,0,0,0,0,0,0,0,0,0,0,0,0,0,0,0,0,0,
0,0,0,0,0,0,0,0,0,0,0,0,0,0,0,0,0,0,0,0,
0,0,0,0,0,0,0,0,0,0,0,0,0,0,0,0,0,0,0,0,
0,0,0,0,0,0,0,0,0,0,0,0,0,0,0,0,0,0,0,0,
0,0,0,0,0,0,0,0,0,0,0,0,0,0,0,0,0,0,0,0,
0,0,0,0,0,0,0,0,0,0,0,0,0,0,0,0,0,0,0,0,
0,0,0,0,0,0,0,0,0,0,33,33,33,0,0,0,0,0,0,0,
0,0,0,0,0,0,0,0,0,33,33,33,33,33,0,0,0,0,0,0,
0,0,0,0,0,0,0,0,0,33,33,33,33,33,33,0,0,0,0,0,
0,0,0,0,0,0,0,0,33,33,33,33,33,33,33,0,0,0,0,0,
0,0,0,0,0,0,0,0,33,33,33,33,33,33,33,0,0,0,0,0,
0,0,0,0,0,0,0,0,33,33,33,33,33,33,33,0,0,0,0,0,
0,0,0,0,0,0,0,33,33,33,33,33,33,33,33,0,0,0,0,0,
0,0,0,0,0,0,0,33,33,33,33,33,33,33,33,0,0,0,0,0,
0,0,0,0,0,0,0,33,33,33,33,33,33,33,33,0,0,0,0,0,
0,0,0,0,0,0,0,33,33,33,33,33,33,33,33,0,0,0,0,0,
0,0,0,0,0,0,33,33,33,33,33,33,33,33,33,0,0,0,0,0,
0,0,0,0,0,33,33,33,33,33,33,33,33,33,33,33,0,0,0,0,
0,0,0,0,33,33,33,33,33,33,33,33,33,33,33,33,0,0,0,0,
0,0,0,0,33,33,33,33,33,33,33,33,33,33,33,33,0,0,0,0,
0,0,0,0,33,33,33,33,33,33,33,33,33,33,33,33,0,0,0,0,
0,0,0,33,33,33,33,33,33,33,33,33,33,33,33,33,33,0,0,0,
0,0,33,33,33,33,33,33,33,33,33,33,33,33,33,33,33,33,0,0,
0,0,33,33,33,33,33,33,33,33,33,33,33,33,33,33,33,33,33,0
</data>
 </layer>
 <objectgroup id="2" name="kittycatcasey.Stardew3D/FloorData_Center"/>
</map>