<?xml version="1.0" encoding="UTF-8"?>
<map version="1.4" tiledversion="1.4.2" orientation="orthogonal" renderorder="right-down" compressionlevel="0" width="12" height="15" tilewidth="16" tileheight="16" infinite="0" nextlayerid="5" nextobjectid="1">
 
 <tileset firstgid="1" name="1" tilewidth="16" tileheight="16" tilecount="2176" columns="32">
  <image source="townInterior" width="512" height="1088"/>
 </tileset>
 <tileset firstgid="2177" name="2" tilewidth="16" tileheight="16" tilecount="128" columns="8">
  <image source="CarolineGreenhouseTiles" width="128" height="256"/>
 </tileset>
 <tileset firstgid="2305" name="dataValues3d" tilewidth="16" tileheight="16" tilecount="512" columns="32">
  <image source="ThirdDimensionData/data" width="512" height="256"/>
 </tileset>
 <tileset firstgid="2817" name="p" tilewidth="16" tileheight="16" tilecount="32" columns="4">
  <image source="paths" width="64" height="128"/>
 </tileset>
 <layer id="1" name="kittycatcasey.Stardew3D/FloorData_Center" width="12" height="15">
  <data encoding="csv">
0,0,0,0,0,0,0,0,0,0,0,0,
0,0,0,0,0,0,0,0,0,0,0,0,
0,0,0,0,0,0,0,0,0,0,0,0,
0,0,0,0,0,0,0,0,0,0,0,0,
0,2305,2305,2305,2305,2305,2305,2305,2305,2305,2305,0,
0,2305,2305,2305,2305,2305,2305,2305,2305,2305,2305,0,
0,2305,2305,2305,2305,2305,2305,2305,2305,2305,2305,0,
0,2305,2305,2305,2305,2305,2305,2305,2305,2305,2305,0,
0,2305,2305,2305,2305,2305,2305,2305,2305,2305,2305,0,
0,2305,2305,2305,2305,2305,2305,2305,2305,2305,2305,0,
0,2305,2305,2305,2305,2305,2305,2305,2305,2305,2305,0,
0,2305,2305,2305,2305,2305,2305,2305,2305,2305,2305,0,
0,2305,2305,2305,2305,2305,2305,2305,2305,2305,2305,0,
0,0,0,0,0,2305,0,0,0,0,0,0,
0,0,0,0,0,0,0,0,0,0,0,0
</data>
 </layer>
 <layer id="2" name="kittycatcasey.Stardew3D/CeilingData_Center" width="12" height="15">
  <data encoding="csv">
0,0,0,0,0,0,0,0,0,0,0,0,
0,0,0,0,0,0,0,0,0,0,0,0,
0,0,0,0,0,0,0,0,0,0,0,0,
0,0,0,0,0,0,0,0,0,0,0,0,
0,2401,2401,2401,2401,2401,2401,2401,2401,2401,2401,0,
0,2401,2401,2401,2401,2401,2401,2401,2401,2401,2401,0,
0,2401,2401,2401,2401,2401,2401,2401,2401,2401,2401,0,
0,2401,2401,2401,2401,2401,2401,2401,2401,2401,2401,0,
0,2401,2401,2401,2401,2401,2401,2401,2401,2401,2401,0,
0,2401,2401,2401,2401,2401,2401,2401,2401,2401,2401,0,
0,2401,2401,2401,2401,2401,2401,2401,2401,2401,2401,0,
0,2401,2401,2401,2401,2401,2401,2401,2401,2401,2401,0,
0,2401,2401,2401,2401,2401,2401,2401,2401,2401,2401,0,
0,0,0,0,0,2401,0,0,0,0,0,0,
0,0,0,0,0,0,0,0,0,0,0,0
</data>
 </layer>
 <objectgroup id="3" name="kittycatcasey.Stardew3D/FloorData_Center"/>
 <objectgroup id="4" name="kittycatcasey.Stardew3D/CeilingData_Center"/>
</map>