<?xml version="1.0" encoding="UTF-8"?>
<map version="1.4" tiledversion="1.4.2" orientation="orthogonal" renderorder="right-down" compressionlevel="0" width="130" height="110" tilewidth="16" tileheight="16" infinite="0" nextlayerid="9" nextobjectid="1">
 
 <tileset firstgid="1" name="Landscape" tilewidth="16" tileheight="16" tilecount="1975" columns="25">
  <image source="spring_outdoorsTileSheet" width="400" height="1264"/>
  <tile id="150">
   <properties>
    <property name="Spawnable" value="T"/>
    <property name="Type" value="Grass"/>
   </properties>
  </tile>
  <tile id="151">
   <properties>
    <property name="Type" value="Grass"/>
   </properties>
  </tile>
  <tile id="153">
   <properties>
    <property name="Diggable" value="T"/>
    <property name="Type" value="Dirt"/>
   </properties>
  </tile>
  <tile id="156">
   <properties>
    <property name="Spawnable" value="T"/>
    <property name="Type" value="Grass"/>
   </properties>
  </tile>
  <tile id="175">
   <properties>
    <property name="Spawnable" value="T"/>
    <property name="Type" value="Grass"/>
   </properties>
  </tile>
  <tile id="176">
   <properties>
    <property name="Diggable" value="T"/>
    <property name="Type" value="Dirt"/>
   </properties>
  </tile>
  <tile id="177">
   <properties>
    <property name="Type" value="Dirt"/>
   </properties>
  </tile>
  <tile id="178">
   <properties>
    <property name="Type" value="Dirt"/>
   </properties>
  </tile>
  <tile id="179">
   <properties>
    <property name="Type" value="Grass"/>
   </properties>
  </tile>
  <tile id="180">
   <properties>
    <property name="Spawnable" value="T"/>
    <property name="Type" value="Grass"/>
   </properties>
  </tile>
  <tile id="181">
   <properties>
    <property name="Type" value="Dirt"/>
   </properties>
  </tile>
  <tile id="182">
   <properties>
    <property name="Type" value="Dirt"/>
   </properties>
  </tile>
  <tile id="200">
   <properties>
    <property name="Spawnable" value="T"/>
    <property name="Type" value="Grass"/>
   </properties>
  </tile>
  <tile id="202">
   <properties>
    <property name="Type" value="Dirt"/>
   </properties>
  </tile>
  <tile id="203">
   <properties>
    <property name="Type" value="Grass"/>
   </properties>
  </tile>
  <tile id="204">
   <properties>
    <property name="Type" value="Grass"/>
   </properties>
  </tile>
  <tile id="205">
   <properties>
    <property name="Type" value="Grass"/>
   </properties>
  </tile>
  <tile id="206">
   <properties>
    <property name="Diggable" value="T"/>
    <property name="Type" value="Dirt"/>
   </properties>
  </tile>
  <tile id="207">
   <properties>
    <property name="Diggable" value="T"/>
    <property name="Type" value="Dirt"/>
   </properties>
  </tile>
  <tile id="209">
   <properties>
    <property name="Water" value="T"/>
   </properties>
  </tile>
  <tile id="225">
   <properties>
    <property name="Type" value="Dirt"/>
   </properties>
  </tile>
  <tile id="226">
   <properties>
    <property name="Diggable" value="T"/>
    <property name="Type" value="Dirt"/>
   </properties>
  </tile>
  <tile id="227">
   <properties>
    <property name="Diggable" value="T"/>
    <property name="Type" value="Dirt"/>
   </properties>
  </tile>
  <tile id="228">
   <properties>
    <property name="Type" value="Dirt"/>
   </properties>
  </tile>
  <tile id="229">
   <properties>
    <property name="Type" value="Grass"/>
   </properties>
  </tile>
  <tile id="230">
   <properties>
    <property name="Type" value="Grass"/>
   </properties>
  </tile>
  <tile id="231">
   <properties>
    <property name="Diggable" value="T"/>
    <property name="Type" value="Dirt"/>
   </properties>
  </tile>
  <tile id="234">
   <properties>
    <property name="Water" value="T"/>
   </properties>
  </tile>
  <tile id="250">
   <properties>
    <property name="Type" value="Grass"/>
   </properties>
  </tile>
  <tile id="251">
   <properties>
    <property name="Type" value="Dirt"/>
   </properties>
  </tile>
  <tile id="252">
   <properties>
    <property name="Diggable" value="T"/>
    <property name="Type" value="Dirt"/>
   </properties>
  </tile>
  <tile id="253">
   <properties>
    <property name="Type" value="Grass"/>
   </properties>
  </tile>
  <tile id="254">
   <properties>
    <property name="Type" value="Grass"/>
   </properties>
  </tile>
  <tile id="255">
   <properties>
    <property name="Type" value="Grass"/>
   </properties>
  </tile>
  <tile id="256">
   <properties>
    <property name="Type" value="Grass"/>
   </properties>
  </tile>
  <tile id="261">
   <properties>
    <property name="Type" value="Grass"/>
   </properties>
  </tile>
  <tile id="265">
   <properties>
    <property name="Type" value="Dirt"/>
   </properties>
  </tile>
  <tile id="276">
   <properties>
    <property name="Type" value="Grass"/>
   </properties>
  </tile>
  <tile id="277">
   <properties>
    <property name="Type" value="Grass"/>
   </properties>
  </tile>
  <tile id="278">
   <properties>
    <property name="Type" value="Grass"/>
   </properties>
  </tile>
  <tile id="279">
   <properties>
    <property name="Type" value="Grass"/>
   </properties>
  </tile>
  <tile id="281">
   <properties>
    <property name="Type" value="Grass"/>
   </properties>
  </tile>
  <tile id="285">
   <properties>
    <property name="Water" value="T"/>
   </properties>
  </tile>
  <tile id="286">
   <properties>
    <property name="Type" value="Grass"/>
   </properties>
  </tile>
  <tile id="301">
   <properties>
    <property name="Type" value="Grass"/>
   </properties>
  </tile>
  <tile id="302">
   <properties>
    <property name="Type" value="Grass"/>
   </properties>
  </tile>
  <tile id="303">
   <properties>
    <property name="Type" value="Grass"/>
   </properties>
  </tile>
  <tile id="304">
   <properties>
    <property name="Type" value="Grass"/>
   </properties>
  </tile>
  <tile id="305">
   <properties>
    <property name="Type" value="Grass"/>
   </properties>
  </tile>
  <tile id="306">
   <properties>
    <property name="Type" value="Grass"/>
   </properties>
  </tile>
  <tile id="308">
   <properties>
    <property name="Water" value="T"/>
   </properties>
  </tile>
  <tile id="309">
   <properties>
    <property name="Water" value="T"/>
   </properties>
  </tile>
  <tile id="310">
   <properties>
    <property name="Water" value="T"/>
   </properties>
  </tile>
  <tile id="311">
   <properties>
    <property name="Type" value="Grass"/>
   </properties>
  </tile>
  <tile id="312">
   <properties>
    <property name="Type" value="Wood"/>
   </properties>
  </tile>
  <tile id="313">
   <properties>
    <property name="Type" value="Wood"/>
   </properties>
  </tile>
  <tile id="314">
   <properties>
    <property name="Type" value="Wood"/>
   </properties>
  </tile>
  <tile id="325">
   <properties>
    <property name="Type" value="Grass"/>
   </properties>
  </tile>
  <tile id="326">
   <properties>
    <property name="Type" value="Grass"/>
   </properties>
  </tile>
  <tile id="327">
   <properties>
    <property name="Type" value="Grass"/>
   </properties>
  </tile>
  <tile id="328">
   <properties>
    <property name="Type" value="Grass"/>
   </properties>
  </tile>
  <tile id="329">
   <properties>
    <property name="Type" value="Grass"/>
   </properties>
  </tile>
  <tile id="331">
   <properties>
    <property name="Type" value="Grass"/>
   </properties>
  </tile>
  <tile id="332">
   <properties>
    <property name="Type" value="Grass"/>
   </properties>
  </tile>
  <tile id="333">
   <properties>
    <property name="Water" value="T"/>
   </properties>
  </tile>
  <tile id="334">
   <properties>
    <property name="Water" value="T"/>
   </properties>
  </tile>
  <tile id="335">
   <properties>
    <property name="Water" value="T"/>
   </properties>
  </tile>
  <tile id="336">
   <properties>
    <property name="Water" value="T"/>
   </properties>
  </tile>
  <tile id="337">
   <properties>
    <property name="Type" value="Wood"/>
   </properties>
  </tile>
  <tile id="338">
   <properties>
    <property name="Type" value="Wood"/>
   </properties>
  </tile>
  <tile id="339">
   <properties>
    <property name="Type" value="Wood"/>
   </properties>
  </tile>
  <tile id="350">
   <properties>
    <property name="Type" value="Grass"/>
   </properties>
  </tile>
  <tile id="351">
   <properties>
    <property name="Spawnable" value="T"/>
    <property name="Type" value="Grass"/>
   </properties>
  </tile>
  <tile id="352">
   <properties>
    <property name="Type" value="Grass"/>
   </properties>
  </tile>
  <tile id="353">
   <properties>
    <property name="Type" value="Grass"/>
   </properties>
  </tile>
  <tile id="354">
   <properties>
    <property name="Type" value="Grass"/>
   </properties>
  </tile>
  <tile id="355">
   <properties>
    <property name="Type" value="Grass"/>
   </properties>
  </tile>
  <tile id="356">
   <properties>
    <property name="Type" value="Grass"/>
   </properties>
  </tile>
  <tile id="357">
   <properties>
    <property name="Type" value="Grass"/>
   </properties>
  </tile>
  <tile id="375">
   <properties>
    <property name="Type" value="Grass"/>
   </properties>
  </tile>
  <tile id="376">
   <properties>
    <property name="Type" value="Grass"/>
   </properties>
  </tile>
  <tile id="377">
   <properties>
    <property name="Type" value="Grass"/>
   </properties>
  </tile>
  <tile id="378">
   <properties>
    <property name="Type" value="Grass"/>
   </properties>
  </tile>
  <tile id="379">
   <properties>
    <property name="Type" value="Grass"/>
   </properties>
  </tile>
  <tile id="380">
   <properties>
    <property name="Spawnable" value="T"/>
    <property name="Type" value="Grass"/>
   </properties>
  </tile>
  <tile id="381">
   <properties>
    <property name="Type" value="Grass"/>
   </properties>
  </tile>
  <tile id="382">
   <properties>
    <property name="Type" value="Grass"/>
   </properties>
  </tile>
  <tile id="400">
   <properties>
    <property name="Type" value="Grass"/>
   </properties>
  </tile>
  <tile id="401">
   <properties>
    <property name="Type" value="Grass"/>
   </properties>
  </tile>
  <tile id="402">
   <properties>
    <property name="Type" value="Grass"/>
   </properties>
  </tile>
  <tile id="403">
   <properties>
    <property name="Spawnable" value="T"/>
    <property name="Type" value="Grass"/>
   </properties>
  </tile>
  <tile id="404">
   <properties>
    <property name="Type" value="Grass"/>
   </properties>
  </tile>
  <tile id="405">
   <properties>
    <property name="Type" value="Grass"/>
   </properties>
  </tile>
  <tile id="406">
   <properties>
    <property name="Type" value="Grass"/>
   </properties>
  </tile>
  <tile id="407">
   <properties>
    <property name="Type" value="Grass"/>
   </properties>
  </tile>
  <tile id="463">
   <properties>
    <property name="Type" value="Dirt"/>
   </properties>
  </tile>
  <tile id="488">
   <properties>
    <property name="Type" value="Dirt"/>
   </properties>
  </tile>
  <tile id="512">
   <properties>
    <property name="Type" value="Dirt"/>
   </properties>
  </tile>
  <tile id="513">
   <properties>
    <property name="Type" value="Dirt"/>
   </properties>
  </tile>
  <tile id="534">
   <properties>
    <property name="Type" value="Dirt"/>
   </properties>
  </tile>
  <tile id="536">
   <properties>
    <property name="Type" value="Dirt"/>
   </properties>
  </tile>
  <tile id="537">
   <properties>
    <property name="Type" value="Dirt"/>
   </properties>
  </tile>
  <tile id="538">
   <properties>
    <property name="Type" value="Dirt"/>
   </properties>
  </tile>
  <tile id="558">
   <properties>
    <property name="Diggable" value="T"/>
    <property name="Type" value="Dirt"/>
   </properties>
  </tile>
  <tile id="560">
   <properties>
    <property name="Diggable" value="T"/>
    <property name="Type" value="Dirt"/>
   </properties>
  </tile>
  <tile id="561">
   <properties>
    <property name="Type" value="Dirt"/>
   </properties>
  </tile>
  <tile id="562">
   <properties>
    <property name="Type" value="Dirt"/>
   </properties>
  </tile>
  <tile id="563">
   <properties>
    <property name="Type" value="Dirt"/>
   </properties>
  </tile>
  <tile id="564">
   <properties>
    <property name="Diggable" value="T"/>
    <property name="Type" value="Dirt"/>
   </properties>
  </tile>
  <tile id="565">
   <properties>
    <property name="Type" value="Dirt"/>
   </properties>
  </tile>
  <tile id="566">
   <properties>
    <property name="Type" value="Dirt"/>
   </properties>
  </tile>
  <tile id="567">
   <properties>
    <property name="Spawnable" value="T"/>
    <property name="Type" value="Grass"/>
   </properties>
  </tile>
  <tile id="568">
   <properties>
    <property name="Type" value="Grass"/>
   </properties>
  </tile>
  <tile id="569">
   <properties>
    <property name="Spawnable" value="T"/>
    <property name="Type" value="Grass"/>
   </properties>
  </tile>
  <tile id="570">
   <properties>
    <property name="Type" value="Grass"/>
   </properties>
  </tile>
  <tile id="583">
   <properties>
    <property name="Diggable" value="T"/>
    <property name="Type" value="Dirt"/>
   </properties>
  </tile>
  <tile id="585">
   <properties>
    <property name="Diggable" value="T"/>
    <property name="Type" value="Dirt"/>
   </properties>
  </tile>
  <tile id="586">
   <properties>
    <property name="Type" value="Dirt"/>
   </properties>
  </tile>
  <tile id="587">
   <properties>
    <property name="Diggable" value="T"/>
    <property name="Type" value="Dirt"/>
   </properties>
  </tile>
  <tile id="588">
   <properties>
    <property name="Type" value="Dirt"/>
   </properties>
  </tile>
  <tile id="589">
   <properties>
    <property name="Diggable" value="T"/>
    <property name="Type" value="Dirt"/>
   </properties>
  </tile>
  <tile id="590">
   <properties>
    <property name="Type" value="Dirt"/>
   </properties>
  </tile>
  <tile id="591">
   <properties>
    <property name="Type" value="Dirt"/>
   </properties>
  </tile>
  <tile id="592">
   <properties>
    <property name="Type" value="Grass"/>
   </properties>
  </tile>
  <tile id="593">
   <properties>
    <property name="Type" value="Grass"/>
   </properties>
  </tile>
  <tile id="594">
   <properties>
    <property name="Type" value="Grass"/>
   </properties>
  </tile>
  <tile id="595">
   <properties>
    <property name="Type" value="Grass"/>
   </properties>
  </tile>
  <tile id="596">
   <properties>
    <property name="Type" value="Dirt"/>
   </properties>
  </tile>
  <tile id="597">
   <properties>
    <property name="Type" value="Dirt"/>
   </properties>
  </tile>
  <tile id="598">
   <properties>
    <property name="Type" value="Stone"/>
   </properties>
  </tile>
  <tile id="599">
   <properties>
    <property name="Type" value="Stone"/>
   </properties>
  </tile>
  <tile id="606">
   <properties>
    <property name="Diggable" value="T"/>
    <property name="Type" value="Dirt"/>
   </properties>
  </tile>
  <tile id="607">
   <properties>
    <property name="Diggable" value="T"/>
    <property name="Type" value="Dirt"/>
   </properties>
  </tile>
  <tile id="608">
   <properties>
    <property name="Diggable" value="T"/>
    <property name="Type" value="Dirt"/>
   </properties>
  </tile>
  <tile id="610">
   <properties>
    <property name="Diggable" value="T"/>
    <property name="Type" value="Dirt"/>
   </properties>
  </tile>
  <tile id="611">
   <properties>
    <property name="Type" value="Dirt"/>
   </properties>
  </tile>
  <tile id="612">
   <properties>
    <property name="Type" value="Dirt"/>
   </properties>
  </tile>
  <tile id="613">
   <properties>
    <property name="Type" value="Dirt"/>
   </properties>
  </tile>
  <tile id="614">
   <properties>
    <property name="Diggable" value="T"/>
    <property name="Type" value="Dirt"/>
   </properties>
  </tile>
  <tile id="615">
   <properties>
    <property name="Type" value="Dirt"/>
   </properties>
  </tile>
  <tile id="616">
   <properties>
    <property name="Type" value="Dirt"/>
   </properties>
  </tile>
  <tile id="617">
   <properties>
    <property name="Type" value="Dirt"/>
   </properties>
  </tile>
  <tile id="618">
   <properties>
    <property name="Type" value="Dirt"/>
   </properties>
  </tile>
  <tile id="619">
   <properties>
    <property name="Type" value="Grass"/>
   </properties>
  </tile>
  <tile id="620">
   <properties>
    <property name="Type" value="Dirt"/>
   </properties>
  </tile>
  <tile id="621">
   <properties>
    <property name="Type" value="Dirt"/>
   </properties>
  </tile>
  <tile id="622">
   <properties>
    <property name="Type" value="Dirt"/>
   </properties>
  </tile>
  <tile id="623">
   <properties>
    <property name="Type" value="Stone"/>
   </properties>
  </tile>
  <tile id="628">
   <properties>
    <property name="Water" value="T"/>
   </properties>
  </tile>
  <tile id="629">
   <properties>
    <property name="Water" value="T"/>
   </properties>
  </tile>
  <tile id="630">
   <properties>
    <property name="Diggable" value="T"/>
    <property name="Type" value="Dirt"/>
   </properties>
  </tile>
  <tile id="631">
   <properties>
    <property name="Type" value="Dirt"/>
   </properties>
  </tile>
  <tile id="632">
   <properties>
    <property name="Diggable" value="T"/>
    <property name="Type" value="Dirt"/>
   </properties>
  </tile>
  <tile id="633">
   <properties>
    <property name="Type" value="Grass"/>
   </properties>
  </tile>
  <tile id="634">
   <properties>
    <property name="Spawnable" value="T"/>
    <property name="Type" value="Grass"/>
   </properties>
  </tile>
  <tile id="635">
   <properties>
    <property name="Type" value="Dirt"/>
   </properties>
  </tile>
  <tile id="636">
   <properties>
    <property name="Type" value="Dirt"/>
   </properties>
  </tile>
  <tile id="653">
   <properties>
    <property name="Water" value="T"/>
   </properties>
  </tile>
  <tile id="654">
   <properties>
    <property name="Type" value="Grass"/>
   </properties>
  </tile>
  <tile id="655">
   <properties>
    <property name="Type" value="Dirt"/>
   </properties>
  </tile>
  <tile id="656">
   <properties>
    <property name="Type" value="Dirt"/>
   </properties>
  </tile>
  <tile id="657">
   <properties>
    <property name="Type" value="Grass"/>
   </properties>
  </tile>
  <tile id="658">
   <properties>
    <property name="Type" value="Grass"/>
   </properties>
  </tile>
  <tile id="659">
   <properties>
    <property name="Type" value="Grass"/>
   </properties>
  </tile>
  <tile id="679">
   <properties>
    <property name="Type" value="Dirt"/>
   </properties>
  </tile>
  <tile id="680">
   <properties>
    <property name="Diggable" value="T"/>
    <property name="Type" value="Dirt"/>
   </properties>
  </tile>
  <tile id="681">
   <properties>
    <property name="Diggable" value="T"/>
    <property name="Type" value="Dirt"/>
   </properties>
  </tile>
  <tile id="682">
   <properties>
    <property name="Type" value="Dirt"/>
   </properties>
  </tile>
  <tile id="683">
   <properties>
    <property name="Type" value="Grass"/>
   </properties>
  </tile>
  <tile id="684">
   <properties>
    <property name="Type" value="Grass"/>
   </properties>
  </tile>
  <tile id="685">
   <properties>
    <property name="Diggable" value="T"/>
    <property name="Type" value="Dirt"/>
   </properties>
  </tile>
  <tile id="704">
   <properties>
    <property name="Type" value="Grass"/>
   </properties>
  </tile>
  <tile id="705">
   <properties>
    <property name="Type" value="Dirt"/>
   </properties>
  </tile>
  <tile id="706">
   <properties>
    <property name="Diggable" value="T"/>
    <property name="Type" value="Dirt"/>
   </properties>
  </tile>
  <tile id="707">
   <properties>
    <property name="Type" value="Grass"/>
   </properties>
  </tile>
  <tile id="729">
   <properties>
    <property name="Type" value="Wood"/>
   </properties>
  </tile>
  <tile id="730">
   <properties>
    <property name="Type" value="Wood"/>
   </properties>
  </tile>
  <tile id="734">
   <properties>
    <property name="Water" value="T"/>
   </properties>
  </tile>
  <tile id="754">
   <properties>
    <property name="Type" value="Wood"/>
   </properties>
  </tile>
  <tile id="755">
   <properties>
    <property name="Type" value="Wood"/>
   </properties>
  </tile>
  <tile id="759">
   <properties>
    <property name="Water" value="T"/>
   </properties>
  </tile>
  <tile id="779">
   <properties>
    <property name="Passable" value="T"/>
    <property name="Type" value="Wood"/>
   </properties>
  </tile>
  <tile id="780">
   <properties>
    <property name="Passable" value="T"/>
    <property name="Type" value="Wood"/>
   </properties>
  </tile>
  <tile id="781">
   <properties>
    <property name="Passable" value="T"/>
    <property name="Type" value="Wood"/>
   </properties>
  </tile>
  <tile id="782">
   <properties>
    <property name="Passable" value="T"/>
    <property name="Type" value="Wood"/>
   </properties>
  </tile>
  <tile id="809">
   <properties>
    <property name="Passable" value="T"/>
    <property name="Type" value="Wood"/>
   </properties>
  </tile>
  <tile id="812">
   <properties>
    <property name="Type" value="Stone"/>
   </properties>
  </tile>
  <tile id="813">
   <properties>
    <property name="Type" value="Stone"/>
   </properties>
  </tile>
  <tile id="834">
   <properties>
    <property name="Passable" value="T"/>
    <property name="Type" value="Wood"/>
   </properties>
  </tile>
  <tile id="838">
   <properties>
    <property name="Type" value="Stone"/>
   </properties>
  </tile>
  <tile id="859">
   <properties>
    <property name="Passable" value="T"/>
    <property name="Type" value="Wood"/>
   </properties>
  </tile>
  <tile id="884">
   <properties>
    <property name="Passable" value="T"/>
    <property name="Type" value="Wood"/>
   </properties>
  </tile>
  <tile id="947">
   <properties>
    <property name="Type" value="Stone"/>
   </properties>
  </tile>
  <tile id="948">
   <properties>
    <property name="Type" value="Stone"/>
   </properties>
  </tile>
  <tile id="949">
   <properties>
    <property name="Type" value="Stone"/>
   </properties>
  </tile>
  <tile id="972">
   <properties>
    <property name="Type" value="Stone"/>
   </properties>
  </tile>
  <tile id="973">
   <properties>
    <property name="Type" value="Stone"/>
   </properties>
  </tile>
  <tile id="974">
   <properties>
    <property name="Type" value="Stone"/>
   </properties>
  </tile>
  <tile id="998">
   <properties>
    <property name="Type" value="Stone"/>
   </properties>
  </tile>
  <tile id="999">
   <properties>
    <property name="Type" value="Stone"/>
   </properties>
  </tile>
  <tile id="1186">
   <properties>
    <property name="Water" value="T"/>
   </properties>
  </tile>
  <tile id="1187">
   <properties>
    <property name="Water" value="T"/>
   </properties>
  </tile>
  <tile id="1188">
   <properties>
    <property name="Water" value="T"/>
   </properties>
  </tile>
  <tile id="1211">
   <properties>
    <property name="Water" value="T"/>
   </properties>
  </tile>
  <tile id="1212">
   <properties>
    <property name="Water" value="T"/>
   </properties>
  </tile>
  <tile id="1213">
   <properties>
    <property name="Water" value="T"/>
   </properties>
  </tile>
  <tile id="1227">
   <properties>
    <property name="Water" value="T"/>
   </properties>
  </tile>
  <tile id="1228">
   <properties>
    <property name="Water" value="T"/>
   </properties>
  </tile>
  <tile id="1229">
   <properties>
    <property name="Water" value="T"/>
   </properties>
  </tile>
  <tile id="1230">
   <properties>
    <property name="Water" value="T"/>
   </properties>
  </tile>
  <tile id="1231">
   <properties>
    <property name="Water" value="T"/>
   </properties>
  </tile>
  <tile id="1237">
   <properties>
    <property name="Water" value="T"/>
   </properties>
  </tile>
  <tile id="1238">
   <properties>
    <property name="Water" value="T"/>
   </properties>
  </tile>
  <tile id="1239">
   <properties>
    <property name="Water" value="T"/>
   </properties>
  </tile>
  <tile id="1240">
   <properties>
    <property name="Water" value="T"/>
   </properties>
  </tile>
  <tile id="1241">
   <properties>
    <property name="Water" value="T"/>
   </properties>
  </tile>
  <tile id="1242">
   <properties>
    <property name="Water" value="T"/>
   </properties>
  </tile>
  <tile id="1243">
   <properties>
    <property name="Water" value="T"/>
   </properties>
  </tile>
  <tile id="1244">
   <properties>
    <property name="Water" value="T"/>
   </properties>
  </tile>
  <tile id="1245">
   <properties>
    <property name="Water" value="T"/>
   </properties>
  </tile>
  <tile id="1246">
   <properties>
    <property name="Passable" value="F"/>
    <property name="Water" value="T"/>
   </properties>
  </tile>
  <tile id="1247">
   <properties>
    <property name="Water" value="T"/>
   </properties>
  </tile>
  <tile id="1248">
   <properties>
    <property name="Water" value="T"/>
   </properties>
  </tile>
  <tile id="1249">
   <properties>
    <property name="Passable" value="F"/>
    <property name="Water" value="T"/>
   </properties>
  </tile>
  <tile id="1252">
   <properties>
    <property name="Water" value="T"/>
   </properties>
  </tile>
  <tile id="1253">
   <properties>
    <property name="Water" value="T"/>
   </properties>
  </tile>
  <tile id="1254">
   <properties>
    <property name="Water" value="T"/>
   </properties>
  </tile>
  <tile id="1255">
   <properties>
    <property name="Water" value="T"/>
   </properties>
  </tile>
  <tile id="1256">
   <properties>
    <property name="Water" value="T"/>
   </properties>
  </tile>
  <tile id="1263">
   <properties>
    <property name="Water" value="T"/>
   </properties>
  </tile>
  <tile id="1264">
   <properties>
    <property name="Water" value="T"/>
   </properties>
  </tile>
  <tile id="1265">
   <properties>
    <property name="Water" value="T"/>
   </properties>
  </tile>
  <tile id="1266">
   <properties>
    <property name="Passable" value="F"/>
    <property name="Water" value="T"/>
   </properties>
  </tile>
  <tile id="1267">
   <properties>
    <property name="Passable" value="F"/>
    <property name="Water" value="T"/>
   </properties>
  </tile>
  <tile id="1268">
   <properties>
    <property name="Water" value="T"/>
   </properties>
  </tile>
  <tile id="1269">
   <properties>
    <property name="Water" value="T"/>
   </properties>
  </tile>
  <tile id="1270">
   <properties>
    <property name="Water" value="T"/>
   </properties>
  </tile>
  <tile id="1271">
   <properties>
    <property name="Passable" value="F"/>
    <property name="Water" value="T"/>
   </properties>
  </tile>
  <tile id="1272">
   <properties>
    <property name="Water" value="T"/>
   </properties>
  </tile>
  <tile id="1273">
   <properties>
    <property name="Water" value="T"/>
   </properties>
  </tile>
  <tile id="1274">
   <properties>
    <property name="Water" value="T"/>
   </properties>
  </tile>
  <tile id="1277">
   <properties>
    <property name="Water" value="T"/>
   </properties>
  </tile>
  <tile id="1278">
   <properties>
    <property name="Water" value="T"/>
   </properties>
  </tile>
  <tile id="1279">
   <properties>
    <property name="Water" value="T"/>
   </properties>
  </tile>
  <tile id="1280">
   <properties>
    <property name="Water" value="T"/>
   </properties>
  </tile>
  <tile id="1281">
   <properties>
    <property name="Water" value="T"/>
   </properties>
  </tile>
  <tile id="1297">
   <properties>
    <property name="Water" value="T"/>
   </properties>
  </tile>
  <tile id="1298">
   <properties>
    <property name="Water" value="T"/>
   </properties>
  </tile>
  <tile id="1299">
   <properties>
    <property name="Passable" value="F"/>
    <property name="Water" value="T"/>
   </properties>
  </tile>
  <tile id="1302">
   <properties>
    <property name="Water" value="T"/>
   </properties>
  </tile>
  <tile id="1303">
   <properties>
    <property name="Water" value="T"/>
   </properties>
  </tile>
  <tile id="1304">
   <properties>
    <property name="Water" value="T"/>
   </properties>
  </tile>
  <tile id="1305">
   <properties>
    <property name="Water" value="T"/>
   </properties>
  </tile>
  <tile id="1306">
   <properties>
    <property name="Water" value="T"/>
   </properties>
  </tile>
  <tile id="1322">
   <properties>
    <property name="Water" value="T"/>
   </properties>
  </tile>
  <tile id="1323">
   <properties>
    <property name="Water" value="T"/>
   </properties>
  </tile>
  <tile id="1324">
   <properties>
    <property name="Water" value="T"/>
   </properties>
  </tile>
 </tileset>
 <tileset firstgid="1976" name="Paths" tilewidth="16" tileheight="16" tilecount="64" columns="4">
  <image source="paths" width="64" height="256"/>
  <tile id="35">
   <properties>
    <property name="GreenRain" value="??"/>
   </properties>
  </tile>
 </tileset>
 <tileset firstgid="2040" name="Town" tilewidth="16" tileheight="16" tilecount="2304" columns="32">
  <image source="spring_town" width="512" height="1152"/>
  <tile id="159">
   <properties>
    <property name="Passable" value="T"/>
   </properties>
  </tile>
  <tile id="191">
   <properties>
    <property name="Passable" value="T"/>
   </properties>
  </tile>
  <tile id="223">
   <properties>
    <property name="Passable" value="T"/>
   </properties>
  </tile>
  <tile id="608">
   <properties>
    <property name="Type" value="Grass"/>
   </properties>
  </tile>
  <tile id="609">
   <properties>
    <property name="Type" value="Grass"/>
   </properties>
  </tile>
  <tile id="610">
   <properties>
    <property name="Type" value="Grass"/>
   </properties>
  </tile>
  <tile id="611">
   <properties>
    <property name="Type" value="Grass"/>
   </properties>
  </tile>
  <tile id="612">
   <properties>
    <property name="Type" value="Grass"/>
   </properties>
  </tile>
  <tile id="641">
   <properties>
    <property name="Type" value="Stone"/>
   </properties>
  </tile>
  <tile id="644">
   <properties>
    <property name="Type" value="Grass"/>
   </properties>
  </tile>
  <tile id="645">
   <properties>
    <property name="Type" value="Grass"/>
   </properties>
  </tile>
  <tile id="646">
   <properties>
    <property name="Type" value="Stone"/>
   </properties>
  </tile>
  <tile id="672">
   <properties>
    <property name="Type" value="Grass"/>
   </properties>
  </tile>
  <tile id="674">
   <properties>
    <property name="Type" value="Grass"/>
   </properties>
  </tile>
  <tile id="676">
   <properties>
    <property name="Type" value="Stone"/>
   </properties>
  </tile>
  <tile id="736">
   <properties>
    <property name="Type" value="Stone"/>
   </properties>
  </tile>
  <tile id="737">
   <properties>
    <property name="Type" value="Stone"/>
   </properties>
  </tile>
  <tile id="768">
   <properties>
    <property name="Type" value="Stone"/>
   </properties>
  </tile>
  <tile id="769">
   <properties>
    <property name="Type" value="Stone"/>
   </properties>
  </tile>
  <tile id="770">
   <properties>
    <property name="Type" value="Stone"/>
   </properties>
  </tile>
  <tile id="858">
   <properties>
    <property name="Type" value="Stone"/>
   </properties>
  </tile>
  <tile id="859">
   <properties>
    <property name="Type" value="Stone"/>
   </properties>
  </tile>
  <tile id="860">
   <properties>
    <property name="Type" value="Stone"/>
   </properties>
  </tile>
  <tile id="861">
   <properties>
    <property name="Type" value="Stone"/>
   </properties>
  </tile>
  <tile id="862">
   <properties>
    <property name="Type" value="Stone"/>
   </properties>
  </tile>
  <tile id="863">
   <properties>
    <property name="Type" value="Stone"/>
   </properties>
  </tile>
  <tile id="874">
   <properties>
    <property name="Type" value="Stone"/>
   </properties>
  </tile>
  <tile id="890">
   <properties>
    <property name="Type" value="Stone"/>
   </properties>
  </tile>
  <tile id="891">
   <properties>
    <property name="Type" value="Stone"/>
   </properties>
  </tile>
  <tile id="892">
   <properties>
    <property name="Type" value="Stone"/>
   </properties>
  </tile>
  <tile id="893">
   <properties>
    <property name="Type" value="Stone"/>
   </properties>
  </tile>
  <tile id="894">
   <properties>
    <property name="Type" value="Stone"/>
   </properties>
  </tile>
  <tile id="895">
   <properties>
    <property name="Type" value="Stone"/>
   </properties>
  </tile>
  <tile id="901">
   <properties>
    <property name="Type" value="Stone"/>
   </properties>
  </tile>
  <tile id="902">
   <properties>
    <property name="Type" value="Stone"/>
   </properties>
  </tile>
  <tile id="903">
   <properties>
    <property name="Type" value="Stone"/>
   </properties>
  </tile>
  <tile id="904">
   <properties>
    <property name="Type" value="Stone"/>
   </properties>
  </tile>
  <tile id="905">
   <properties>
    <property name="Passable" value="F"/>
   </properties>
  </tile>
  <tile id="909">
   <properties>
    <property name="Type" value="Stone"/>
   </properties>
  </tile>
  <tile id="916">
   <properties>
    <property name="Water" value="T"/>
   </properties>
  </tile>
  <tile id="917">
   <properties>
    <property name="Water" value="T"/>
   </properties>
  </tile>
  <tile id="918">
   <properties>
    <property name="Water" value="T"/>
   </properties>
  </tile>
  <tile id="919">
   <properties>
    <property name="Water" value="T"/>
   </properties>
  </tile>
  <tile id="922">
   <properties>
    <property name="Type" value="Stone"/>
   </properties>
  </tile>
  <tile id="923">
   <properties>
    <property name="Type" value="Stone"/>
   </properties>
  </tile>
  <tile id="924">
   <properties>
    <property name="Type" value="Stone"/>
   </properties>
  </tile>
  <tile id="925">
   <properties>
    <property name="Type" value="Stone"/>
   </properties>
  </tile>
  <tile id="926">
   <properties>
    <property name="Type" value="Stone"/>
   </properties>
  </tile>
  <tile id="927">
   <properties>
    <property name="Type" value="Stone"/>
   </properties>
  </tile>
  <tile id="931">
   <properties>
    <property name="Type" value="Stone"/>
   </properties>
  </tile>
  <tile id="932">
   <properties>
    <property name="Type" value="Stone"/>
   </properties>
  </tile>
  <tile id="933">
   <properties>
    <property name="Type" value="Stone"/>
   </properties>
  </tile>
  <tile id="934">
   <properties>
    <property name="Type" value="Stone"/>
   </properties>
  </tile>
  <tile id="935">
   <properties>
    <property name="Type" value="Stone"/>
   </properties>
  </tile>
  <tile id="936">
   <properties>
    <property name="Type" value="Stone"/>
   </properties>
  </tile>
  <tile id="950">
   <properties>
    <property name="Water" value="T"/>
   </properties>
  </tile>
  <tile id="954">
   <properties>
    <property name="Type" value="Stone"/>
   </properties>
  </tile>
  <tile id="955">
   <properties>
    <property name="Type" value="Stone"/>
   </properties>
  </tile>
  <tile id="956">
   <properties>
    <property name="Type" value="Stone"/>
   </properties>
  </tile>
  <tile id="957">
   <properties>
    <property name="Type" value="Stone"/>
   </properties>
  </tile>
  <tile id="958">
   <properties>
    <property name="Type" value="Stone"/>
   </properties>
  </tile>
  <tile id="959">
   <properties>
    <property name="Type" value="Stone"/>
   </properties>
  </tile>
  <tile id="963">
   <properties>
    <property name="Type" value="Stone"/>
   </properties>
  </tile>
  <tile id="964">
   <properties>
    <property name="Type" value="Stone"/>
   </properties>
  </tile>
  <tile id="965">
   <properties>
    <property name="Type" value="Stone"/>
   </properties>
  </tile>
  <tile id="966">
   <properties>
    <property name="Type" value="Stone"/>
   </properties>
  </tile>
  <tile id="967">
   <properties>
    <property name="Type" value="Stone"/>
   </properties>
  </tile>
  <tile id="968">
   <properties>
    <property name="Type" value="Stone"/>
   </properties>
  </tile>
  <tile id="969">
   <properties>
    <property name="Type" value="Stone"/>
   </properties>
  </tile>
  <tile id="970">
   <properties>
    <property name="Type" value="Stone"/>
   </properties>
  </tile>
  <tile id="986">
   <properties>
    <property name="Type" value="Stone"/>
   </properties>
  </tile>
  <tile id="987">
   <properties>
    <property name="Type" value="Stone"/>
   </properties>
  </tile>
  <tile id="988">
   <properties>
    <property name="Type" value="Stone"/>
   </properties>
  </tile>
  <tile id="989">
   <properties>
    <property name="Type" value="Stone"/>
   </properties>
  </tile>
  <tile id="990">
   <properties>
    <property name="Type" value="Stone"/>
   </properties>
  </tile>
  <tile id="991">
   <properties>
    <property name="Type" value="Stone"/>
   </properties>
  </tile>
  <tile id="993">
   <properties>
    <property name="Type" value="Stone"/>
   </properties>
  </tile>
  <tile id="994">
   <properties>
    <property name="Type" value="Stone"/>
   </properties>
  </tile>
  <tile id="995">
   <properties>
    <property name="Type" value="Stone"/>
   </properties>
  </tile>
  <tile id="996">
   <properties>
    <property name="Type" value="Stone"/>
   </properties>
  </tile>
  <tile id="997">
   <properties>
    <property name="Type" value="Stone"/>
   </properties>
  </tile>
  <tile id="998">
   <properties>
    <property name="Type" value="Stone"/>
   </properties>
  </tile>
  <tile id="999">
   <properties>
    <property name="Type" value="Stone"/>
   </properties>
  </tile>
  <tile id="1000">
   <properties>
    <property name="Type" value="Stone"/>
   </properties>
  </tile>
  <tile id="1007">
   <properties>
    <property name="Type" value="Stone"/>
   </properties>
  </tile>
  <tile id="1008">
   <properties>
    <property name="Type" value="Stone"/>
   </properties>
  </tile>
  <tile id="1018">
   <properties>
    <property name="Type" value="Stone"/>
   </properties>
  </tile>
  <tile id="1019">
   <properties>
    <property name="Type" value="Stone"/>
   </properties>
  </tile>
  <tile id="1020">
   <properties>
    <property name="Type" value="Stone"/>
   </properties>
  </tile>
  <tile id="1021">
   <properties>
    <property name="Type" value="Stone"/>
   </properties>
  </tile>
  <tile id="1022">
   <properties>
    <property name="Type" value="Stone"/>
   </properties>
  </tile>
  <tile id="1023">
   <properties>
    <property name="Type" value="Stone"/>
   </properties>
  </tile>
  <tile id="1031">
   <properties>
    <property name="Type" value="Dirt"/>
   </properties>
  </tile>
  <tile id="1032">
   <properties>
    <property name="Type" value="Dirt"/>
   </properties>
  </tile>
  <tile id="1033">
   <properties>
    <property name="Type" value="Dirt"/>
   </properties>
  </tile>
  <tile id="1063">
   <properties>
    <property name="Type" value="Dirt"/>
   </properties>
  </tile>
  <tile id="1064">
   <properties>
    <property name="Type" value="Dirt"/>
   </properties>
  </tile>
  <tile id="1065">
   <properties>
    <property name="Type" value="Dirt"/>
   </properties>
  </tile>
  <tile id="1095">
   <properties>
    <property name="Type" value="Dirt"/>
   </properties>
  </tile>
  <tile id="1096">
   <properties>
    <property name="Type" value="Dirt"/>
   </properties>
  </tile>
  <tile id="1097">
   <properties>
    <property name="Type" value="Dirt"/>
   </properties>
  </tile>
  <tile id="1249">
   <properties>
    <property name="Shadow" value="T"/>
   </properties>
  </tile>
  <tile id="1573">
   <properties>
    <property name="Type" value="Stone"/>
   </properties>
  </tile>
  <tile id="1574">
   <properties>
    <property name="Type" value="Stone"/>
   </properties>
  </tile>
  <tile id="1585">
   <properties>
    <property name="Type" value="Stone"/>
   </properties>
  </tile>
  <tile id="1586">
   <properties>
    <property name="Type" value="Stone"/>
   </properties>
  </tile>
  <tile id="1958">
   <properties>
    <property name="Shadow" value="T"/>
   </properties>
  </tile>
 </tileset>
 <tileset firstgid="4344" name="v16_landscape2" tilewidth="16" tileheight="16" tilecount="1120" columns="16">
  <image source="spring_outdoorsTileSheet2" width="256" height="1120"/>
  <tile id="736">
   <properties>
    <property name="Type" value="Wood"/>
   </properties>
  </tile>
  <tile id="737">
   <properties>
    <property name="Type" value="Wood"/>
   </properties>
  </tile>
  <tile id="738">
   <properties>
    <property name="Type" value="Wood"/>
   </properties>
  </tile>
  <tile id="739">
   <properties>
    <property name="Type" value="Wood"/>
   </properties>
  </tile>
  <tile id="740">
   <properties>
    <property name="Type" value="Grass"/>
   </properties>
  </tile>
  <tile id="741">
   <properties>
    <property name="Type" value="Grass"/>
   </properties>
  </tile>
  <tile id="752">
   <properties>
    <property name="Type" value="Wood"/>
   </properties>
  </tile>
  <tile id="753">
   <properties>
    <property name="Type" value="Wood"/>
   </properties>
  </tile>
  <tile id="754">
   <properties>
    <property name="Type" value="Wood"/>
   </properties>
  </tile>
  <tile id="755">
   <properties>
    <property name="Type" value="Wood"/>
   </properties>
  </tile>
  <tile id="756">
   <properties>
    <property name="Type" value="Grass"/>
   </properties>
  </tile>
  <tile id="757">
   <properties>
    <property name="Type" value="Grass"/>
   </properties>
  </tile>
  <tile id="772">
   <properties>
    <property name="Type" value="Grass"/>
   </properties>
  </tile>
  <tile id="773">
   <properties>
    <property name="Type" value="Grass"/>
   </properties>
  </tile>
  <tile id="816">
   <properties>
    <property name="Water" value="T"/>
   </properties>
  </tile>
  <tile id="817">
   <properties>
    <property name="Water" value="T"/>
   </properties>
  </tile>
  <tile id="820">
   <properties>
    <property name="Water" value="T"/>
   </properties>
  </tile>
  <tile id="821">
   <properties>
    <property name="Water" value="T"/>
   </properties>
  </tile>
  <tile id="822">
   <properties>
    <property name="Water" value="T"/>
   </properties>
  </tile>
  <tile id="832">
   <properties>
    <property name="Water" value="T"/>
   </properties>
  </tile>
  <tile id="833">
   <properties>
    <property name="Water" value="T"/>
   </properties>
  </tile>
  <tile id="834">
   <properties>
    <property name="Water" value="T"/>
   </properties>
  </tile>
  <tile id="835">
   <properties>
    <property name="Water" value="T"/>
   </properties>
  </tile>
  <tile id="836">
   <properties>
    <property name="Water" value="T"/>
   </properties>
  </tile>
  <tile id="837">
   <properties>
    <property name="Water" value="T"/>
   </properties>
  </tile>
  <tile id="838">
   <properties>
    <property name="Water" value="T"/>
   </properties>
  </tile>
  <tile id="848">
   <properties>
    <property name="Water" value="T"/>
   </properties>
  </tile>
  <tile id="849">
   <properties>
    <property name="Water" value="T"/>
   </properties>
  </tile>
  <tile id="850">
   <properties>
    <property name="Water" value="T"/>
   </properties>
  </tile>
  <tile id="851">
   <properties>
    <property name="Water" value="T"/>
   </properties>
  </tile>
  <tile id="852">
   <properties>
    <property name="Water" value="T"/>
   </properties>
  </tile>
  <tile id="853">
   <properties>
    <property name="Water" value="T"/>
   </properties>
  </tile>
  <tile id="854">
   <properties>
    <property name="Water" value="T"/>
   </properties>
  </tile>
  <tile id="864">
   <properties>
    <property name="Water" value="T"/>
   </properties>
  </tile>
  <tile id="865">
   <properties>
    <property name="Water" value="T"/>
   </properties>
  </tile>
  <tile id="866">
   <properties>
    <property name="Water" value="T"/>
   </properties>
  </tile>
  <tile id="867">
   <properties>
    <property name="Water" value="T"/>
   </properties>
  </tile>
  <tile id="868">
   <properties>
    <property name="Water" value="T"/>
   </properties>
  </tile>
  <tile id="869">
   <properties>
    <property name="Water" value="T"/>
   </properties>
  </tile>
  <tile id="870">
   <properties>
    <property name="Water" value="T"/>
   </properties>
  </tile>
  <tile id="880">
   <properties>
    <property name="Water" value="T"/>
   </properties>
  </tile>
  <tile id="881">
   <properties>
    <property name="Water" value="T"/>
   </properties>
  </tile>
  <tile id="882">
   <properties>
    <property name="Water" value="T"/>
   </properties>
  </tile>
  <tile id="883">
   <properties>
    <property name="Water" value="T"/>
   </properties>
  </tile>
 </tileset>
 <tileset firstgid="5464" name="v16_Shadows" tilewidth="16" tileheight="16" tilecount="475" columns="19">
  <image source="spring_Shadows" width="304" height="400"/>
 </tileset>
 <tileset firstgid="5939" name="v16_Waterfalls" tilewidth="16" tileheight="16" tilecount="900" columns="36">
  <image source="spring_Waterfalls" width="576" height="400"/>
 </tileset>
 <tileset firstgid="6839" name="z_dataValues3d" tilewidth="16" tileheight="16" tilecount="512" columns="32">
  <image source="ThirdDimensionData/data" width="512" height="256"/>
 </tileset>
 <layer id="1" name="kittycatcasey.Stardew3D/FloorData_Center" width="130" height="110">
  <data encoding="csv">
7095,7095,7095,7095,7095,7095,7095,7095,7095,7095,7095,7095,7095,7095,7095,7095,7095,7095,7095,7095,7095,7095,7095,7095,7095,7095,7095,7095,7095,7095,7095,7095,7095,7095,7095,7095,7095,7095,7095,7095,7095,7095,7095,7095,7095,7095,7095,7095,7095,7095,7095,7095,7095,7095,7095,7095,7095,7095,7095,7095,7095,7095,7095,7095,7095,7095,7095,6967,6967,6967,6967,6967,6967,6967,6967,6967,6967,6967,6967,6967,6967,6967,6967,6967,6967,6967,6967,6967,6839,6839,6839,6967,6967,6935,6935,6935,6935,6967,6967,6967,6967,7095,7095,7095,7095,7095,7095,7095,7095,7095,7095,7095,7095,7095,7095,7063,7031,6999,6967,6967,6967,6967,6967,6967,6967,6967,6967,6967,6967,6967,
7095,7095,7095,7095,7095,7095,7095,7095,7095,7095,7095,7095,7095,7095,7095,7095,7095,7095,7095,7095,7095,7095,7095,7095,7095,7095,7095,7095,7095,7095,7095,7095,7095,7095,7095,7095,7095,7095,7095,7095,7095,7095,7095,7095,7095,7095,7095,7095,7095,7095,7095,7095,7095,7095,7095,7095,7095,7095,7095,7095,7095,7095,7095,7095,7095,7095,7095,6967,6967,6967,6967,6967,6967,6967,6967,6967,6967,6967,6967,6967,6967,6967,6967,6967,6967,6967,6967,6967,6839,6839,6839,6967,6967,6935,6935,6935,6935,6967,6967,6967,6967,7095,7095,7095,7095,7095,7095,7095,7095,7095,7095,7095,7095,7095,7095,7063,7031,6999,6967,6967,6967,6967,6967,6967,6967,6967,6967,6967,6967,6967,
7095,7095,7095,7095,7095,7095,7095,7095,7095,7095,7095,7095,7095,7095,7095,7095,7095,7095,7095,7095,7095,7095,7095,7095,7095,7095,7095,7095,7095,7095,7095,7095,7095,7095,7095,7095,7095,7095,7095,7095,7095,7095,7095,7095,7095,7095,7095,7095,7095,7095,7095,7095,7095,7095,7095,7095,7095,7095,7095,7095,7095,7095,7095,7095,7095,7095,7095,6967,6967,6967,6967,6967,6967,6967,6967,6967,6967,6967,6967,6967,6967,6967,6967,6967,6967,6967,6967,6967,6839,6839,6839,6967,6967,6935,6935,6935,6935,6967,6967,6967,6967,7095,7095,7095,7095,7095,7095,7095,7095,7095,7095,7095,7095,7095,7095,7063,7031,6999,6967,6967,6967,6967,6967,6967,6967,6967,6967,6967,6967,6967,
7095,7095,7095,7095,7095,7095,7095,7095,7095,7095,7095,7095,7095,7095,7095,7095,7095,7095,7095,7095,7095,7095,7095,7095,7095,7095,7095,7095,7095,7095,7095,7095,7095,7095,7095,7095,7095,7095,7095,7095,7095,7095,7095,7095,7095,7095,7095,7095,7095,7095,7095,7095,7095,7095,7095,7095,7095,7095,7095,7095,7095,7095,7095,7095,7095,7095,7095,6967,6967,6967,6967,6967,6967,6967,6967,6967,6967,6967,6967,6967,6967,6967,6967,6967,6967,6967,6967,6967,6839,6839,6839,6967,6967,6935,6935,6935,6935,6967,6967,6967,6967,6967,6967,6967,7095,7095,7095,7095,7095,7095,7095,7095,7095,7095,7095,7063,7031,6999,6967,6967,6967,6967,6967,6967,6967,6967,6967,6967,6967,6967,
7095,7095,7095,7095,7095,7095,7095,7095,7095,7095,7095,7095,7095,7095,7095,7095,7095,7095,7095,7095,7095,7095,7095,7095,7095,7095,7095,7095,7095,7095,7095,7095,7095,7095,7095,7095,7095,7095,7095,7095,7095,7095,7095,7095,7095,7095,7095,7095,7095,7095,7095,7095,7095,7095,7095,7095,7095,7095,7095,7095,7095,7095,7095,7095,7095,7095,7095,6967,6967,6967,6967,6967,6967,6967,6967,6967,6967,6967,6967,6967,6967,6967,6967,6967,6967,6967,6967,6967,6839,6839,6839,6967,6967,6935,6935,6935,6935,6967,6967,6967,6967,6967,6967,6967,7095,7095,7095,7095,7095,7095,7095,7095,7095,7095,7095,7063,7031,6999,6967,6967,6967,6967,6967,6967,6967,6967,6967,6967,6967,6967,
7095,7095,7095,7095,7095,7095,7095,7095,7095,7095,7095,7095,7095,7095,7095,7095,7095,7095,7095,7095,7095,7095,7095,7095,7095,7095,7095,7095,7095,7095,7095,7095,7095,7095,7095,7095,7095,7095,7095,7095,7095,7095,7095,7095,7095,7095,7095,7095,7095,7095,7095,7095,7095,7095,7095,7095,7095,7095,7095,7095,7095,7095,7095,7095,6967,6967,6967,6967,6967,6967,6967,6967,6967,6967,6967,6967,6967,6967,6967,6967,6967,6967,6967,6967,6967,6967,6967,6839,6839,6839,6839,6839,6919,6919,6919,6919,6919,6919,6839,6967,6967,6967,6967,6967,7095,7095,7095,7095,7095,7095,7095,7095,7095,7095,7095,7063,7031,6999,6967,6967,6967,6967,6967,6967,6967,6967,6967,6967,6967,6967,
7095,7095,7095,7095,7095,7095,7095,7095,7095,7095,7095,7095,7095,7095,7095,7095,7095,7095,7095,7095,7095,7095,7095,7095,7095,7095,7095,7095,7095,7095,7095,7095,7095,7095,7095,7095,7095,7095,7095,7095,7095,7095,7095,7095,7095,7095,7095,7095,7095,7095,7095,7095,7095,7095,7095,7095,7095,7095,7095,7095,7095,7095,7095,6967,6967,6967,6967,6967,6967,6967,6967,6967,6967,6967,6967,6967,6967,6967,6967,6967,6967,6967,6967,6967,6967,6967,6967,6839,6839,6839,6839,6919,6919,6919,6919,6919,6919,6919,6839,6967,6967,6967,6967,6967,7095,7095,7095,7095,7095,7095,7095,7095,7095,7095,7095,7063,7031,6999,6967,6967,6967,6967,6967,6967,6967,6967,6967,6967,6967,6967,
7095,7095,7095,7095,7095,7095,7095,7095,7095,7095,7095,7095,7095,7095,7095,7095,7095,7095,7095,7095,7095,7095,7095,7095,7095,7095,7095,7095,7095,7095,7095,7095,7095,7095,7095,7095,7095,7095,7095,7095,7095,7095,7095,7095,7095,7095,7095,7095,7095,7095,7095,7095,7095,7095,7095,7095,7095,7095,7095,7095,7095,6967,6967,6967,6967,6967,6967,6967,6967,6967,6967,6967,6967,6967,6967,6967,6967,6967,6967,6967,6967,6967,6967,6967,6967,6967,6967,6839,6839,6839,6839,6919,6919,6919,6919,6919,6919,6919,6839,6967,6967,6967,6967,6967,7095,7095,7095,7095,7095,7095,7095,7095,7095,7095,7095,7063,7031,6999,6967,6967,6967,6967,6967,6967,6967,6967,6967,6967,6967,6967,
7095,7095,7095,7095,7095,7095,7095,7095,7095,7095,7095,7095,7095,7095,7095,7095,7095,7095,6967,6967,6967,6967,7095,7095,7095,7095,7095,7095,7095,7095,7095,7095,7095,7095,7095,7095,7095,7095,7095,7095,7095,7095,7095,7095,7095,7095,7095,7095,7095,7095,7095,7095,7095,7095,7095,7095,7095,7095,7095,6967,6967,6967,6967,6967,6967,6967,6967,6967,6967,6967,6967,6967,6967,6967,6967,6967,6967,6967,6967,6967,6967,6967,6967,6967,6967,6967,6967,6839,6839,6839,6839,6919,6919,6919,6919,6919,6919,6919,6839,6967,6967,6967,6967,6967,7095,7095,7095,7095,7095,7095,7095,7095,7095,7095,7095,7063,7031,6999,6967,6967,6967,6967,6967,6967,6967,6967,6967,6967,6967,6967,
7095,7095,7095,7095,7095,7095,7095,7095,7095,7095,7095,6967,6967,6967,6967,6967,6967,6967,6967,6967,6967,6967,6967,6967,6967,6967,6967,6967,7095,7095,7095,7095,7095,6967,6967,6967,6967,6967,6967,6967,6967,6967,6967,6967,6967,6967,6967,6967,6967,6967,6967,6967,6967,6967,6967,6967,6967,6967,6967,6967,6967,6967,6967,6967,6967,6967,6967,6967,6967,6967,6967,6967,6967,6967,6967,6967,6967,6967,6967,6967,6967,6967,6967,6967,6967,6967,6967,6839,6839,6839,6839,6919,6919,6919,6919,6919,6919,6919,6839,6839,6967,6967,6967,6967,6967,6967,7095,7095,7095,7095,7095,7095,7095,7095,7095,7063,7031,6999,6967,6967,6967,6967,6967,6967,6967,6967,6967,6967,6967,6967,
7095,7095,7095,7095,7095,7095,7095,7095,7095,7095,7095,6967,6967,6967,6967,6967,6967,6967,6967,6967,6967,6967,6967,6967,6967,6967,6967,6967,6967,6967,6967,6967,6967,6967,6967,6967,6967,6967,6967,6967,6967,6967,6967,6967,6967,6967,6967,6967,6967,6967,6967,6967,6967,6967,6967,6967,6967,6967,6967,6967,6967,6967,6967,6967,6967,6967,6967,6967,6967,6967,6967,6967,6967,6967,6967,6967,6967,6967,6967,6967,6967,6967,6967,6967,6967,6967,6967,6839,6839,6839,6839,6919,6919,6919,6919,6919,6919,6839,6839,6839,6967,6967,6967,6967,6967,6967,6967,7095,7095,7095,7095,7095,7095,7095,7095,7063,7031,6999,6967,6967,6967,6967,6967,6967,6967,6967,6967,6967,6967,6967,
7095,7095,7095,7095,7095,7095,7095,7095,7095,7095,7095,6967,6967,6967,6967,6967,6967,6967,6967,6967,6967,6967,6967,6967,6967,6967,6967,6967,6967,6967,6967,6967,6967,6967,6967,6967,6967,6967,6967,6967,6967,6967,6967,6967,6967,6967,6967,6967,6967,6967,6967,6967,6967,6967,6967,6967,6967,6967,6967,6967,6967,6967,6967,6967,6967,6967,6967,6967,6967,6967,6967,6967,6967,6967,6967,6967,6967,6967,6967,6967,6967,6967,6967,6967,6967,6967,6839,6839,6839,6839,6839,6839,6919,6919,6919,6919,6919,6839,6839,6839,6967,6967,6967,6967,6967,6967,6967,7095,7095,7095,7095,7095,7095,7095,7095,7063,7031,6999,6967,6967,6967,6967,6967,6967,6967,6967,6967,6967,6967,6967,
7095,7095,7095,7095,7095,7095,7095,7095,7095,7095,6967,6967,6967,6967,6967,6967,6967,6967,6967,6967,6967,6967,6967,6967,6967,6967,6967,6967,6967,6967,6967,6967,6967,6967,6967,6967,6967,6967,6967,6967,6967,6967,6967,6967,6967,6967,6967,6967,6967,6967,6967,6967,6967,6967,6967,6967,6967,6967,6967,6967,6967,6967,6967,6967,6967,6967,6967,6967,6967,6967,6967,6967,6967,6967,6967,6967,6967,6967,6967,6967,6967,6967,6967,6967,6967,6967,6839,6839,6839,6839,6839,6839,6919,6919,6919,6919,6919,6839,6839,6839,6967,6967,6967,6967,6967,6967,6967,7095,7095,7095,7095,7095,7095,7095,7095,7063,7031,6999,6967,6967,6967,6967,6967,6967,6967,6967,6967,6967,6967,6967,
7095,7095,7095,7095,7095,7095,7095,7095,6967,6967,6967,6967,6967,6967,6967,6967,6967,6967,6967,6967,6967,6967,6967,6967,6967,6967,6967,6967,6967,6967,6967,6967,6967,6967,6967,6967,6967,6967,6967,6967,6967,6967,6967,6967,6967,6967,6967,6967,6967,6967,6967,6967,6967,6967,6967,6967,6967,6967,6967,6967,6967,6967,6967,6967,6967,6967,6967,6967,6967,6967,6967,6967,6967,6967,6967,6967,6967,6967,6967,6967,6967,6967,6967,6967,6967,6967,6839,6839,6839,6839,6839,6839,6839,6839,6839,6839,6839,6839,6839,6839,6967,6967,6967,6967,6967,6967,6967,7095,7095,7095,7095,7095,7095,7095,7095,7063,7031,6999,6967,6967,6967,6967,6967,6967,6967,6967,6967,6967,6967,6967,
7095,7095,7095,7095,7095,7095,6967,6967,6967,6967,6967,6967,6967,6967,6967,6967,6967,6967,6967,6967,6967,6967,6967,6967,6967,6967,6967,6967,6967,6967,6967,6967,6967,6967,6967,6967,6967,6967,6967,6967,6967,6967,6967,6967,6967,6967,6967,6967,6967,6967,6967,6967,6967,6967,6967,6967,6967,6967,6967,6967,6967,6967,6967,6967,6967,6967,6967,6967,6967,6967,6967,6967,6967,6967,6967,6967,6967,6967,6967,6967,6967,6967,6967,6967,6967,6967,6839,6839,6839,6839,6839,6839,6919,6919,6919,6919,6919,6839,6839,6839,6839,6839,6967,6967,6967,6967,6967,7095,7095,7095,7095,7095,7095,7095,7095,7063,7031,6999,6967,6967,6967,6967,6967,6967,6967,6967,6967,6967,6967,6967,
7095,7095,7095,7095,7095,6967,6967,6967,6967,6967,6967,6967,6967,6967,6967,6967,6967,6967,6967,6967,6967,6967,6967,6967,6967,6967,6967,6967,6967,6967,6967,6967,6967,6967,6967,6967,6967,6967,6967,6967,6967,6967,6967,6967,6967,6967,6967,6967,6967,6967,6967,6967,6967,6967,6967,6967,6967,6967,6967,6967,6967,6967,6967,6967,6967,6967,6967,6967,6967,6967,6967,6967,6967,6967,6967,6967,6967,6967,6967,6967,6967,6967,6967,6967,6967,6967,6839,6839,6839,6839,6839,6919,6919,6919,6919,6919,6919,6839,6839,6839,6839,6839,6839,6967,6967,6967,6967,7095,7095,7095,7095,7095,7095,7095,7095,7063,7031,6999,6967,6967,6967,6967,6967,6967,6967,6967,6967,6967,6967,6967,
7095,7095,7095,7095,7095,6967,6967,6967,6967,6967,6967,6967,6967,6967,6967,6967,6967,6967,6967,6967,6967,6967,6967,6967,6967,6967,6967,6967,6967,6967,6967,6967,6967,6967,6967,6967,6967,6967,6967,6967,6967,6967,6967,6967,6967,6967,6967,6967,6967,6967,6967,6967,6967,6967,6967,6967,6967,6967,6967,6967,6967,6967,6967,6967,6967,6967,6967,6967,6967,6967,6967,6967,6967,6967,6967,6967,6967,6967,6967,6967,6967,6967,6967,6967,6967,6967,6839,6839,6839,6839,6919,6919,6919,6919,6919,6919,6919,6839,6839,6839,6839,6839,6967,6967,6967,6967,6967,7095,7095,7095,7095,7095,7095,7095,7095,7063,7031,6999,6967,6967,6967,6967,6967,6967,6967,6967,6967,6967,6967,6967,
7095,7095,7095,7095,7095,6967,6967,6967,6967,6967,6967,6967,6967,6967,6967,6967,6967,6967,6967,6967,6967,6967,6967,6967,6967,6967,6967,6967,6967,6967,6967,6967,6967,6967,6967,6967,6967,6967,6967,6967,6967,6967,6967,6967,6967,6967,6967,6967,6967,6967,6967,6967,6967,6967,6967,6967,6967,6967,6967,6967,6967,6967,6967,6967,6967,6967,6967,6967,6967,6967,6967,6967,6967,6967,6967,6967,6967,6967,6967,6967,6967,6967,6967,6967,6967,6967,6839,6839,6839,6839,6919,6919,6919,6919,6919,6919,6919,6839,6839,6839,6839,6839,6967,6967,6967,6967,6967,6967,6967,6967,6967,6967,6967,6967,6967,6967,6967,6967,6967,6967,6967,6967,6967,6967,6967,6967,6967,6967,6967,6967,
7095,7095,7095,7095,7095,6967,6967,6967,6967,6967,6967,6967,6967,6967,6967,6967,6967,6967,6967,6967,6967,6967,6967,6967,6967,6967,6967,6967,6967,6967,6967,6967,6967,6967,6967,6967,6967,6967,6967,6967,6967,6967,6967,6967,6967,6967,6967,6967,6967,6967,6967,6967,6967,6967,6967,6967,6967,6967,6967,6967,6967,6967,6967,6967,6967,6967,6967,6967,6967,6967,6967,6967,6967,6967,6967,6967,6967,6967,6967,6967,6967,6967,6967,6967,6967,6967,6839,6839,6839,6919,6919,6919,6919,6919,6919,6919,6839,6839,6839,6839,6839,6967,6967,6967,6967,6967,6967,6967,6967,6967,6967,6967,6967,6967,6967,6967,6967,6967,6967,6967,6967,6967,6967,6967,6967,6967,6967,6967,6967,6967,
7095,7095,7095,7095,7095,6967,6967,6967,6967,6967,6967,6967,6967,6967,6967,6967,6967,6967,6967,6967,6967,6967,6967,6967,6967,6967,6967,6967,6967,6967,6967,6967,6967,6967,6967,6967,6967,6967,6967,6967,6967,6967,6967,6967,6967,6967,6967,6967,6967,6967,6967,6967,6967,6967,6967,6967,6967,6967,6967,6967,6967,6967,6967,6967,6967,6967,6967,6967,6967,6967,6967,6967,6967,6967,6967,6967,6967,6967,6967,6967,6967,6967,6967,6967,6839,6839,6839,6839,6839,6919,6919,6919,6919,6919,6919,6919,6839,6839,6839,6839,6839,6967,6967,6967,6967,6967,6967,6967,6967,6967,6967,6967,6967,6967,6967,6967,6967,6967,6967,6967,6967,6967,6967,6967,6967,6967,6967,6967,6967,6967,
7095,7095,7095,7095,7095,6967,6967,6967,6967,6967,6967,6967,6967,6967,6967,6967,6967,6967,6967,6967,6967,6967,6967,6967,6967,6967,6967,6967,6967,6967,6967,6967,6967,6967,6967,6967,6967,6967,6967,6967,6967,6967,6967,6967,6967,6967,6967,6967,6967,6967,6967,6967,6967,6967,6967,6967,6967,6967,6967,6967,6967,6967,6967,6967,6967,6967,6967,6967,6967,6967,6967,6967,6967,6967,6967,6967,6967,6967,6967,6967,6967,6967,6967,6967,6839,6839,6839,6839,6839,6919,6919,6919,6919,6919,6919,6839,6839,6839,6839,6839,6839,6967,6967,6967,6967,6967,6967,6967,6967,6967,6967,6967,6967,6967,6967,6967,6967,6967,6967,6967,6967,6967,6967,6967,6967,6967,6967,6967,6967,6967,
7095,7095,7095,7095,7095,6967,6967,6967,6967,6967,6967,6967,6967,6967,6967,6967,6967,6967,6967,6967,6967,6967,6967,6967,6967,6967,6967,6967,6967,6967,6967,6967,6967,6967,6967,6967,6967,6967,6967,6967,6967,6967,6967,6967,6967,6967,6967,6967,6967,6967,6967,6967,6967,6967,6967,6967,6967,6967,6967,6967,6967,6967,6967,6967,6967,6967,6967,6967,6967,6967,6967,6967,6967,6967,6967,6967,6967,6967,6967,6967,6967,6967,6967,6967,6839,6839,6839,6839,6839,6919,6919,6919,6919,6919,6919,6839,6839,6839,6839,6839,6839,6967,6967,6967,6967,6967,6967,6967,6967,6967,6967,6967,6967,6967,6967,6967,6967,6967,6967,6967,6967,6967,6967,6967,6967,6967,6967,6967,6967,6967,
7095,7095,7095,7095,7095,6967,6967,6967,6967,6967,6967,6967,6967,6967,6967,6967,6967,6967,6967,6967,6967,6967,6967,6967,6967,6967,6967,6967,6967,6967,6967,6967,6967,6967,6967,6967,6967,6967,6967,6967,6967,6967,6967,6967,6967,6967,6967,6967,6967,6967,6967,6967,6967,6967,6967,6967,6967,6967,6967,6967,6967,6967,6967,6967,6967,6967,6967,6967,6967,6967,6967,6967,6967,6967,6967,6967,6967,6967,6967,6967,6967,6967,6967,6967,6839,6839,6839,6839,6839,6919,6919,6919,6919,6919,6839,6839,6839,6839,6839,6839,6839,6967,6967,6967,6967,6967,6967,6967,6967,6967,6967,6967,6967,6967,6967,6967,6967,6967,6967,6967,6967,6967,6967,6967,6967,6967,6967,6967,6967,6967,
7095,7095,7095,7095,7095,6967,6967,6967,6967,6967,6967,6967,6967,6967,6967,6967,6967,6967,6967,6967,6967,6967,6967,6967,6967,6967,6967,6967,6967,6967,6967,6967,6967,6967,6967,6967,6967,6967,6967,6967,6967,6967,6967,6967,6967,6967,6967,6967,6967,6967,6967,6967,6967,6967,6967,6967,6967,6967,6967,6967,6967,6967,6967,6967,6967,6967,6967,6967,6967,6967,6967,6967,6967,6967,6967,6967,6967,6967,6967,6967,6967,6967,6967,6967,6839,6839,6839,6839,6839,6919,6919,6919,6919,6919,6839,6839,6839,6839,6839,6839,6839,6967,6967,6967,6967,6967,6967,6967,6967,6967,6967,6967,6967,6967,6967,6967,6967,6967,6967,6967,6967,6967,6967,6967,6967,6967,6967,6967,6967,6967,
7095,7095,7095,7095,7095,6967,6967,6967,6967,6967,6967,6967,6967,6967,6967,6967,6967,6967,6967,6967,6967,6967,6967,6967,6967,6967,6967,6967,6967,6967,6967,6967,6967,6967,6967,6967,6967,6967,6967,6967,6967,6967,6967,6967,6967,6967,6967,6967,6967,6967,6967,6967,6967,6967,6967,6967,6967,6967,6967,6967,6967,6967,6967,6967,6967,6967,6967,6967,6967,6967,6967,6967,6967,6967,6967,6967,6967,6967,6967,6967,6967,6967,6967,6967,6839,6839,6839,6839,6839,6919,6919,6919,6919,6919,6839,6839,6839,6839,6839,6839,6839,6839,6967,6967,6967,6967,6967,6967,6967,6967,6967,6967,6967,6967,6967,6967,6967,6967,6967,6967,6967,6967,6967,6967,6967,6967,6967,6967,6967,6967,
7095,7095,7095,7095,7095,6967,6967,6967,6967,6967,6967,6967,6967,6967,6967,6967,6967,6967,6967,6967,6967,6967,6967,6967,6967,6967,6967,6967,6967,6967,6967,6967,6967,6967,6967,6967,6967,6967,6967,6967,6967,6967,6967,6967,6967,6967,6967,6967,6967,6967,6967,6967,6967,6967,6967,6967,6967,6967,6967,6967,6967,6967,6967,6967,6967,6967,6967,6967,6967,6967,6967,6967,6967,6967,6967,6967,6967,6967,6967,6967,6967,6967,6967,6967,6839,6839,6839,6839,6839,6919,6919,6919,6919,6919,6839,6839,6839,6839,6839,6839,6839,6967,6967,6967,6967,6967,6967,6967,6967,6967,6967,6967,6967,6967,6967,6967,6967,6967,6967,6967,6967,6967,6967,6967,6967,6967,6967,6967,6967,6967,
7095,7095,7095,7095,7095,6967,6967,6967,6967,6967,6967,6967,6967,6967,6967,6967,6967,6967,6967,6967,6967,6967,6967,6967,6967,6967,6967,6967,6967,6967,6967,6967,6967,6967,6967,6967,6967,6967,6967,6967,6967,6967,6967,6967,6967,6967,6967,6967,6967,6967,6967,6967,6967,6967,6967,6967,6967,6967,6967,6967,6967,6967,6967,6967,6967,6967,6967,6967,6967,6967,6967,6967,6967,6967,6967,6967,6967,6967,6967,6967,6967,6967,6967,6967,6839,6839,6839,6839,6839,6919,6919,6919,6919,6919,6839,6839,6839,6839,6839,6839,6839,6967,6967,6967,6967,6967,6967,6967,6967,6967,6967,6967,6967,6967,6967,6967,6967,6967,6967,6967,6967,6967,6967,6967,6967,6967,6967,6967,6967,6967,
7095,7095,7095,7095,7095,6967,6967,6967,6967,6967,6967,6967,6967,6967,6967,6967,6967,6967,6967,6967,6967,6967,6967,6967,6967,6967,6967,6967,6967,6967,6967,6967,6967,6967,6967,6967,6967,6967,6967,6967,6967,6967,6967,6967,6967,6967,6967,6967,6967,6967,6967,6967,6967,6967,6967,6967,6967,6967,6967,6967,6967,6967,6967,6967,6967,6967,6967,6967,6967,6967,6967,6967,6967,6967,6967,6967,6967,6967,6967,6967,6967,6967,6967,6967,6839,6839,6839,6839,6839,6919,6919,6919,6919,6919,6839,6839,6839,6839,6839,6839,6839,6967,6967,6967,6967,6967,6967,6967,6967,6967,6967,6967,6967,6967,6967,6967,6967,6967,6967,6967,6967,6967,6967,6967,6967,6967,6967,6967,6967,6967,
7095,7095,7095,7095,7095,7095,7095,6967,6967,6967,6967,6967,6967,6967,6967,6967,6967,6967,6967,6967,6967,6967,6967,6967,6967,6967,6967,6967,6967,6967,6967,6967,6967,6967,6967,6967,6967,6967,6967,6967,6967,6967,6967,6967,6967,6967,6967,6967,6967,6967,6967,6967,6967,6967,6967,6967,6967,6967,6967,6967,6967,6967,6967,6967,6967,6967,6967,6967,6967,6967,6967,6967,6967,6967,6967,6967,6967,6967,6967,6967,6967,6967,6967,6967,6839,6839,6839,6839,6919,6919,6919,6919,6919,6919,6839,6839,6839,6839,6839,6839,6967,6967,6967,6967,6967,6967,6967,6967,6967,6967,6967,6967,6967,6967,6967,6967,6967,6967,6967,6967,6967,6967,6967,6967,6967,6967,6967,6967,6967,6967,
7095,7095,7095,7095,7095,7095,7095,6967,6967,6967,6967,6967,6967,6967,6967,6967,6967,6967,6967,6967,6967,6967,6967,6967,6967,6967,6967,6967,6967,6967,6967,6967,6967,6967,6967,6967,6967,6967,6967,6967,6967,6967,6967,6967,6967,6967,6967,6967,6967,6967,6967,6967,6967,6967,6967,6967,6967,6967,6967,6967,6967,6967,6967,6967,6967,6967,6967,6967,6967,6967,6967,6967,6967,6967,6967,6967,6967,6967,6967,6967,6967,6967,6967,6967,6839,6839,6839,6919,6919,6919,6919,6919,6919,6919,6839,6839,6839,6839,6839,6839,6967,6967,6967,6967,6967,6967,6967,6967,6967,6967,6967,6967,6967,6967,6967,6967,6967,6967,6967,6967,6967,6967,6967,6967,6967,6967,6967,6967,6967,6967,
7095,7095,7095,7095,7095,7095,7095,6967,6967,6967,6967,6967,6967,6967,6967,6967,6967,6967,6967,6967,6967,6967,6967,6967,6967,6967,6967,6967,6967,6967,6967,6967,6967,6967,6967,6967,6967,6967,6967,6967,6967,6967,6967,6967,6967,6967,6967,6967,6967,6967,6967,6967,6967,6967,6967,6967,6967,6967,6967,6967,6967,6967,6967,6967,6967,6967,6967,6967,6967,6967,6967,6967,6967,6967,6967,6967,6967,6967,6967,6967,6967,6967,6967,6967,6839,6839,6839,6919,6919,6919,6919,6919,6919,6919,6839,6839,6839,6839,6839,6839,6967,6967,6967,6967,6967,6967,6967,6967,6967,6967,6967,6967,6967,6967,6967,6967,6967,6967,6967,6967,6967,6967,6967,6967,6967,6967,6967,6967,6967,6967,
7095,7095,7095,7095,7095,7095,7095,7095,7095,6967,6967,6967,6967,6967,6967,6967,6967,6967,6967,6967,6967,6967,6967,6967,6967,6967,6967,6967,6967,6967,6967,6967,6967,6967,6967,6967,6967,6967,6967,6967,6967,6967,6967,6967,6967,6967,6967,6967,6967,6967,6967,6967,6967,6967,6967,6967,6967,6967,6967,6967,6967,6967,6967,6967,6967,6967,6967,6967,6967,6967,6967,6967,6967,6967,6935,6935,6967,6967,6967,6967,6967,6967,6967,6967,6839,6839,6839,6919,6919,6919,6919,6919,6919,6839,6839,6839,6839,6839,6839,6839,6967,6967,6967,6967,6967,6967,6967,6967,6967,6967,6967,6967,6967,6967,6967,6967,6967,6967,6967,6967,6967,6967,6967,6967,6967,6967,6967,6967,6967,6967,
7095,7095,7095,7095,7095,7095,7095,7095,7095,6967,6967,6967,6967,6967,6967,6967,6967,6967,6967,6967,6967,6967,6967,6967,6967,6967,6967,6967,6967,6967,6967,6967,6967,6967,6967,6967,6967,6967,6967,6967,6967,6967,6967,6967,6967,6967,6967,6967,6967,6967,6967,6967,6967,6967,6967,6967,6967,6967,6967,6967,6967,6967,6967,6967,6967,6967,6967,6967,6967,6967,6967,6967,6967,6967,6903,6903,6967,6967,6967,6967,6967,6967,6967,6967,6839,6839,6919,6919,6919,6919,6919,6919,6919,6839,6839,6839,6839,6839,6839,6839,6967,6967,6967,6967,6967,6967,6967,6967,6967,6967,6967,6967,6967,6967,6967,6967,6967,6967,6967,6967,6967,6967,6967,6967,6967,6967,6967,6967,6967,6967,
7095,7095,7095,7095,7095,7095,7095,7095,7095,7095,6967,6967,6967,6967,6967,6967,6967,6967,6967,6967,6967,6967,6967,6967,6967,6967,6967,6967,6967,6967,6967,6967,6967,6967,6967,6967,6967,6967,6967,6967,6967,6967,6967,6967,6967,6967,6967,6967,6967,6967,6967,6967,6967,6967,6967,6967,6967,6967,6967,6967,6967,6967,6967,6967,6967,6967,6967,6967,6967,6967,6967,6967,6967,6967,6871,6871,6967,6967,6967,6967,6967,6967,6839,6839,6839,6919,6919,6919,6919,6919,6919,6919,6919,6839,6839,6839,6839,6839,6839,6839,6967,6967,6967,6967,6967,6967,6967,6967,6967,6967,6967,6967,6967,6967,6967,6967,6967,6967,6967,6967,6967,6967,6967,6967,6967,6967,6967,6967,6967,6967,
7095,7095,7095,7095,7095,7095,7095,7095,7095,7095,7095,6967,6967,6967,6967,6967,6967,6967,6967,6967,6967,6967,6967,6967,6967,6967,6967,6967,6967,6967,6967,6967,6967,6967,6967,6967,6967,6967,6967,6967,6967,6967,6967,6967,6967,6967,6967,6967,6967,6967,6967,6967,6967,6967,6967,6967,6967,6967,6967,6967,6967,6967,6967,6967,6967,6967,6967,6967,6967,6967,6967,6967,6967,6967,6839,6839,6967,6967,6967,6967,6839,6839,6839,6919,6919,6919,6919,6919,6919,6919,6919,6919,6919,6839,6839,6839,6839,6839,6839,6839,6967,6967,6967,6967,6967,6967,6967,6967,6967,6967,6967,6967,6967,6967,6967,6967,6967,6967,6967,6967,6967,6967,6967,6967,6967,6967,6967,6967,6967,6967,
7095,7095,7095,7095,7095,7095,7095,7095,7095,7095,7095,6967,6967,6967,6967,6967,6967,6967,6967,6967,6967,6967,6967,6967,6967,6967,6967,6967,6967,6967,6967,6967,6967,6967,6967,6967,6967,6967,6967,6967,6967,6967,6967,6967,6967,6967,6967,6967,6967,6967,6967,6967,6967,6967,6967,6967,6967,6967,6967,6967,6967,6967,6967,6967,6967,6967,6967,6967,6967,6967,6967,6967,6967,6967,6839,6839,6967,6967,6839,6839,6839,6919,6919,6919,6919,6919,6919,6919,6919,6919,6919,6919,6919,6839,6839,6839,6839,6839,6839,6839,6967,6967,6967,6967,6967,6967,6967,6967,6967,6967,6967,6967,6967,6967,6967,6967,6967,6967,6967,6967,6967,6967,6967,6967,6967,6967,6967,6967,6967,6967,
7095,7095,7095,7095,7095,7095,7095,7095,7095,7095,7095,6967,6967,6967,6967,6967,6967,6967,6967,6967,6967,6967,6967,6967,6967,6967,6967,6967,6967,6967,6967,6967,6967,6967,6967,6967,6967,6967,6967,6967,6967,6967,6967,6967,6967,6967,6967,6967,6967,6967,6967,6967,6967,6967,6967,6967,6967,6967,6967,6967,6967,6967,6967,6967,6967,6967,6967,6967,6967,6967,6967,6967,6839,6839,6839,6839,6839,6839,6839,6919,6919,6919,6919,6919,6919,6919,6919,6919,6919,6919,6919,6919,6839,6839,6839,6839,6839,6839,6839,6839,6967,6967,6967,6967,6967,6967,6935,6935,6967,6967,6967,6967,6967,6967,6967,6967,6967,6967,6967,6967,6967,6967,6967,6967,6967,6839,6839,6839,6839,6839,
7095,7095,7095,7095,7095,7095,7095,7095,7095,7095,7095,6967,6967,6967,6967,6967,6967,6967,6967,6967,6967,6967,6967,6967,6967,6967,6967,6967,6967,6967,6967,6967,6967,6967,6967,6967,6967,6967,6967,6967,6967,6967,6967,6967,6967,6967,6967,6967,6967,6967,6967,6967,6967,6967,6967,6967,6967,6967,6967,6967,6967,6967,6967,6967,6967,6967,6967,6967,6967,6967,6967,6839,6839,6839,6839,6839,6839,6839,6919,6919,6919,6919,6919,6919,6919,6919,6919,6919,6919,6919,6919,6839,6839,6839,6839,6839,6839,6839,6839,6839,6967,6967,6967,6967,6967,6967,6903,6903,6967,6967,6967,6967,6967,6967,6967,6967,6967,6967,6967,6967,6967,6967,6967,6967,6967,6839,6839,6839,6839,6839,
7095,7095,7095,7095,7095,7095,7095,7095,7095,7095,7095,6967,6967,6967,6967,6967,6967,6967,6967,6967,6967,6967,6967,6967,6967,6967,6967,6967,6967,6967,6967,6967,6967,6967,6967,6967,6967,6967,6967,6967,6967,6967,6967,6967,6967,6967,6967,6967,6967,6967,6967,6967,6967,6967,6967,6967,6967,6967,6967,6967,6967,6967,6967,6967,6967,6967,6967,6967,6967,6967,6839,6839,6839,6839,6839,6839,6839,6919,6919,6919,6919,6919,6919,6919,6919,6919,6919,6919,6919,6919,6839,6839,6839,6839,6839,6839,6839,6839,6839,6839,6967,6967,6967,6967,6967,6967,6871,6871,6967,6967,6967,6967,6967,6967,6967,6967,6967,6967,6967,6967,6967,6967,6967,6967,6967,6839,6839,6839,6839,6839,
7095,7095,7095,7095,7095,7095,7095,7095,7095,7095,7095,6967,6967,6967,6967,6967,6967,6967,6967,6967,6967,6967,6967,6967,6967,6967,6967,6967,6967,6967,6967,6967,6967,6967,6967,6967,6967,6967,6967,6967,6967,6967,6967,6967,6967,6967,6967,6967,6967,6967,6967,6967,6967,6967,6967,6967,6967,6967,6967,6967,6967,6967,6967,6967,6967,6967,6967,6839,6839,6839,6839,6919,6919,6919,6919,6919,6919,6919,6919,6919,6919,6919,6919,6919,6919,6919,6919,6919,6919,6839,6839,6839,6839,6839,6839,6839,6839,6839,6839,6839,6967,6967,6967,6967,6967,6967,6839,6839,6967,6967,6967,6967,6967,6967,6967,6967,6967,6967,6967,6967,6967,6967,6967,6967,6967,6839,6839,6839,6839,6839,
7095,7095,7095,7095,7095,7095,7095,7095,7095,7095,7095,7095,7095,7095,7095,6967,6967,6967,6967,6967,6967,6967,6967,6967,6967,6967,6967,6967,6967,6967,6967,6967,6967,6967,6967,6967,6967,6967,6967,6967,6967,6967,6967,6967,6967,6967,6967,6967,6967,6967,6967,6967,6967,6967,6967,6967,6967,6967,6967,6967,6967,6967,6967,6967,6967,6967,6967,6839,6839,6919,6919,6919,6919,6919,6919,6919,6919,6919,6919,6919,6919,6919,6919,6919,6919,6919,6919,6839,6839,6839,6839,6839,6839,6839,6839,6839,6839,6839,6839,6839,6839,6839,6967,6967,6967,6967,6839,6839,6967,6967,6967,6967,6967,6967,6967,6967,6967,6967,6967,6967,6967,6967,6967,6967,6967,6839,6839,6839,6839,6839,
7095,7095,7095,7095,7095,7095,7095,7095,7095,7095,7095,7095,7095,7095,7095,7095,6967,6967,6967,6967,6967,6967,6967,6967,6967,6967,6967,6967,6967,6967,6967,6967,6967,6967,6967,6967,6967,6967,6967,6967,6967,6967,6967,6967,6967,6967,6967,6967,6967,6967,6967,6967,6967,6967,6967,6967,6967,6967,6967,6967,6967,6967,6967,6967,6967,6967,6967,6839,6919,6919,6919,6919,6919,6919,6919,6919,6919,6919,6919,6919,6919,6919,6919,6919,6919,6839,6839,6839,6839,6839,6839,6839,6839,6839,6839,6839,6839,6839,6839,6839,6839,6839,6839,6839,6839,6839,6839,6839,6839,6839,6839,6839,6839,6839,6839,6839,6839,6839,6839,6839,6839,6839,6839,6839,6839,6839,6839,6839,6839,6839,
7095,7095,7095,7095,7095,7095,7095,7095,7095,7095,7095,7095,7095,7095,7095,7095,7095,7095,7095,7095,6935,6935,6967,6967,6967,6967,6967,6967,6967,6967,6967,6967,6967,6967,6967,6967,6967,6967,6967,6967,6967,6967,6967,6967,6967,6967,6967,6967,6967,6967,6967,6967,6967,6967,6967,6967,6967,6967,6967,6967,6967,6967,6967,6967,6967,6967,6967,6839,6919,6919,6919,6919,6919,6919,6919,6919,6919,6919,6919,6919,6919,6919,6919,6839,6839,6839,6839,6839,6839,6839,6839,6839,6839,6839,6839,6839,6839,6839,6839,6839,6839,6839,6839,6839,6839,6839,6839,6839,6839,6839,6839,6839,6839,6839,6839,6839,6839,6839,6839,6839,6839,6839,6839,6839,6839,6839,6839,6839,6839,6839,
7095,7095,7095,7095,7095,7095,7095,7095,7095,7095,7095,7095,7095,7095,7095,7095,7095,7095,7095,7095,6903,6903,6967,6967,6967,6967,6967,6967,6967,6967,6967,6967,6967,6967,6967,6967,6967,6967,6967,6967,6967,6967,6967,6967,6967,6967,6967,6967,6935,6935,6967,6967,6967,6967,6967,6967,6967,6967,6967,6967,6967,6967,6967,6967,6967,6967,6967,6839,6919,6919,6919,6919,6919,6919,6919,6919,6919,6919,6919,6919,6919,6839,6839,6839,6839,6839,6839,6839,6839,6839,6839,6839,6839,6839,6839,6839,6839,6839,6839,6839,6839,6839,6839,6839,6839,6839,6839,6839,6839,6839,6839,6839,6839,6839,6839,6839,6839,6839,6839,6839,6839,6839,6839,6839,6839,6839,6839,6839,6839,6839,
7095,7095,7095,7095,7095,7095,7095,7095,7095,7095,7095,7095,7095,7095,7095,7095,7095,7095,7095,7095,6871,6871,6967,6967,6967,6967,6967,6967,6967,6967,6967,6967,6967,6967,6967,6967,6967,6967,6967,6967,6967,6967,6967,6967,6967,6967,6967,6967,6903,6903,6967,6967,6967,6967,6967,6967,6967,6967,6967,6967,6967,6967,6967,6967,6967,6967,6967,6839,6919,6919,6919,6919,6919,6919,6919,6919,6839,6839,6839,6839,6839,6839,6839,6839,6839,6839,6839,6839,6839,6839,6839,6839,6839,6839,6839,6839,6839,6839,6839,6839,6839,6839,6839,6839,6839,6839,6839,6839,6839,6839,6839,6839,6839,6839,6839,6839,6839,6839,6839,6839,6839,6839,6839,6839,6839,6839,6839,6839,6839,6839,
7095,7095,7095,7095,7095,7095,7095,7095,7095,7095,7095,7095,7095,7095,7095,7095,7095,7095,7095,7095,6839,6839,6967,6967,6967,6967,6967,6967,6967,6967,6967,6967,6967,6967,6967,6967,6967,6967,6967,6967,6967,6967,6967,6967,6967,6967,6967,6967,6871,6871,6967,6967,6967,6967,6967,6967,6967,6967,6967,6967,6967,6967,6967,6967,6967,6967,6967,6839,6919,6919,6919,6919,6919,6919,6919,6839,6839,6839,6839,6839,6839,6839,6839,6839,6839,6839,6839,6839,6839,6839,6839,6839,6839,6839,6839,6839,6839,6839,6839,6839,6839,6839,6839,6839,6839,6839,6839,6839,6839,6839,6839,6839,6839,6839,6839,6839,6839,6839,6839,6839,6839,6839,6839,6839,6839,6839,6839,6839,6839,6839,
7095,7095,7095,7095,7095,7095,7095,7095,7095,7095,7095,7095,7095,7095,7095,7095,7095,7095,7095,7095,6839,6839,6967,6967,6967,6967,6967,6967,6967,6967,6967,6967,6967,6967,6967,6967,6967,6967,6967,6967,6967,6967,6967,6967,6967,6967,6967,6967,6839,6839,6967,6967,6967,6967,6967,6967,6967,6967,6967,6967,6967,6967,6967,6967,6967,6967,6967,6839,6919,6919,6919,6919,6919,6919,6919,6839,6839,6839,6839,6839,6839,6839,6839,6839,6839,6839,6839,6839,6839,6839,6839,6839,6839,6839,6839,6839,6839,6839,6839,6839,6839,6839,6839,6839,6839,6839,6839,6839,6839,6839,6839,6839,6839,6839,6839,6839,6839,6839,6839,6839,6839,6839,6839,6839,6839,6839,6839,6839,6839,6839,
7095,7095,7095,7095,7095,7095,7095,7095,7095,7095,7095,7095,7095,7095,7095,7095,7095,7095,7095,7095,6839,6839,6967,6967,6967,6967,6967,6967,6967,6967,6967,6967,6967,6967,6967,6967,6967,6967,6967,6967,6967,6967,6967,6967,6967,6967,6967,6967,6839,6839,6967,6967,6967,6967,6967,6967,6967,6967,6967,6967,6967,6967,6967,6967,6967,6967,6967,6839,6919,6919,6919,6919,6919,6919,6919,6839,6839,6839,6839,6839,6839,6839,6839,6839,6839,6839,6839,6839,6839,6839,6839,6839,6839,6839,6839,6839,6839,6839,6839,6839,6839,6839,6839,6839,6839,6839,6839,6839,6839,6839,6839,6839,6839,6839,6839,6839,6839,6839,6839,6839,6839,6839,6839,6839,6839,6839,6839,6839,6839,6839,
7095,7095,7095,7095,7095,7095,7095,7095,7095,7095,7095,7095,7095,7095,7095,7095,7095,7095,7095,6839,6839,6839,6839,6839,6839,6839,6839,6839,6839,6839,6839,6839,6839,6839,6839,6967,6967,6967,6967,6967,6967,6967,6967,6839,6839,6839,6839,6839,6839,6839,6839,6967,6967,6967,6967,6967,6967,6967,6967,6967,6967,6967,6967,6967,6967,6967,6967,6839,6919,6919,6919,6919,6919,6919,6919,6919,6839,6839,6839,6839,6839,6839,6839,6839,6839,6839,6839,6839,6839,6839,6839,6839,6839,6839,6839,6839,6839,6839,6839,6839,6839,6839,6839,6839,6839,6839,6839,6839,6839,6839,6839,6839,6839,6839,6839,6839,6839,6839,6839,6839,6839,6839,6839,6839,6839,6839,6839,6839,6839,6839,
7095,7095,7095,7095,7095,7095,7095,7095,7095,7095,7095,7095,7095,7095,7095,7095,7095,7095,6839,6839,6839,6839,6839,6839,6839,6839,6839,6839,6839,6839,6839,6839,6839,6839,6839,6839,6839,6839,6839,6839,6839,6839,6839,6839,6839,6839,6839,6839,6839,6839,6839,6967,6967,6967,6967,6967,6967,6967,6967,6967,6967,6967,6967,6967,6967,6967,6967,6839,6919,6919,6919,6919,6919,6919,6919,6919,6919,6839,6839,6839,6839,6839,6839,6839,6839,6839,6839,6839,6839,6839,6839,6839,6839,6839,6839,6839,6839,6839,6839,6839,6839,6839,6839,6839,6839,6839,6839,6839,6839,6839,6839,6839,6839,6839,6839,6839,6839,6839,6839,6839,6839,6839,6839,6839,6839,6839,6839,6839,6839,6839,
7095,7095,7095,7095,7095,7095,7095,7095,7095,7095,7095,7095,7095,7095,7095,7095,6839,6839,6839,6839,6839,6839,6839,6839,6839,6839,6839,6839,6839,6839,6839,6839,6839,6839,6839,6839,6839,6839,6839,6839,6839,6839,6839,6839,6839,6839,6839,6839,6839,6839,6839,6967,6967,6967,6967,6967,6967,6967,6967,6967,6967,6967,6967,6967,6967,6967,6967,6839,6839,6919,6919,6919,6919,6919,6919,6919,6919,6919,6839,6839,6839,6839,6839,6839,6839,6839,6839,6839,6839,6839,6839,6839,6839,6839,6839,6839,6839,6839,6839,6839,6839,6839,6839,6839,6839,6839,6839,6839,6839,6839,6839,6839,6839,6839,6839,6839,6839,6839,6839,6839,6839,6839,6839,6839,6839,6839,6839,6839,6839,6839,
7095,7095,7095,7095,7095,7095,7095,7095,7095,7095,7095,7095,6839,6839,6839,6839,6839,6839,6839,6839,6839,6839,6839,6839,6839,6839,6839,6839,6839,6839,6839,6839,6839,6839,6839,6839,6839,6839,6839,6839,6839,6839,6839,6839,6839,6839,6839,6839,6839,6839,6839,6967,6967,6967,6967,6967,6839,6839,6839,6967,6967,6967,6967,6967,6967,6967,6967,6839,6839,6839,6919,6919,6919,6919,6919,6919,6919,6919,6839,6839,6839,6839,6839,6839,6839,6839,6839,6839,6839,6839,6839,6839,6839,6839,6839,6839,6839,6839,6839,6839,6839,6839,6839,6839,6839,6839,6839,6839,6839,6839,6839,6839,6839,6839,6839,6839,6839,6839,6839,6839,6839,6839,6839,6839,6839,6839,6839,6839,6839,6839,
7095,7095,7095,7095,7095,7095,7095,7095,7095,7095,7095,6839,6839,6839,6839,6839,6839,6839,6839,6839,6839,6839,6839,6839,6839,6839,6839,6839,6839,6839,6839,6839,6839,6839,6839,6839,6839,6839,6839,6839,6839,6839,6839,6839,6839,6839,6839,6839,6839,6839,6839,6967,6967,6967,6967,6967,6839,6839,6839,6839,6967,6967,6967,6967,6967,6967,6967,6839,6839,6839,6919,6919,6919,6919,6919,6919,6919,6919,6839,6839,6839,6839,6839,6839,6839,6839,6839,6839,6839,6839,6839,6839,6839,6839,6839,6839,6839,6839,6839,6839,6839,6839,6839,6839,6839,6839,6839,6839,6839,6839,6839,6839,6839,6839,6839,6839,6839,6839,6839,6839,6839,6839,6839,6839,6839,6839,6839,6839,6839,6839,
6839,6839,6839,6839,6839,6839,6839,6839,6839,6839,6839,6839,6839,6839,6839,6839,6839,6839,6839,6839,6839,6839,6839,6839,6839,6839,6839,6839,6839,6839,6839,6839,6839,6839,6839,6839,6839,6839,6839,6839,6839,6839,6839,6839,6839,6839,6839,6839,6839,6839,6839,6839,6839,6839,6839,6839,6839,6839,6839,6839,6839,6839,6839,6839,6839,6839,6839,6839,6839,6839,6839,6839,6839,6839,6839,6839,6839,6839,6839,6839,6839,6839,6839,6839,6839,6839,6839,6839,6839,6839,6839,6839,6839,6839,6839,6839,6839,6839,6839,6839,6839,6839,6839,6839,6839,6839,6839,6839,6839,6839,6839,6839,6839,6839,6839,6839,6839,6839,6839,6839,6839,6839,6839,6839,6839,6839,6839,6839,6839,6839,
6839,6839,6839,6839,6839,6839,6839,6839,6839,6839,6839,6839,6839,6839,6839,6839,6839,6839,6839,6839,6839,6839,6839,6839,6839,6839,6839,6839,6839,6839,6839,6839,6839,6839,6839,6839,6839,6839,6839,6839,6839,6839,6839,6839,6839,6839,6839,6839,6839,6839,6839,6839,6839,6839,6839,6839,6839,6839,6839,6839,6839,6839,6839,6839,6839,6839,6839,6839,6839,6839,6839,6839,6839,6839,6839,6839,6839,6839,6839,6839,6839,6839,6839,6839,6839,6839,6839,6839,6839,6839,6839,6839,6839,6839,6839,6839,6839,6839,6839,6839,6839,6839,6839,6839,6839,6839,6839,6839,6839,6839,6839,6839,6839,6839,6839,6839,6839,6839,6839,6839,6839,6839,6839,6839,6839,6839,6839,6839,6839,6839,
6839,6839,6839,6839,6839,6839,6839,6839,6839,6839,6839,6839,6839,6839,6839,6839,6839,6839,6839,6839,6839,6839,6839,6839,6839,6839,6839,6839,6839,6839,6839,6839,6839,6839,6839,6839,6839,6839,6839,6839,6839,6839,6839,6839,6839,6839,6839,6839,6839,6839,6839,6839,6839,6839,6839,6839,6839,6839,6839,6839,6839,6839,6839,6839,6839,6839,6839,6839,6839,6839,6919,6919,6919,6919,6919,6919,6919,6919,6839,6839,6839,6839,6839,6839,6839,6839,6839,6839,6839,6839,6839,6839,6839,6839,6839,6839,6839,6839,6839,6839,6839,6839,6839,6839,6839,6839,6839,6839,6839,6839,6839,6839,6839,6839,6839,6839,6839,6839,6839,6839,6839,6839,6839,6839,6839,6839,6839,6839,6839,6839,
6839,6839,6839,6839,6839,6839,6839,6839,6839,6839,6839,6839,6839,6839,6839,6839,6839,6839,6839,6839,6839,6839,6839,6839,6839,6839,6839,6839,6839,6839,6839,6839,6839,6839,6839,6839,6839,6839,6839,6839,6839,6839,6839,6839,6839,6839,6839,6839,6839,6839,6839,6839,6839,6839,6839,6839,6839,6839,6839,6839,6839,6839,6839,6839,6839,6839,6839,6839,6839,6839,6919,6919,6919,6919,6919,6919,6919,6919,6839,6839,6839,6839,6839,6839,6839,6839,6839,6839,6839,6839,6839,6839,6839,6839,6839,6839,6839,6839,6839,6839,6839,6839,6839,6839,6839,6839,6839,6839,6839,6839,6839,6839,6839,6839,6839,6839,6839,6839,6839,6839,6839,6839,6839,6839,6839,6839,6839,6839,6839,6839,
6839,6839,6839,6839,6839,6839,6839,6839,6839,6839,6839,6839,6839,6839,6839,6839,6839,6839,6839,6839,6839,6839,6839,6839,6839,6839,6839,6839,6839,6839,6839,6839,6839,6839,6839,6839,6839,6839,6839,6839,6839,6839,6839,6839,6839,6839,6839,6839,6839,6839,6839,6839,6839,6839,6839,6839,6839,6839,6839,6839,6839,6839,6839,6839,6839,6839,6839,6839,6839,6839,6919,6919,6919,6919,6919,6919,6919,6919,6839,6839,6839,6839,6839,6839,6839,6839,6839,6839,6839,6839,6839,6839,6839,6839,6839,6839,6839,6839,6839,6839,6839,6839,6839,6839,6839,6839,6839,6839,6839,6839,6839,6839,6839,6839,6839,6839,6839,6839,6839,6839,6839,6839,6839,6839,6839,6839,6839,6839,6839,6839,
6967,6967,6839,6839,6839,6839,6839,6839,6839,6839,6839,6839,6839,6839,6839,6839,6839,6839,6839,6839,6839,6839,6839,6839,6839,6839,6839,6839,6839,6839,6839,6839,6839,6839,6839,6839,6839,6839,6839,6839,6839,6839,6839,6839,6839,6839,6839,6839,6839,6839,6839,6839,6839,6839,6839,6839,6839,6839,6839,6839,6839,6839,6839,6839,6839,6839,6839,6839,6839,6839,6919,6919,6919,6919,6919,6919,6919,6919,6919,6839,6839,6839,6839,6839,6839,6839,6839,6839,6839,6839,6839,6839,6839,6839,6839,6839,6839,6839,6839,6839,6839,6839,6839,6839,6839,6839,6839,6839,6839,6839,6839,6839,6839,6839,6839,6839,6839,6839,6839,6839,6839,6839,6839,6839,6839,6839,6839,6839,6839,6839,
6967,6967,6839,6839,6839,6839,6839,6839,6839,6839,6839,6839,6839,6839,6839,6839,6839,6839,6839,6839,6839,6839,6839,6839,6839,6839,6839,6839,6839,6839,6839,6839,6839,6839,6839,6839,6839,6839,6839,6839,6839,6839,6839,6839,6839,6839,6839,6839,6839,6839,6839,6839,6839,6839,6839,6839,6839,6839,6839,6839,6839,6839,6839,6839,6839,6839,6839,6839,6839,6839,6919,6919,6919,6919,6919,6919,6919,6919,6919,6919,6919,6919,6919,6839,6839,6839,6839,6839,6839,6839,6839,6839,6839,6839,6839,6839,6839,6839,6839,6839,6839,6839,6839,6839,6839,6839,6839,6839,6839,6839,6839,6839,6839,6839,6839,6839,6839,6839,6839,6839,6839,6839,6839,6839,6839,6839,6839,6839,6839,6839,
6967,6967,6839,6839,6839,6839,6839,6839,6839,6839,6839,6839,6839,6839,6839,6839,6839,6839,6839,6839,6839,6839,6839,6839,6839,6839,6839,6839,6839,6839,6839,6839,6839,6839,6839,6839,6839,6839,6839,6839,6839,6839,6839,6839,6839,6839,6839,6839,6839,6839,6839,6839,6839,6839,6839,6839,6839,6839,6839,6839,6839,6839,6839,6839,6839,6839,6839,6839,6839,6839,6919,6919,6919,6919,6919,6919,6919,6919,6919,6919,6919,6919,6919,6919,6839,6839,6839,6839,6839,6839,6839,6839,6839,6839,6839,6839,6839,6839,6839,6839,6839,6839,6839,6839,6839,6839,6839,6839,6839,6839,6839,6839,6839,6839,6839,6839,6839,6839,6839,6839,6839,6839,6839,6839,6839,6839,6839,6839,6839,6839,
6967,6967,6839,6839,6839,6839,6839,6839,6839,6839,6839,6839,6839,6839,6839,6839,6839,6839,6839,6839,6839,6839,6839,6839,6839,6839,6839,6839,6839,6839,6839,6839,6839,6839,6839,6839,6839,6839,6839,6839,6839,6839,6839,6839,6839,6839,6839,6839,6839,6839,6839,6839,6839,6839,6839,6839,6839,6839,6839,6839,6839,6839,6839,6839,6839,6839,6839,6839,6839,6839,6839,6919,6919,6919,6919,6919,6919,6919,6919,6919,6919,6919,6919,6919,6919,6839,6839,6839,6839,6839,6839,6839,6839,6839,6839,6839,6839,6839,6839,6839,6839,6839,6839,6839,6839,6839,6839,6839,6839,6839,6839,6839,6839,6839,6839,6839,6839,6839,6839,6839,6839,6839,6839,6839,6839,6839,6839,6839,6839,6839,
6967,6967,6839,6839,6839,6839,6839,6839,6839,6839,6839,6839,6839,6839,6839,6839,6839,6839,6839,6839,6839,6839,6839,6839,6839,6839,6839,6839,6839,6839,6839,6839,6839,6839,6839,6839,6839,6839,6839,6839,6839,6839,6839,6839,6839,6839,6839,6839,6839,6839,6839,6839,6839,6839,6839,6839,6839,6839,6839,6839,6839,6839,6839,6839,6839,6839,6839,6839,6839,6839,6839,6839,6919,6919,6919,6919,6919,6919,6919,6919,6919,6919,6919,6919,6919,6919,6839,6839,6839,6839,6839,6839,6839,6839,6839,6839,6839,6839,6839,6839,6839,6839,6839,6839,6839,6839,6839,6839,6839,6839,6839,6839,6839,6839,6839,6839,6839,6839,6839,6839,6839,6839,6839,6839,6839,6839,6839,6839,6839,6839,
6967,6967,6839,6839,6839,6839,6839,6839,6839,6839,6839,6839,6839,6839,6839,6839,6839,6839,6839,6839,6839,6839,6839,6839,6839,6839,6839,6839,6839,6839,6839,6839,6839,6839,6839,6839,6839,6839,6839,6839,6839,6839,6839,6839,6839,6839,6839,6839,6839,6839,6839,6839,6839,6839,6839,6839,6839,6839,6839,6839,6839,6839,6839,6839,6839,6839,6839,6839,6839,6839,6839,6839,6839,6919,6919,6919,6919,6919,6919,6919,6919,6919,6919,6919,6919,6919,6839,6839,6839,6839,6839,6839,6839,6839,6839,6839,6839,6839,6839,6839,6839,6839,6839,6839,6839,6839,6839,6839,6839,6839,6839,6839,6839,6839,6839,6839,6839,6839,6839,6839,6839,6839,6839,6839,6839,6839,6839,6839,6839,6839,
6967,6967,6839,6839,6839,6839,6839,6839,6839,6839,6839,6839,6839,6839,6839,6839,6839,6839,6839,6839,6839,6839,6839,6839,6839,6839,6839,6839,6839,6839,6839,6839,6839,6839,6839,6839,6839,6839,6839,6839,6839,6839,6839,6839,6839,6839,6839,6839,6839,6839,6839,6839,6839,6839,6839,6839,6839,6839,6839,6839,6839,6839,6839,6839,6839,6839,6839,6839,6839,6839,6839,6839,6839,6839,6839,6839,6839,6919,6919,6919,6919,6919,6919,6919,6919,6919,6839,6839,6839,6839,6839,6839,6839,6839,6839,6839,6839,6839,6839,6839,6839,6839,6839,6839,6839,6839,6839,6839,6839,6839,6839,6839,6839,6839,6839,6839,6839,6839,6839,6839,6839,6839,6839,6839,6839,6839,6839,6839,6839,6839,
6967,6967,6839,6839,6839,6839,6839,6839,6839,6839,6839,6839,6839,6839,6839,6839,6839,6839,6839,6839,6839,6839,6839,6839,6839,6839,6839,6839,6839,6839,6839,6839,6839,6839,6839,6839,6839,6839,6839,6839,6839,6839,6839,6839,6839,6839,6839,6839,6839,6839,6839,6839,6839,6839,6839,6839,6839,6839,6839,6839,6839,6839,6839,6839,6839,6839,6839,6839,6839,6839,6839,6839,6839,6839,6839,6839,6839,6839,6919,6919,6919,6919,6919,6919,6919,6919,6839,6839,6839,6839,6839,6839,6839,6839,6839,6839,6839,6839,6839,6839,6839,6839,6839,6839,6839,6839,6839,6839,6839,6839,6839,6839,6839,6839,6839,6839,6839,6839,6839,6839,6839,6839,6839,6839,6839,6839,6839,6839,6839,6839,
6967,6967,6839,6839,6839,6839,6839,6839,6839,6839,6839,6839,6839,6839,6839,6839,6839,6839,6839,6839,6839,6839,6839,6839,6839,6839,6839,6839,6839,6839,6839,6839,6839,6839,6839,6839,6839,6839,6839,6839,6839,6839,6839,6839,6839,6839,6839,6839,6839,6839,6839,6839,6839,6839,6839,6839,6839,6839,6839,6839,6839,6839,6839,6839,6839,6839,6839,6839,6839,6839,6839,6839,6839,6839,6839,6839,6839,6839,6839,6919,6919,6919,6919,6919,6919,6919,6839,6839,6839,6839,6839,6839,6839,6839,6839,6839,6839,6839,6839,6839,6839,6839,6839,6839,6839,6839,6839,6839,6839,6839,6839,6839,6839,6839,6839,6839,6839,6839,6839,6839,6839,6839,6839,6839,6839,6839,6839,6839,6839,6839,
6967,6967,6967,6967,6967,6839,6839,6839,6839,6839,6839,6839,6839,6839,6839,6839,6839,6839,6839,6839,6839,6839,6839,6839,6839,6839,6839,6839,6839,6839,6839,6839,6839,6839,6839,6839,6839,6839,6839,6839,6839,6839,6839,6839,6839,6839,6839,6839,6839,6839,6839,6839,6839,6839,6839,6839,6839,6839,6839,6839,6839,6839,6839,6839,6839,6839,6839,6839,6839,6839,6839,6839,6839,6839,6839,6839,6839,6839,6839,6839,6919,6919,6919,6919,6919,6919,6839,6839,6839,6839,6839,6839,6839,6839,6839,6839,6839,6839,6839,6839,6839,6839,6839,6839,6839,6839,6839,6839,6839,6839,6839,6839,6839,6839,6839,6839,6839,6839,6839,6839,6839,6839,6839,6839,6839,6839,6839,6839,6839,6839,
6967,6967,6967,6967,6967,6839,6839,6839,6839,6839,6839,6839,6839,6839,6839,6839,6839,6839,6839,6839,6839,6839,6839,6839,6839,6839,6839,6839,6839,6839,6839,6839,6839,6839,6839,6839,6839,6839,6839,6839,6839,6839,6839,6839,6839,6839,6839,6839,6839,6839,6839,6839,6839,6839,6839,6839,6839,6839,6839,6839,6839,6839,6839,6839,6839,6839,6839,6839,6839,6839,6839,6839,6839,6839,6839,6839,6839,6839,6839,6839,6919,6919,6919,6919,6919,6919,6839,6839,6839,6839,6839,6839,6839,6839,6839,6839,6839,6839,6839,6839,6839,6839,6839,6839,6839,6839,6839,6839,6839,6839,6839,6839,6839,6839,6839,6839,6839,6839,6839,6839,6839,6839,6839,6839,6839,6839,6839,6839,6839,6839,
6967,6967,6967,6967,6967,6839,6839,6839,6839,6839,6839,6839,6839,6839,6839,6839,6839,6839,6839,6839,6839,6839,6839,6839,6839,6839,6839,6839,6839,6839,6839,6839,6839,6839,6839,6839,6839,6839,6839,6839,6839,6839,6839,6839,6839,6839,6839,6839,6839,6839,6839,6839,6839,6839,6839,6839,6839,6839,6839,6839,6839,6839,6839,6839,6839,6839,6839,6839,6839,6839,6839,6839,6839,6839,6839,6839,6839,6839,6839,6919,6919,6919,6919,6919,6919,6919,6839,6839,6839,6839,6839,6839,6839,6839,6839,6839,6839,6839,6839,6839,6839,6839,6839,6839,6839,6839,6839,6839,6839,6839,6839,6839,6839,6839,6839,6839,6839,6839,6839,6839,6839,6839,6839,6839,6839,6839,6839,6839,6839,6839,
6967,6967,6967,6967,6967,6839,6839,6839,6839,6839,6839,6839,6839,6839,6839,6839,6839,6839,6839,6839,6839,6839,6839,6839,6839,6839,6839,6839,6839,6839,6839,6839,6839,6839,6839,6839,6839,6839,6839,6839,6839,6839,6839,6839,6839,6839,6839,6839,6839,6839,6839,6839,6839,6839,6839,6839,6839,6839,6839,6839,6839,6839,6839,6839,6839,6839,6839,6839,6839,6839,6839,6839,6839,6839,6839,6839,6839,6839,6919,6919,6919,6919,6919,6919,6919,6839,6839,6839,6839,6839,6839,6839,6839,6839,6839,6839,6839,6839,6839,6839,6839,6839,6839,6839,6839,6839,6839,6839,6839,6839,6839,6839,6839,6839,6839,6839,6839,6839,6839,6839,6839,6839,6839,6839,6839,6839,6839,6839,6839,6839,
6967,6967,6967,6967,6967,6839,6839,6839,6839,6839,6839,6839,6839,6839,6839,6839,6839,6839,6839,6839,6839,6839,6839,6839,6839,6839,6839,6839,6839,6839,6839,6839,6839,6839,6839,6839,6839,6839,6839,6839,6839,6839,6839,6839,6839,6839,6839,6839,6839,6839,6839,6839,6839,6839,6839,6839,6839,6839,6839,6839,6839,6839,6839,6839,6839,6839,6839,6839,6839,6839,6839,6839,6839,6839,6839,6839,6839,6839,6919,6919,6919,6919,6919,6919,6839,6839,6839,6839,6839,6839,6839,6839,6839,6839,6839,6839,6839,6839,6839,6839,6839,6839,6839,6839,6839,6839,6839,6839,6839,6839,6839,6839,6839,6839,6839,6839,6839,6839,6839,6839,6839,6839,6839,6839,6839,6839,6839,6839,6839,6967,
6967,6967,6967,6967,6967,6839,6839,6839,6839,6839,6839,6839,6839,6839,6839,6839,6839,6839,6839,6839,6839,6839,6839,6839,6839,6839,6839,6839,6839,6839,6839,6839,6839,6839,6839,6839,6839,6839,6839,6839,6839,6839,6839,6839,6839,6839,6839,6839,6839,6839,6839,6839,6839,6839,6839,6839,6839,6839,6839,6839,6839,6839,6839,6839,6839,6839,6839,6839,6839,6839,6839,6839,6839,6839,6839,6839,6839,6919,6919,6919,6919,6919,6919,6919,6839,6839,6839,6839,6839,6839,6839,6839,6839,6839,6839,6839,6839,6839,6839,6839,6839,6839,6839,6839,6839,6839,6839,6839,6839,6839,6839,6839,6839,6839,6839,6839,6839,6839,6839,6839,6839,6839,6839,6839,6839,6839,6967,6967,6967,6967,
6967,6967,6967,6967,6967,6839,6839,6839,6839,6839,6839,6839,6839,6839,6839,6839,6839,6839,6839,6839,6839,6839,6839,6839,6839,6839,6839,6839,6839,6839,6839,6839,6839,6839,6839,6839,6839,6839,6839,6839,6839,6839,6839,6839,6839,6839,6839,6839,6839,6839,6839,6839,6839,6839,6839,6839,6839,6839,6839,6839,6839,6839,6839,6839,6839,6839,6839,6839,6839,6839,6839,6839,6839,6839,6839,6839,6919,6919,6919,6919,6919,6919,6919,6919,6839,6839,6839,6839,6839,6839,6839,6839,6839,6839,6839,6839,6839,6839,6839,6839,6839,6839,6839,6839,6839,6839,6839,6839,6839,6839,6839,6839,6839,6839,6839,6839,6839,6839,6839,6839,6839,6839,6839,6839,6839,6839,6967,6967,6967,6967,
6967,6967,6967,6967,6967,6839,6839,6839,6839,6839,6839,6839,6839,6839,6839,6839,6839,6839,6839,6839,6839,6839,6839,6839,6839,6839,6839,6839,6839,6839,6839,6839,6839,6839,6839,6839,6839,6839,6839,6839,6839,6839,6839,6839,6839,6839,6839,6839,6839,6839,6839,6839,6839,6839,6839,6839,6839,6839,6839,6839,6839,6839,6839,6839,6839,6839,6839,6839,6839,6839,6839,6839,6839,6839,6839,6919,6919,6919,6919,6919,6919,6919,6919,6919,6839,6839,6839,6839,6839,6839,6839,6839,6839,6839,6839,6839,6839,6839,6839,6839,6839,6839,6839,6839,6839,6839,6839,6839,6839,6839,6839,6839,6839,6839,6839,6839,6839,6839,6839,6839,6839,6839,6839,6839,6839,6839,6967,6967,6967,6967,
6967,6967,6967,6967,6967,6839,6839,6839,6839,6839,6839,6839,6839,6839,6839,6839,6839,6839,6839,6839,6839,6839,6839,6839,6839,6839,6839,6839,6839,6839,6839,6839,6839,6839,6839,6839,6839,6839,6839,6839,6839,6839,6839,6839,6839,6839,6839,6839,6839,6839,6839,6839,6839,6839,6839,6839,6839,6839,6839,6839,6839,6839,6839,6839,6839,6839,6839,6839,6839,6839,6839,6839,6839,6839,6839,6919,6919,6919,6919,6919,6919,6919,6919,6919,6839,6839,6839,6839,6839,6839,6839,6839,6839,6839,6839,6839,6839,6839,6839,6839,6839,6839,6839,6839,6839,6839,6839,6839,6839,6839,6839,6839,6839,6839,6839,6839,6839,6839,6839,6839,6839,6839,6839,6839,6839,6839,6967,6967,6967,6967,
6967,6967,6967,6967,6967,6839,6839,6839,6839,6839,6839,6839,6839,6839,6839,6839,6839,6839,6839,6839,6839,6839,6839,6839,6839,6839,6839,6839,6839,6839,6839,6839,6839,6839,6839,6839,6839,6839,6839,6839,6839,6839,6839,6839,6839,6839,6839,6839,6839,6839,6839,6839,6839,6839,6839,6839,6839,6839,6839,6839,6839,6839,6839,6839,6839,6839,6839,6839,6839,6839,6839,6839,6839,6919,6919,6919,6919,6919,6919,6919,6919,6919,6919,6839,6839,6839,6839,6839,6839,6839,6839,6839,6839,6839,6839,6839,6839,6839,6839,6839,6839,6839,6839,6839,6839,6839,6839,6839,6839,6839,6839,6839,6839,6839,6839,6839,6839,6839,6839,6839,6839,6839,6839,6839,6839,6839,6967,6967,6967,6967,
6967,6967,6967,6967,6967,6839,6839,6839,6839,6839,6839,6839,6839,6839,6839,6839,6839,6839,6839,6839,6839,6839,6839,6839,6839,6839,6839,6839,6839,6839,6839,6839,6839,6839,6839,6839,6839,6839,6839,6839,6839,6839,6839,6839,6839,6839,6839,6839,6839,6839,6839,6839,6839,6839,6839,6839,6839,6839,6839,6839,6839,6839,6839,6839,6839,6839,6839,6839,6839,6839,6839,6839,6839,6919,6919,6919,6919,6919,6919,6919,6919,6919,6839,6839,6839,6839,6839,6839,6839,6839,6839,6839,6839,6839,6839,6839,6839,6839,6839,6839,6839,6839,6839,6839,6839,6839,6839,6839,6839,6839,6839,6839,6839,6839,6839,6839,6839,6839,6839,6839,6839,6839,6839,6839,6839,6839,6967,6967,6967,6967,
6967,6967,6967,6967,6967,6839,6839,6839,6839,6839,6839,6839,6839,6839,6839,6839,6839,6839,6839,6839,6839,6839,6839,6839,6839,6839,6839,6839,6839,6839,6839,6839,6839,6839,6839,6839,6839,6839,6839,6839,6839,6839,6839,6839,6839,6839,6839,6839,6839,6839,6839,6839,6839,6839,6839,6839,6839,6839,6839,6839,6839,6839,6839,6839,6839,6839,6839,6839,6839,6839,6839,6839,6919,6919,6919,6919,6919,6919,6919,6919,6919,6839,6839,6839,6839,6839,6839,6839,6839,6839,6839,6839,6839,6839,6839,6839,6839,6839,6839,6839,6839,6839,6839,6839,6839,6839,6839,6839,6839,6839,6839,6839,6839,6839,6839,6839,6839,6839,6839,6839,6839,6839,6839,6839,6839,6839,6967,6967,6967,6967,
6967,6967,6967,6967,6839,6839,6839,6839,6839,6839,6839,6839,6839,6839,6839,6839,6839,6839,6839,6839,6839,6839,6839,6839,6839,6839,6839,6839,6839,6839,6839,6839,6839,6839,6839,6839,6839,6839,6839,6839,6839,6839,6839,6839,6839,6839,6839,6839,6839,6839,6839,6839,6839,6839,6839,6839,6839,6839,6839,6839,6839,6839,6839,6839,6839,6839,6839,6839,6839,6839,6839,6919,6919,6919,6919,6919,6919,6919,6919,6919,6839,6839,6839,6839,6839,6839,6839,6839,6839,6839,6839,6839,6839,6839,6839,6839,6839,6839,6839,6839,6839,6839,6839,6839,6839,6839,6839,6839,6839,6839,6839,6839,6839,6839,6839,6839,6839,6839,6839,6839,6839,6839,6839,6839,6839,6839,6967,6967,6967,6967,
6967,6967,6967,6967,6839,6839,6839,6839,6839,6839,6839,6839,6839,6839,6839,6839,6839,6839,6839,6839,6839,6839,6839,6839,6839,6839,6839,6839,6839,6839,6839,6839,6839,6839,6839,6839,6839,6839,6839,6839,6839,6839,6839,6839,6839,6839,6839,6839,6839,6839,6839,6839,6839,6839,6839,6839,6839,6839,6839,6839,6839,6839,6839,6839,6839,6839,6839,6839,6839,6839,6839,6919,6919,6919,6919,6919,6919,6919,6919,6839,6839,6839,6839,6839,6839,6839,6839,6839,6839,6839,6839,6839,6839,6839,6839,6839,6839,6839,6839,6839,6839,6839,6839,6839,6839,6839,6839,6839,6839,6839,6839,6839,6839,6839,6839,6839,6839,6839,6839,6839,6839,6839,6839,6839,6839,6839,6967,6967,6967,6967,
6967,6967,6967,6967,6839,6839,6839,6839,6839,6839,6839,6839,6839,6839,6839,6839,6839,6839,6839,6839,6839,6839,6839,6839,6839,6839,6839,6839,6839,6839,6839,6839,6839,6839,6839,6839,6839,6839,6839,6839,6839,6839,6839,6839,6839,6839,6839,6839,6839,6839,6839,6839,6839,6839,6839,6839,6839,6839,6839,6839,6839,6839,6839,6839,6839,6839,6839,6839,6839,6839,6919,6919,6919,6919,6919,6919,6919,6919,6839,6839,6839,6839,6839,6839,6839,6839,6839,6839,6839,6839,6839,6839,6839,6839,6839,6839,6839,6839,6839,6839,6839,6839,6839,6839,6839,6839,6839,6839,6839,6839,6839,6839,6839,6839,6839,6839,6839,6839,6839,6839,6839,6839,6839,6839,6839,6839,6967,6967,6967,6967,
6967,6967,6967,6967,6839,6839,6839,6839,6839,6839,6839,6839,6839,6839,6839,6839,6839,6839,6839,6839,6839,6839,6839,6839,6839,6839,6839,6839,6839,6839,6839,6839,6839,6839,6839,6839,6839,6839,6839,6839,6839,6839,6839,6839,6839,6839,6839,6839,6839,6839,6839,6839,6839,6839,6839,6839,6839,6839,6839,6839,6839,6839,6839,6839,6839,6839,6839,6839,6839,6839,6919,6919,6919,6919,6919,6919,6919,6839,6839,6839,6839,6839,6839,6839,6839,6839,6839,6839,6839,6839,6839,6839,6839,6839,6839,6839,6839,6839,6839,6839,6839,6839,6839,6839,6839,6839,6839,6839,6839,6839,6839,6839,6839,6839,6839,6839,6839,6839,6839,6839,6839,6839,6839,6839,6839,6839,6967,6967,6967,6967,
6967,6967,6967,6967,6839,6839,6839,6839,6839,6839,6839,6839,6839,6839,6839,6839,6839,6839,6839,6839,6839,6839,6839,6839,6839,6839,6839,6839,6839,6839,6839,6839,6839,6839,6839,6839,6839,6839,6839,6839,6839,6839,6839,6839,6839,6839,6839,6839,6839,6839,6839,6839,6839,6839,6839,6839,6839,6839,6839,6839,6839,6839,6839,6839,6839,6839,6839,6839,6839,6839,6919,6919,6919,6919,6919,6919,6919,6839,6839,6839,6839,6839,6839,6839,6839,6839,6839,6839,6839,6839,6839,6839,6839,6839,6839,6839,6839,6839,6839,6839,6839,6839,6839,6839,6839,6839,6839,6839,6839,6839,6839,6839,6839,6839,6839,6839,6839,6839,6839,6839,6839,6839,6839,6839,6839,6839,6967,6967,6967,6967,
6967,6967,6967,6967,6839,6839,6839,6839,6839,6839,6839,6839,6839,6839,6839,6839,6839,6839,6839,6839,6839,6839,6839,6839,6839,6839,6839,6839,6839,6839,6839,6839,6839,6839,6839,6839,6839,6839,6839,6839,6839,6839,6839,6839,6839,6839,6839,6839,6839,6839,6839,6839,6839,6839,6839,6839,6839,6839,6839,6839,6839,6839,6839,6839,6839,6839,6839,6839,6839,6839,6919,6919,6919,6919,6919,6919,6919,6839,6839,6839,6839,6839,6839,6839,6839,6839,6839,6839,6839,6839,6839,6839,6839,6839,6839,6839,6839,6839,6839,6839,6839,6839,6839,6839,6839,6839,6839,6839,6839,6839,6839,6839,6839,6839,6839,6839,6839,6839,6839,6839,6839,6839,6839,6839,6839,6839,6839,6839,6839,6839,
6967,6967,6967,6967,6839,6839,6839,6839,6839,6839,6839,6839,6839,6839,6839,6839,6839,6839,6839,6839,6839,6839,6839,6839,6839,6839,6839,6839,6839,6839,6839,6839,6839,6839,6839,6839,6839,6839,6839,6839,6839,6839,6839,6839,6839,6839,6839,6839,6839,6839,6839,6839,6839,6839,6839,6839,6839,6839,6839,6839,6839,6839,6839,6839,6839,6839,6839,6839,6839,6839,6919,6919,6919,6919,6919,6919,6919,6839,6839,6839,6839,6839,6839,6839,6839,6839,6839,6839,6839,6839,6839,6839,6839,6839,6839,6839,6839,6839,6839,6839,6839,6839,6839,6839,6839,6839,6839,6839,6839,6839,6839,6839,6839,6839,6839,6839,6839,6839,6839,6839,6839,6839,6839,6839,6839,6839,6839,6839,6839,6839,
6967,6967,6967,6967,6839,6839,6839,6839,6839,6839,6839,6839,6839,6839,6839,6839,6839,6839,6839,6839,6839,6839,6839,6839,6839,6839,6839,6839,6839,6839,6839,6839,6839,6839,6839,6839,6839,6839,6839,6839,6839,6839,6839,6839,6839,6839,6839,6839,6839,6839,6839,6839,6839,6839,6839,6839,6839,6839,6839,6839,6839,6839,6839,6839,6839,6839,6839,6839,6839,6839,6919,6919,6919,6919,6919,6919,6919,6919,6839,6839,6839,6839,6839,6839,6839,6839,6839,6839,6839,6839,6839,6839,6839,6839,6839,6839,6839,6839,6839,6839,6839,6839,6839,6839,6839,6839,6839,6839,6839,6839,6839,6839,6839,6839,6839,6839,6839,6839,6839,6839,6839,6839,6839,6839,6839,6839,6839,6839,6839,6839,
6967,6967,6967,6967,6839,6839,6839,6839,6839,6839,6839,6839,6839,6839,6839,6839,6839,6839,6839,6839,6839,6839,6839,6839,6839,6839,6839,6839,6839,6839,6839,6839,6839,6839,6839,6839,6839,6839,6839,6839,6839,6839,6839,6839,6839,6839,6839,6839,6839,6839,6839,6839,6839,6839,6839,6839,6839,6839,6839,6839,6839,6839,6839,6839,6839,6839,6839,6839,6839,6839,6839,6919,6919,6919,6919,6919,6919,6919,6919,6839,6839,6839,6839,6839,6839,6839,6839,6839,6839,6839,6839,6839,6839,6839,6839,6839,6839,6839,6839,6839,6839,6839,6839,6839,6839,6839,6839,6839,6839,6839,6839,6839,6839,6839,6839,6839,6839,6839,6839,6839,6839,6839,6839,6839,6839,6839,6839,6839,6839,6839,
6967,6967,6967,6967,6839,6839,6839,6839,6839,6839,6839,6839,6839,6839,6839,6839,6839,6839,6839,6839,6839,6839,6839,6839,6839,6839,6839,6839,6839,6839,6839,6839,6839,6839,6839,6839,6839,6839,6839,6839,6839,6839,6839,6839,6839,6839,6839,6839,6839,6839,6839,6839,6839,6839,6839,6839,6839,6839,6839,6839,6839,6839,6839,6839,6839,6839,6839,6839,6839,6839,6839,6839,6919,6919,6919,6919,6919,6919,6919,6919,6919,6919,6839,6839,6839,6839,6839,6839,6839,6839,6839,6839,6839,6839,6839,6839,6839,6839,6839,6839,6839,6839,6839,6839,6839,6839,6839,6839,6839,6839,6839,6839,6839,6839,6839,6839,6839,6839,6839,6839,6839,6839,6839,6839,6839,6839,6839,6839,6839,6839,
6839,6839,6839,6839,6839,6839,6839,6839,6839,6839,6839,6839,6839,6839,6839,6839,6839,6839,6839,6839,6839,6839,6839,6839,6839,6839,6839,6839,6839,6839,6839,6839,6839,6839,6839,6839,6839,6839,6839,6839,6839,6839,6839,6839,6839,6839,6839,6839,6839,6839,6839,6839,6839,6839,6839,6839,6839,6839,6839,6839,6839,6839,6839,6839,6839,6839,6839,6839,6839,6839,6839,6839,6839,6839,6919,6919,6919,6919,6919,6919,6919,6919,6839,6839,6839,6839,6839,6839,6839,6839,6839,6839,6839,6839,6839,6839,6839,6839,6839,6839,6839,6839,6839,6839,6839,6839,6839,6839,6839,6839,6839,6839,6839,6839,6839,6839,6839,6839,6839,6839,6839,6839,6839,6839,6839,6839,6839,6839,6839,6839,
6839,6839,6839,6839,6839,6839,6839,6839,6839,6839,6839,6839,6839,6839,6839,6839,6839,6839,6839,6839,6839,6839,6839,6839,6839,6839,6839,6839,6839,6839,6839,6839,6839,6839,6839,6839,6839,6839,6839,6839,6839,6839,6839,6839,6839,6839,6839,6839,6839,6839,6839,6839,6839,6839,6839,6839,6839,6839,6839,6839,6839,6839,6839,6839,6839,6839,6839,6839,6839,6839,6839,6839,6839,6839,6839,6919,6919,6919,6919,6919,6919,6919,6839,6839,6839,6839,6839,6839,6839,6839,6839,6839,6839,6839,6839,6839,6839,6839,6839,6839,6839,6839,6839,6839,6839,6839,6839,6839,6839,6839,6839,6839,6839,6839,6839,6839,6839,6839,6839,6839,6839,6839,6839,6839,6839,6839,6839,6839,6839,6839,
6839,6839,6839,6839,6839,6839,6839,6839,6839,6839,6839,6839,6839,6839,6839,6839,6839,6839,6839,6839,6839,6839,6839,6839,6839,6839,6839,6839,6839,6839,6839,6839,6839,6839,6839,6839,6839,6839,6839,6839,6839,6839,6839,6839,6839,6839,6839,6839,6839,6839,6839,6839,6839,6839,6839,6839,6839,6839,6839,6839,6839,6839,6839,6839,6839,6839,6839,6839,6839,6839,6839,6839,6839,6839,6839,6919,6919,6919,6919,6919,6919,6919,6919,6839,6839,6839,6839,6839,6839,6839,6839,6839,6839,6839,6839,6839,6839,6839,6839,6839,6839,6839,6839,6839,6839,6839,6839,6839,6839,6839,6839,6839,6839,6839,6839,6839,6839,6839,6839,6839,6839,6839,6839,6839,6839,6839,6839,6839,6839,6839,
6839,6839,6839,6839,6839,6839,6839,6839,6839,6839,6839,6839,6839,6839,6839,6839,6839,6839,6839,6839,6839,6839,6839,6839,6839,6839,6839,6839,6839,6839,6839,6839,6839,6839,6839,6839,6839,6839,6839,6839,6839,6839,6839,6839,6839,6839,6839,6839,6839,6839,6839,6839,6839,6839,6839,6839,6839,6839,6839,6839,6839,6839,6839,6839,6839,6839,6839,6839,6839,6839,6839,6839,6839,6839,6839,6919,6919,6919,6919,6919,6919,6919,6919,6839,6839,6839,6839,6839,6839,6839,6839,6839,6839,6839,6839,6839,6839,6839,6839,6839,6839,6839,6839,6839,6839,6839,6839,6839,6839,6839,6839,6839,6839,6839,6839,6839,6839,6839,6839,6839,6839,6839,6839,6839,6839,6839,6839,6839,6839,6839,
6839,6839,6839,6839,6839,6839,6839,6839,6839,6839,6839,6839,6839,6839,6839,6839,6839,6839,6839,6839,6839,6839,6839,6839,6839,6839,6839,6839,6839,6839,6839,6839,6839,6839,6839,6839,6839,6839,6839,6839,6839,6839,6839,6839,6839,6839,6839,6839,6839,6839,6839,6839,6839,6839,6839,6839,6839,6839,6839,6839,6839,6839,6839,6839,6839,6839,6839,6839,6839,6839,6839,6839,6839,6839,6839,6919,6919,6919,6919,6919,6919,6919,6919,6839,6839,6839,6839,6839,6839,6839,6839,6839,6839,6839,6839,6839,6839,6839,6839,6839,6839,6839,6839,6839,6839,6839,6839,6839,6839,6839,6839,6839,6839,6839,6839,6839,6839,6839,6839,6839,6839,6839,6839,6839,6839,6839,6839,6839,6839,6839,
6919,6919,6919,6919,6919,6919,6919,6919,6919,6919,6839,6839,6839,6839,6839,6839,6839,6839,6839,6839,6839,6839,6839,6839,6839,6839,6839,6839,6839,6839,6839,6839,6839,6839,6839,6839,6839,6839,6839,6839,6839,6839,6839,6839,6839,6839,6839,6839,6839,6839,6839,6839,6839,6839,6839,6839,6839,6839,6839,6839,6839,6839,6839,6839,6839,6839,6839,6839,6839,6839,6839,6839,6839,6839,6839,6839,6839,6839,6839,6839,6839,6839,6839,6839,6839,6839,6839,6839,6839,6839,6839,6839,6839,6839,6839,6839,6839,6839,6839,6839,6839,6839,6839,6839,6839,6839,6839,6839,6839,6839,6839,6839,6839,6839,6839,6839,6839,6839,6839,6839,6839,6839,6839,6839,6839,6839,6839,6839,6839,6839,
6919,6919,6919,6919,6919,6919,6919,6919,6919,6919,6919,6919,6919,6919,6839,6839,6839,6839,6839,6839,6839,6839,6839,6839,6839,6839,6839,6839,6839,6839,6839,6839,6839,6839,6839,6839,6839,6839,6839,6839,6839,6839,6839,6839,6839,6839,6839,6839,6839,6839,6839,6839,6839,6839,6839,6839,6839,6839,6839,6839,6839,6839,6839,6839,6839,6839,6839,6839,6839,6839,6839,6839,6839,6839,6839,6839,6839,6839,6839,6839,6839,6839,6839,6839,6839,6839,6839,6839,6839,6839,6839,6839,6839,6839,6839,6839,6839,6839,6839,6839,6839,6839,6839,6839,6839,6839,6839,6839,6839,6839,6839,6839,6839,6839,6839,6839,6839,6839,6839,6839,6839,6839,6839,6839,6839,6839,6839,6839,6839,6839,
6919,6919,6919,6919,6919,6919,6919,6919,6919,6919,6919,6919,6919,6919,6919,6839,6839,6839,6839,6839,6839,6839,6839,6839,6839,6839,6839,6839,6839,6839,6839,6839,6839,6839,6839,6839,6839,6839,6839,6839,6839,6839,6839,6839,6839,6839,6839,6839,6839,6839,6839,6839,6839,6839,6839,6839,6839,6839,6839,6839,6839,6839,6839,6839,6839,6839,6839,6839,6839,6839,6839,6839,6839,6839,6839,6919,6919,6919,6919,6919,6919,6919,6919,6839,6839,6839,6839,6839,6839,6839,6839,6839,6839,6839,6839,6839,6839,6839,6839,6839,6839,6839,6839,6839,6839,6839,6839,6839,6839,6839,6839,6839,6839,6839,6839,6839,6839,6839,6839,6839,6839,6839,6839,6839,6839,6839,6839,6839,6839,6839,
6919,6919,6919,6919,6919,6919,6919,6919,6919,6919,6919,6919,6919,6919,6919,6919,6919,6919,6919,6919,6839,6839,6839,6839,6839,6839,6839,6839,6839,6839,6839,6839,6839,6839,6839,6839,6839,6839,6839,6839,6839,6839,6839,6839,6839,6839,6839,6839,6839,6839,6839,6839,6839,6839,6839,6839,6839,6839,6839,6839,6839,6839,6839,6839,6839,6839,6839,6839,6839,6839,6839,6839,6839,6839,6839,6919,6919,6919,6919,6919,6919,6919,6919,6839,6839,6839,6839,6839,6839,6839,6839,6839,6839,6839,6839,6839,6839,6839,6839,6839,6839,6839,6839,6839,6839,6839,6839,6839,6839,6839,6839,6839,6839,6839,6839,6839,6839,6839,6839,6839,6839,6839,6839,6839,6839,6839,6839,6839,6839,6839,
6919,6919,6919,6919,6919,6919,6919,6919,6919,6919,6919,6919,6919,6919,6919,6919,6919,6919,6919,6919,6919,6839,6839,6839,6839,6839,6839,6839,6839,6839,6839,6839,6839,6839,6839,6839,6839,6839,6839,6839,6839,6839,6839,6839,6839,6839,6839,6839,6839,6839,6839,6839,6839,6839,6839,6839,6839,6839,6839,6839,6839,6839,6839,6839,6839,6839,6839,6839,6839,6839,6839,6839,6839,6839,6839,6919,6919,6919,6919,6919,6919,6919,6919,6839,6839,6839,6839,6839,6839,6839,6839,6839,6839,6839,6839,6839,6839,6839,6839,6839,6839,6839,6839,6839,6839,6839,6839,6839,6839,6839,6839,6839,6839,6839,6839,6839,6839,6839,6839,6839,6839,6839,6839,6839,6967,6967,6967,6967,6967,6967,
6919,6919,6919,6919,6919,6919,6919,6919,6919,6919,6919,6919,6919,6919,6919,6919,6919,6919,6919,6919,6919,6919,6839,6839,6839,6839,6839,6839,6839,6839,6839,6839,6839,6839,6839,6839,6839,6839,6839,6839,6839,6839,6839,6839,6839,6839,6839,6839,6839,6839,6839,6839,6839,6839,6839,6839,6839,6839,6839,6839,6839,6839,6839,6839,6839,6839,6839,6839,6839,6839,6839,6839,6839,6839,6839,6919,6919,6919,6919,6919,6919,6919,6919,6839,6839,6839,6839,6839,6839,6839,6839,6839,6839,6839,6839,6839,6839,6839,6839,6839,6839,6839,6839,6839,6839,6839,6839,6839,6839,6839,6839,6839,6839,6839,6839,6839,6839,6839,6839,6839,6839,6839,6839,6967,6967,6967,6967,6967,6967,6967,
6919,6919,6919,6919,6919,6919,6919,6919,6919,6919,6919,6919,6919,6919,6919,6919,6919,6919,6919,6919,6919,6919,6839,6839,6839,6839,6839,6839,6839,6839,6839,6839,6839,6839,6839,6839,6839,6839,6839,6839,6839,6839,6839,6839,6839,6839,6839,6839,6839,6839,6839,6839,6839,6839,6839,6839,6839,6839,6839,6839,6839,6839,6839,6839,6839,6839,6839,6839,6839,6839,6839,6839,6839,6839,6839,6919,6919,6919,6919,6919,6919,6919,6919,6839,6839,6839,6839,6839,6839,6839,6839,6839,6839,6839,6839,6839,6839,6839,6839,6839,6839,6839,6839,6839,6839,6839,6839,6839,6839,6839,6839,6839,6839,6839,6839,6839,6839,6839,6839,6839,6839,6839,6967,6967,6967,6967,6967,6967,6967,6967,
6919,6919,6919,6919,6919,6919,6919,6919,6919,6919,6919,6919,6919,6919,6919,6919,6919,6919,6919,6919,6919,6919,6919,6919,6919,6919,6919,6919,6919,6839,6839,6839,6839,6839,6839,6839,6839,6839,6839,6839,6839,6839,6839,6839,6839,6839,6839,6839,6839,6839,6839,6839,6839,6839,6839,6839,6839,6839,6919,6919,6919,6919,6919,6919,6919,6919,6919,6919,6919,6839,6839,6839,6839,6839,6919,6919,6919,6919,6919,6919,6919,6919,6919,6839,6839,6839,6839,6839,6839,6839,6839,6839,6839,6839,6839,6839,6839,6839,6839,6839,6839,6839,6839,6839,6839,6839,6839,6839,6839,6839,6839,6839,6839,6839,6839,6839,6839,6839,6839,6839,6839,6839,6967,6967,6967,6967,6967,6967,6967,6967,
6919,6919,6919,6919,6919,6919,6919,6919,6919,6919,6919,6919,6919,6919,6919,6919,6919,6919,6919,6919,6919,6919,6919,6919,6919,6919,6919,6919,6919,6919,6919,6919,6919,6919,6919,6919,6919,6919,6919,6839,6839,6839,6839,6839,6839,6839,6839,6919,6919,6919,6919,6919,6839,6839,6839,6839,6839,6919,6919,6919,6919,6919,6919,6919,6919,6919,6919,6919,6919,6919,6919,6919,6919,6919,6919,6919,6919,6919,6919,6919,6919,6919,6919,6919,6839,6839,6839,6839,6839,6839,6839,6839,6839,6839,6839,6839,6839,6839,6839,6839,6839,6839,6839,6839,6839,6839,6839,6839,6839,6839,6839,6839,6839,6839,6839,6839,6839,6839,6839,6839,6839,6839,6967,6967,6967,6967,6967,6967,6967,6967,
6919,6919,6919,6919,6919,6919,6919,6919,6919,6919,6919,6919,6919,6919,6919,6919,6919,6919,6919,6919,6919,6919,6919,6919,6919,6919,6919,6919,6919,6919,6919,6919,6919,6919,6919,6919,6919,6919,6919,6919,6919,6919,6919,6919,6919,6919,6919,6919,6919,6919,6919,6919,6839,6839,6839,6839,6839,6919,6919,6919,6919,6919,6919,6919,6919,6919,6919,6919,6919,6919,6919,6919,6919,6919,6919,6919,6919,6919,6919,6919,6919,6919,6919,6919,6919,6839,6839,6839,6839,6839,6839,6839,6839,6839,6839,6839,6839,6839,6839,6839,6839,6839,6839,6839,6839,6839,6839,6839,6839,6839,6839,6839,6839,6839,6839,6839,6839,6839,6839,6839,6839,6839,6967,6967,6967,6967,6967,6967,6967,6967,
6919,6919,6919,6919,6919,6919,6919,6919,6919,6919,6919,6919,6919,6919,6919,6919,6919,6919,6919,6919,6919,6919,6919,6919,6919,6919,6919,6919,6919,6919,6919,6919,6919,6919,6919,6919,6919,6919,6919,6919,6919,6919,6919,6919,6919,6919,6919,6919,6919,6919,6919,6919,6839,6839,6839,6839,6839,6919,6919,6919,6919,6919,6919,6919,6919,6919,6919,6919,6919,6919,6919,6919,6919,6919,6919,6919,6919,6919,6919,6919,6919,6919,6919,6919,6919,6919,6919,6919,6919,6919,6919,6839,6839,6839,6839,6839,6839,6839,6839,6839,6839,6839,6839,6839,6839,6839,6839,6839,6839,6839,6839,6839,6839,6839,6839,6839,6839,6839,6839,6839,6839,6839,6967,6967,6967,6967,6967,6967,6967,6967,
6839,6839,6839,6839,6919,6919,6919,6919,6919,6919,6919,6919,6919,6919,6919,6919,6919,6919,6919,6919,6919,6919,6919,6919,6919,6919,6919,6919,6919,6919,6919,6919,6919,6919,6919,6919,6919,6919,6919,6919,6919,6919,6919,6919,6919,6919,6919,6919,6919,6919,6919,6919,6839,6839,6839,6839,6839,6919,6919,6919,6919,6919,6919,6919,6919,6919,6919,6919,6919,6919,6919,6919,6919,6919,6919,6919,6919,6839,6839,6839,6919,6919,6919,6919,6919,6919,6919,6919,6919,6919,6919,6919,6839,6839,6839,6839,6839,6839,6839,6839,6839,6839,6839,6839,6839,6839,6839,6839,6839,6839,6839,6839,6839,6839,6839,6839,6839,6839,6839,6839,6839,6839,6967,6967,6967,6967,6967,6967,6967,6967,
6839,6839,6839,6839,6839,6839,6839,6839,6839,6839,6839,6839,6839,6839,6839,6839,6839,6919,6919,6919,6919,6919,6919,6919,6919,6919,6919,6919,6919,6919,6919,6919,6919,6919,6919,6919,6919,6919,6919,6919,6919,6919,6919,6919,6919,6919,6919,6919,6919,6919,6919,6919,6839,6839,6839,6839,6839,6919,6919,6839,6839,6839,6839,6919,6919,6919,6919,6919,6919,6919,6919,6919,6919,6919,6919,6919,6839,6839,6839,6839,6839,6919,6919,6919,6919,6919,6919,6919,6919,6919,6919,6919,6919,6839,6839,6839,6839,6839,6839,6839,6839,6839,6839,6839,6839,6839,6839,6839,6839,6839,6839,6839,6839,6839,6839,6839,6839,6839,6839,6839,6839,6967,6967,6967,6967,6967,6967,6967,6967,6967,
6839,6839,6839,6839,6839,6839,6839,6839,6839,6839,6839,6839,6839,6839,6839,6839,6839,6839,6839,6839,6839,6839,6839,6919,6919,6919,6919,6919,6919,6919,6919,6919,6919,6919,6919,6919,6919,6919,6919,6919,6919,6919,6919,6919,6919,6919,6919,6919,6919,6839,6839,6839,6839,6839,6839,6839,6839,6839,6839,6839,6839,6839,6839,6839,6839,6839,6919,6919,6919,6919,6919,6919,6839,6839,6839,6839,6839,6839,6839,6839,6839,6839,6919,6919,6919,6919,6919,6919,6919,6919,6919,6919,6919,6919,6839,6839,6839,6839,6839,6839,6839,6839,6839,6839,6839,6839,6839,6839,6839,6839,6839,6839,6839,6839,6839,6839,6839,6839,6839,6839,6839,6967,6967,6967,6967,6967,6967,6967,6967,6967,
6839,6839,6839,6839,6839,6839,6839,6839,6839,6839,6839,6839,6839,6839,6839,6839,6839,6839,6839,6839,6839,6839,6839,6839,6839,6839,6839,6839,6839,6839,6839,6839,6839,6839,6839,6839,6839,6919,6919,6919,6919,6919,6919,6919,6919,6919,6919,6919,6839,6839,6839,6839,6839,6839,6839,6839,6839,6839,6839,6839,6839,6839,6839,6839,6839,6839,6839,6839,6839,6839,6839,6839,6839,6839,6839,6839,6839,6839,6839,6839,6839,6839,6839,6839,6839,6919,6919,6919,6919,6919,6919,6919,6919,6919,6839,6839,6839,6839,6839,6839,6839,6839,6839,6839,6839,6839,6839,6839,6839,6839,6839,6839,6839,6839,6839,6839,6839,6839,6839,6839,6839,6967,6967,6967,6967,6967,6967,6967,6967,6967,
6839,6839,6839,6839,6839,6839,6839,6839,6839,6839,6839,6839,6839,6839,6839,6839,6839,6839,6839,6839,6839,6839,6839,6839,6839,6839,6839,6839,6839,6839,6839,6839,6839,6839,6839,6839,6839,6839,6839,6839,6839,6839,6839,6839,6839,6839,6839,6839,6839,6839,6839,6839,6839,6839,6839,6839,6839,6839,6839,6839,6839,6839,6839,6839,6839,6839,6839,6839,6839,6839,6839,6839,6839,6839,6839,6839,6839,6839,6839,6839,6839,6839,6839,6839,6839,6839,6839,6919,6919,6919,6919,6919,6919,6919,6839,6839,6839,6839,6839,6839,6839,6839,6839,6839,6839,6839,6839,6839,6839,6839,6839,6839,6839,6839,6839,6839,6839,6839,6839,6839,6839,6967,6967,6967,6967,6967,6967,6967,6967,6967
</data>
 </layer>
 <layer id="2" name="kittycatcasey.Stardew3D/WaterData_Center" width="130" height="110">
  <data encoding="csv">
0,0,0,0,0,0,0,0,0,0,0,0,0,0,0,0,0,0,0,0,0,0,0,0,0,0,0,0,0,0,0,0,0,0,0,0,0,0,0,0,0,0,0,0,0,0,0,0,0,0,0,0,0,0,0,0,0,0,0,0,0,0,0,0,0,0,0,0,0,0,0,0,0,0,0,0,0,0,0,0,0,0,0,0,0,0,0,0,0,0,0,0,0,0,0,0,0,0,0,0,0,0,0,0,0,0,0,0,0,0,0,0,0,0,0,0,0,0,0,0,0,0,0,0,0,0,0,0,0,0,
0,0,0,0,0,0,0,0,0,0,0,0,0,0,0,0,0,0,0,0,0,0,0,0,0,0,0,0,0,0,0,0,0,0,0,0,0,0,0,0,0,0,0,0,0,0,0,0,0,0,0,0,0,0,0,0,0,0,0,0,0,0,0,0,0,0,0,0,0,0,0,0,0,0,0,0,0,0,0,0,0,0,0,0,0,0,0,0,0,0,0,0,0,0,0,0,0,0,0,0,0,0,0,0,0,0,0,0,0,0,0,0,0,0,0,0,0,0,0,0,0,0,0,0,0,0,0,0,0,0,
0,0,0,0,0,0,0,0,0,0,0,0,0,0,0,0,0,0,0,0,0,0,0,0,0,0,0,0,0,0,0,0,0,0,0,0,0,0,0,0,0,0,0,0,0,0,0,0,0,0,0,0,0,0,0,0,0,0,0,0,0,0,0,0,0,0,0,0,0,0,0,0,0,0,0,0,0,0,0,0,0,0,0,0,0,0,0,0,0,0,0,0,0,0,0,0,0,0,0,0,0,0,0,0,0,0,0,0,0,0,0,0,0,0,0,0,0,0,0,0,0,0,0,0,0,0,0,0,0,0,
0,0,0,0,0,0,0,0,0,0,0,0,0,0,0,0,0,0,0,0,0,0,0,0,0,0,0,0,0,0,0,0,0,0,0,0,0,0,0,0,0,0,0,0,0,0,0,0,0,0,0,0,0,0,0,0,0,0,0,0,0,0,0,0,0,0,0,0,0,0,0,0,0,0,0,0,0,0,0,0,0,0,0,0,0,0,0,0,0,0,0,0,0,0,0,0,0,0,0,0,0,0,0,0,0,0,0,0,0,0,0,0,0,0,0,0,0,0,0,0,0,0,0,0,0,0,0,0,0,0,
0,0,0,0,0,0,0,0,0,0,0,0,0,0,0,0,0,0,0,0,0,0,0,0,0,0,0,0,0,0,0,0,0,0,0,0,0,0,0,0,0,0,0,0,0,0,0,0,0,0,0,0,0,0,0,0,0,0,0,0,0,0,0,0,0,0,0,0,0,0,0,0,0,0,0,0,0,0,0,0,0,0,0,0,0,0,0,0,0,0,0,0,0,0,0,0,0,0,0,0,0,0,0,0,0,0,0,0,0,0,0,0,0,0,0,0,0,0,0,0,0,0,0,0,0,0,0,0,0,0,
0,0,0,0,0,0,0,0,0,0,0,0,0,0,0,0,0,0,0,0,0,0,0,0,0,0,0,0,0,0,0,0,0,0,0,0,0,0,0,0,0,0,0,0,0,0,0,0,0,0,0,0,0,0,0,0,0,0,0,0,0,0,0,0,0,0,0,0,0,0,0,0,0,0,0,0,0,0,0,0,0,0,0,0,0,0,0,0,0,0,0,0,0,0,0,0,0,0,0,0,0,0,0,0,0,0,0,0,0,0,0,0,0,0,0,0,0,0,0,0,0,0,0,0,0,0,0,0,0,0,
0,0,0,0,0,0,0,0,0,0,0,0,0,0,0,0,0,0,0,0,0,0,0,0,0,0,0,0,0,0,0,0,0,0,0,0,0,0,0,0,0,0,0,0,0,0,0,0,0,0,0,0,0,0,0,0,0,0,0,0,0,0,0,0,0,0,0,0,0,0,0,0,0,0,0,0,0,0,0,0,0,0,0,0,0,0,0,0,0,0,0,0,0,0,0,0,0,0,0,0,0,0,0,0,0,0,0,0,0,0,0,0,0,0,0,0,0,0,0,0,0,0,0,0,0,0,0,0,0,0,
0,0,0,0,0,0,0,0,0,0,0,0,0,0,0,0,0,0,0,0,0,0,0,0,0,0,0,0,0,0,0,0,0,0,0,0,0,0,0,0,0,0,0,0,0,0,0,0,0,0,0,0,0,0,0,0,0,0,0,0,0,0,0,0,0,0,0,0,0,0,0,0,0,0,0,0,0,0,0,0,0,0,0,0,0,0,0,0,0,0,0,0,0,0,0,0,0,0,0,0,0,0,0,0,0,0,0,0,0,0,0,0,0,0,0,0,0,0,0,0,0,0,0,0,0,0,0,0,0,0,
0,0,0,0,0,0,0,0,0,0,0,0,0,0,0,0,0,0,0,0,0,0,0,0,0,0,0,0,0,0,0,0,0,0,0,0,0,0,0,0,0,0,0,0,0,0,0,0,0,0,0,0,0,0,0,0,0,0,0,0,0,0,0,0,0,0,0,0,0,0,0,0,0,0,0,0,0,0,0,0,0,0,0,0,0,0,0,0,0,0,0,0,0,0,0,0,0,0,0,0,0,0,0,0,0,0,0,0,0,0,0,0,0,0,0,0,0,0,0,0,0,0,0,0,0,0,0,0,0,0,
0,0,0,0,0,0,0,0,0,0,0,0,0,0,0,0,0,0,0,0,0,0,0,0,0,0,0,0,0,0,0,0,0,0,0,0,0,0,0,0,0,0,0,0,0,0,0,0,0,0,0,0,0,0,0,0,0,0,0,0,0,0,0,0,0,0,0,0,0,0,0,0,0,0,0,0,0,0,0,0,0,0,0,0,0,0,0,0,0,0,0,0,0,0,0,0,0,0,0,0,0,0,0,0,0,0,0,0,0,0,0,0,0,0,0,0,0,0,0,0,0,0,0,0,0,0,0,0,0,0,
0,0,0,0,0,0,0,0,0,0,0,0,0,0,0,0,0,0,0,0,0,0,0,0,0,0,0,0,0,0,0,0,0,0,0,0,0,0,0,0,0,0,0,0,0,0,0,0,0,0,0,0,0,0,0,0,0,0,0,0,0,0,0,0,0,0,0,0,0,0,0,0,0,0,0,0,0,0,0,0,0,0,0,0,0,0,0,0,0,0,0,0,0,0,0,0,0,0,0,0,0,0,0,0,0,0,0,0,0,0,0,0,0,0,0,0,0,0,0,0,0,0,0,0,0,0,0,0,0,0,
0,0,0,0,0,0,0,0,0,0,0,0,0,0,0,0,0,0,0,0,0,0,0,0,0,0,0,0,0,0,0,0,0,0,0,0,0,0,0,0,0,0,0,0,0,0,0,0,0,0,0,0,0,0,0,0,0,0,0,0,0,0,0,0,0,0,0,0,0,0,0,0,0,0,0,0,0,0,0,0,0,0,0,0,0,0,0,0,0,0,0,0,0,0,0,0,0,0,0,0,0,0,0,0,0,0,0,0,0,0,0,0,0,0,0,0,0,0,0,0,0,0,0,0,0,0,0,0,0,0,
0,0,0,0,0,0,0,0,0,0,0,0,0,0,0,0,0,0,0,0,0,0,0,0,0,0,0,0,0,0,0,0,0,0,0,0,0,0,0,0,0,0,0,0,0,0,0,0,0,0,0,0,0,0,0,0,0,0,0,0,0,0,0,0,0,0,0,0,0,0,0,0,0,0,0,0,0,0,0,0,0,0,0,0,0,0,0,0,0,0,0,0,0,0,0,0,0,0,0,0,0,0,0,0,0,0,0,0,0,0,0,0,0,0,0,0,0,0,0,0,0,0,0,0,0,0,0,0,0,0,
0,0,0,0,0,0,0,0,0,0,0,0,0,0,0,0,0,0,0,0,0,0,0,0,0,0,0,0,0,0,0,0,0,0,0,0,0,0,0,0,0,0,0,0,0,0,0,0,0,0,0,0,0,0,0,0,0,0,0,0,0,0,0,0,0,0,0,0,0,0,0,0,0,0,0,0,0,0,0,0,0,0,0,0,0,0,0,0,0,0,0,0,6863,6863,6863,6863,6863,0,0,0,0,0,0,0,0,0,0,0,0,0,0,0,0,0,0,0,0,0,0,0,0,0,0,0,0,0,0,0,0,0,
0,0,0,0,0,0,0,0,0,0,0,0,0,0,0,0,0,0,0,0,0,0,0,0,0,0,0,0,0,0,0,0,0,0,0,0,0,0,0,0,0,0,0,0,0,0,0,0,0,0,0,0,0,0,0,0,0,0,0,0,0,0,0,0,0,0,0,0,0,0,0,0,0,0,0,0,0,0,0,0,0,0,0,0,0,0,0,0,0,0,0,0,6863,6863,6863,6863,6863,0,0,0,0,0,0,0,0,0,0,0,0,0,0,0,0,0,0,0,0,0,0,0,0,0,0,0,0,0,0,0,0,0,
0,0,0,0,0,0,0,0,0,0,0,0,0,0,0,0,0,0,0,0,0,0,0,0,0,0,0,0,0,0,0,0,0,0,0,0,0,0,0,0,0,0,0,0,0,0,0,0,0,0,0,0,0,0,0,0,0,0,0,0,0,0,0,0,0,0,0,0,0,0,0,0,0,0,0,0,0,0,0,0,0,0,0,0,0,0,0,0,0,0,0,6863,6863,6863,6863,6863,6863,0,0,0,0,0,0,0,0,0,0,0,0,0,0,0,0,0,0,0,0,0,0,0,0,0,0,0,0,0,0,0,0,0,
0,0,0,0,0,0,0,0,0,0,0,0,0,0,0,0,0,0,0,0,0,0,0,0,0,0,0,0,0,0,0,0,0,0,0,0,0,0,0,0,0,0,0,0,0,0,0,0,0,0,0,0,0,0,0,0,0,0,0,0,0,0,0,0,0,0,0,0,0,0,0,0,0,0,0,0,0,0,0,0,0,0,0,0,0,0,0,0,0,0,6863,6863,6863,6863,6863,6863,6863,0,0,0,0,0,0,0,0,0,0,0,0,0,0,0,0,0,0,0,0,0,0,0,0,0,0,0,0,0,0,0,0,0,
0,0,0,0,0,0,0,0,0,0,0,0,0,0,0,0,0,0,0,0,0,0,0,0,0,0,0,0,0,0,0,0,0,0,0,0,0,0,0,0,0,0,0,0,0,0,0,0,0,0,0,0,0,0,0,0,0,0,0,0,0,0,0,0,0,0,0,0,0,0,0,0,0,0,0,0,0,0,0,0,0,0,0,0,0,0,0,0,0,0,6863,6863,6863,6863,6863,6863,6863,0,0,0,0,0,0,0,0,0,0,0,0,0,0,0,0,0,0,0,0,0,0,0,0,0,0,0,0,0,0,0,0,0,
0,0,0,0,0,0,0,0,0,0,0,0,0,0,0,0,0,0,0,0,0,0,0,0,0,0,0,0,0,0,0,0,0,0,0,0,0,0,0,0,0,0,0,0,0,0,0,0,0,0,0,0,0,0,0,0,0,0,0,0,0,0,0,0,0,0,0,0,0,0,0,0,0,0,0,0,0,0,0,0,0,0,0,0,0,0,0,0,0,6863,6863,6863,6863,6863,6863,6863,0,0,0,0,0,0,0,0,0,0,0,0,0,0,0,0,0,0,0,0,0,0,0,0,0,0,0,0,0,0,0,0,0,0,
0,0,0,0,0,0,0,0,0,0,0,0,0,0,0,0,0,0,0,0,0,0,0,0,0,0,0,0,0,0,0,0,0,0,0,0,0,0,0,0,0,0,0,0,0,0,0,0,0,0,0,0,0,0,0,0,0,0,0,0,0,0,0,0,0,0,0,0,0,0,0,0,0,0,0,0,0,0,0,0,0,0,0,0,0,0,0,0,0,6863,6863,6863,6863,6863,6863,6863,0,0,0,0,0,0,0,0,0,0,0,0,0,0,0,0,0,0,0,0,0,0,0,0,0,0,0,0,0,0,0,0,0,0,
0,0,0,0,0,0,0,0,0,0,0,0,0,0,0,0,0,0,0,0,0,0,0,0,0,0,0,0,0,0,0,0,0,0,0,0,0,0,0,0,0,0,0,0,0,0,0,0,0,0,0,0,0,0,0,0,0,0,0,0,0,0,0,0,0,0,0,0,0,0,0,0,0,0,0,0,0,0,0,0,0,0,0,0,0,0,0,0,0,6863,6863,6863,6863,6863,6863,0,0,0,0,0,0,0,0,0,0,0,0,0,0,0,0,0,0,0,0,0,0,0,0,0,0,0,0,0,0,0,0,0,0,0,
0,0,0,0,0,0,0,0,0,0,0,0,0,0,0,0,0,0,0,0,0,0,0,0,0,0,0,0,0,0,0,0,0,0,0,0,0,0,0,0,0,0,0,0,0,0,0,0,0,0,0,0,0,0,0,0,0,0,0,0,0,0,0,0,0,0,0,0,0,0,0,0,0,0,0,0,0,0,0,0,0,0,0,0,0,0,0,0,0,6863,6863,6863,6863,6863,6863,0,0,0,0,0,0,0,0,0,0,0,0,0,0,0,0,0,0,0,0,0,0,0,0,0,0,0,0,0,0,0,0,0,0,0,
0,0,0,0,0,0,0,0,0,0,0,0,0,0,0,0,0,0,0,0,0,0,0,0,0,0,0,0,0,0,0,0,0,0,0,0,0,0,0,0,0,0,0,0,0,0,0,0,0,0,0,0,0,0,0,0,0,0,0,0,0,0,0,0,0,0,0,0,0,0,0,0,0,0,0,0,0,0,0,0,0,0,0,0,0,0,0,0,0,6863,6863,6863,6863,6863,0,0,0,0,0,0,0,0,0,0,0,0,0,0,0,0,0,0,0,0,0,0,0,0,0,0,0,0,0,0,0,0,0,0,0,0,
0,0,0,0,0,0,0,0,0,0,0,0,0,0,0,0,0,0,0,0,0,0,0,0,0,0,0,0,0,0,0,0,0,0,0,0,0,0,0,0,0,0,0,0,0,0,0,0,0,0,0,0,0,0,0,0,0,0,0,0,0,0,0,0,0,0,0,0,0,0,0,0,0,0,0,0,0,0,0,0,0,0,0,0,0,0,0,0,0,6863,6863,6863,6863,6863,0,0,0,0,0,0,0,0,0,0,0,0,0,0,0,0,0,0,0,0,0,0,0,0,0,0,0,0,0,0,0,0,0,0,0,0,
0,0,0,0,0,0,0,0,0,0,0,0,0,0,0,0,0,0,0,0,0,0,0,0,0,0,0,0,0,0,0,0,0,0,0,0,0,0,0,0,0,0,0,0,0,0,0,0,0,0,0,0,0,0,0,0,0,0,0,0,0,0,0,0,0,0,0,0,0,0,0,0,0,0,0,0,0,0,0,0,0,0,0,0,0,0,0,0,0,6863,6863,6863,6863,6863,0,0,0,0,0,0,0,0,0,0,0,0,0,0,0,0,0,0,0,0,0,0,0,0,0,0,0,0,0,0,0,0,0,0,0,0,
0,0,0,0,0,0,0,0,0,0,0,0,0,0,0,0,0,0,0,0,0,0,0,0,0,0,0,0,0,0,0,0,0,0,0,0,0,0,0,0,0,0,0,0,0,0,0,0,0,0,0,0,0,0,0,0,0,0,0,0,0,0,0,0,0,0,0,0,0,0,0,0,0,0,0,0,0,0,0,0,0,0,0,0,0,0,0,0,0,6863,6863,6863,6863,6863,0,0,0,0,0,0,0,0,0,0,0,0,0,0,0,0,0,0,0,0,0,0,0,0,0,0,0,0,0,0,0,0,0,0,0,0,
0,0,0,0,0,0,0,0,0,0,0,0,0,0,0,0,0,0,0,0,0,0,0,0,0,0,0,0,0,0,0,0,0,0,0,0,0,0,0,0,0,0,0,0,0,0,0,0,0,0,0,0,0,0,0,0,0,0,0,0,0,0,0,0,0,0,0,0,0,0,0,0,0,0,0,0,0,0,0,0,0,0,0,0,0,0,0,0,0,6863,6863,6863,6863,6863,0,0,0,0,0,0,0,0,0,0,0,0,0,0,0,0,0,0,0,0,0,0,0,0,0,0,0,0,0,0,0,0,0,0,0,0,
0,0,0,0,0,0,0,0,0,0,0,0,0,0,0,0,0,0,0,0,0,0,0,0,0,0,0,0,0,0,0,0,0,0,0,0,0,0,0,0,0,0,0,0,0,0,0,0,0,0,0,0,0,0,0,0,0,0,0,0,0,0,0,0,0,0,0,0,0,0,0,0,0,0,0,0,0,0,0,0,0,0,0,0,0,0,0,0,0,6863,6863,6863,6863,6863,0,0,0,0,0,0,0,0,0,0,0,0,0,0,0,0,0,0,0,0,0,0,0,0,0,0,0,0,0,0,0,0,0,0,0,0,
0,0,0,0,0,0,0,0,0,0,0,0,0,0,0,0,0,0,0,0,0,0,0,0,0,0,0,0,0,0,0,0,0,0,0,0,0,0,0,0,0,0,0,0,0,0,0,0,0,0,0,0,0,0,0,0,0,0,0,0,0,0,0,0,0,0,0,0,0,0,0,0,0,0,0,0,0,0,0,0,0,0,0,0,0,0,0,0,6863,6863,6863,6863,6863,6863,0,0,0,0,0,0,0,0,0,0,0,0,0,0,0,0,0,0,0,0,0,0,0,0,0,0,0,0,0,0,0,0,0,0,0,0,
0,0,0,0,0,0,0,0,0,0,0,0,0,0,0,0,0,0,0,0,0,0,0,0,0,0,0,0,0,0,0,0,0,0,0,0,0,0,0,0,0,0,0,0,0,0,0,0,0,0,0,0,0,0,0,0,0,0,0,0,0,0,0,0,0,0,0,0,0,0,0,0,0,0,0,0,0,0,0,0,0,0,0,0,0,0,0,6863,6863,6863,6863,6863,6863,6863,0,0,0,0,0,0,0,0,0,0,0,0,0,0,0,0,0,0,0,0,0,0,0,0,0,0,0,0,0,0,0,0,0,0,0,0,
0,0,0,0,0,0,0,0,0,0,0,0,0,0,0,0,0,0,0,0,0,0,0,0,0,0,0,0,0,0,0,0,0,0,0,0,0,0,0,0,0,0,0,0,0,0,0,0,0,0,0,0,0,0,0,0,0,0,0,0,0,0,0,0,0,0,0,0,0,0,0,0,0,0,0,0,0,0,0,0,0,0,0,0,0,0,0,6863,6863,6863,6863,6863,6863,6863,0,0,0,0,0,0,0,0,0,0,0,0,0,0,0,0,0,0,0,0,0,0,0,0,0,0,0,0,0,0,0,0,0,0,0,0,
0,0,0,0,0,0,0,0,0,0,0,0,0,0,0,0,0,0,0,0,0,0,0,0,0,0,0,0,0,0,0,0,0,0,0,0,0,0,0,0,0,0,0,0,0,0,0,0,0,0,0,0,0,0,0,0,0,0,0,0,0,0,0,0,0,0,0,0,0,0,0,0,0,0,0,0,0,0,0,0,0,0,0,0,0,0,0,6863,6863,6863,6863,6863,6863,0,0,0,0,0,0,0,0,0,0,0,0,0,0,0,0,0,0,0,0,0,0,0,0,0,0,0,0,0,0,0,0,0,0,0,0,0,
0,0,0,0,0,0,0,0,0,0,0,0,0,0,0,0,0,0,0,0,0,0,0,0,0,0,0,0,0,0,0,0,0,0,0,0,0,0,0,0,0,0,0,0,0,0,0,0,0,0,0,0,0,0,0,0,0,0,0,0,0,0,0,0,0,0,0,0,0,0,0,0,0,0,0,0,0,0,0,0,0,0,0,0,0,0,6863,6863,6863,6863,6863,6863,6863,0,0,0,0,0,0,0,0,0,0,0,0,0,0,0,0,0,0,0,0,0,0,0,0,0,0,0,0,0,0,0,0,0,0,0,0,0,
0,0,0,0,0,0,0,0,0,0,0,0,0,0,0,0,0,0,0,0,0,0,0,0,0,0,0,0,0,0,0,0,0,0,0,0,0,0,0,0,0,0,0,0,0,0,0,0,0,0,0,0,0,0,0,0,0,0,0,0,0,0,0,0,0,0,0,0,0,0,0,0,0,0,0,0,0,0,0,0,0,0,0,0,0,6863,6863,6863,6863,6863,6863,6863,6863,0,0,0,0,0,0,0,0,0,0,0,0,0,0,0,0,0,0,0,0,0,0,0,0,0,0,0,0,0,0,0,0,0,0,0,0,0,
0,0,0,0,0,0,0,0,0,0,0,0,0,0,0,0,0,0,0,0,0,0,0,0,0,0,0,0,0,0,0,0,0,0,0,0,0,0,0,0,0,0,0,0,0,0,0,0,0,0,0,0,0,0,0,0,0,0,0,0,0,0,0,0,0,0,0,0,0,0,0,0,0,0,0,0,0,0,0,0,0,0,0,6863,6863,6863,6863,6863,6863,6863,6863,6863,6863,0,0,0,0,0,0,0,0,0,0,0,0,0,0,0,0,0,0,0,0,0,0,0,0,0,0,0,0,0,0,0,0,0,0,0,0,0,
0,0,0,0,0,0,0,0,0,0,0,0,0,0,0,0,0,0,0,0,0,0,0,0,0,0,0,0,0,0,0,0,0,0,0,0,0,0,0,0,0,0,0,0,0,0,0,0,0,0,0,0,0,0,0,0,0,0,0,0,0,0,0,0,0,0,0,0,0,0,0,0,0,0,0,0,0,0,0,0,0,6863,6863,6863,6863,6863,6863,6863,6863,6863,6863,6863,6863,0,0,0,0,0,0,0,0,0,0,0,0,0,0,0,0,0,0,0,0,0,0,0,0,0,0,0,0,0,0,0,0,0,0,0,0,0,
0,0,0,0,0,0,0,0,0,0,0,0,0,0,0,0,0,0,0,0,0,0,0,0,0,0,0,0,0,0,0,0,0,0,0,0,0,0,0,0,0,0,0,0,0,0,0,0,0,0,0,0,0,0,0,0,0,0,0,0,0,0,0,0,0,0,0,0,0,0,0,0,0,0,0,0,0,0,0,6863,6863,6863,6863,6863,6863,6863,6863,6863,6863,6863,6863,6863,0,0,0,0,0,0,0,0,0,0,0,0,0,0,0,0,0,0,0,0,0,0,0,0,0,0,0,0,0,0,0,0,0,0,0,0,0,0,
0,0,0,0,0,0,0,0,0,0,0,0,0,0,0,0,0,0,0,0,0,0,0,0,0,0,0,0,0,0,0,0,0,0,0,0,0,0,0,0,0,0,0,0,0,0,0,0,0,0,0,0,0,0,0,0,0,0,0,0,0,0,0,0,0,0,0,0,0,0,0,0,0,0,0,0,0,0,6863,6863,6863,6863,6863,6863,6863,6863,6863,6863,6863,6863,6863,0,0,0,0,0,0,0,0,0,0,0,0,0,0,0,0,0,0,0,0,0,0,0,0,0,0,0,0,0,0,0,0,0,0,0,0,0,0,0,
0,0,0,0,0,0,0,0,0,0,0,0,0,0,0,0,0,0,0,0,0,0,0,0,0,0,0,0,0,0,0,0,0,0,0,0,0,0,0,0,0,0,0,0,0,0,0,0,0,0,0,0,0,0,0,0,0,0,0,0,0,0,0,0,0,0,0,0,0,0,0,0,0,0,0,0,0,6863,6863,6863,6863,6863,6863,6863,6863,6863,6863,6863,6863,6863,0,0,0,0,0,0,0,0,0,0,0,0,0,0,0,0,0,0,0,0,0,0,0,0,0,0,0,0,0,0,0,0,0,0,0,0,0,0,0,0,
0,0,0,0,0,0,0,0,0,0,0,0,0,0,0,0,0,0,0,0,0,0,0,0,0,0,0,0,0,0,0,0,0,0,0,0,0,0,0,0,0,0,0,0,0,0,0,0,0,0,0,0,0,0,0,0,0,0,0,0,0,0,0,0,0,0,0,0,0,0,0,6863,6863,6863,6863,6863,6863,6863,6863,6863,6863,6863,6863,6863,6863,6863,6863,6863,6863,0,0,0,0,0,0,0,0,0,0,0,0,0,0,0,0,0,0,0,0,0,0,0,0,0,0,0,0,0,0,0,0,0,0,0,0,0,0,0,0,0,
0,0,0,0,0,0,0,0,0,0,0,0,0,0,0,0,0,0,0,0,0,0,0,0,0,0,0,0,0,0,0,0,0,0,0,0,0,0,0,0,0,0,0,0,0,0,0,0,0,0,0,0,0,0,0,0,0,0,0,0,0,0,0,0,0,0,0,0,0,6863,6863,6863,6863,6863,6863,6863,6863,6863,6863,6863,6863,6863,6863,6863,6863,6863,6863,0,0,0,0,0,0,0,0,0,0,0,0,0,0,0,0,0,0,0,0,0,0,0,0,0,0,0,0,0,0,0,0,0,0,0,0,0,0,0,0,0,0,0,
0,0,0,0,0,0,0,0,0,0,0,0,0,0,0,0,0,0,0,0,0,0,0,0,0,0,0,0,0,0,0,0,0,0,0,0,0,0,0,0,0,0,0,0,0,0,0,0,0,0,0,0,0,0,0,0,0,0,0,0,0,0,0,0,0,0,0,0,6863,6863,6863,6863,6863,6863,6863,6863,6863,6863,6863,6863,6863,6863,6863,6863,6863,0,0,0,0,0,0,0,0,0,0,0,0,0,0,0,0,0,0,0,0,0,0,0,0,0,0,0,0,0,0,0,0,0,0,0,0,0,0,0,0,0,0,0,0,0,
0,0,0,0,0,0,0,0,0,0,0,0,0,0,0,0,0,0,0,0,0,0,0,0,0,0,0,0,0,0,0,0,0,0,0,0,0,0,0,0,0,0,0,0,0,0,0,0,0,0,0,0,0,0,0,0,0,0,0,0,0,0,0,0,0,0,0,0,6863,6863,6863,6863,6863,6863,6863,6863,6863,6863,6863,6863,6863,6863,6863,0,0,0,0,0,0,0,0,0,0,0,0,0,0,0,0,0,0,0,0,0,0,0,0,0,0,0,0,0,0,0,0,0,0,0,0,0,0,0,0,0,0,0,0,0,0,0,
0,0,0,0,0,0,0,0,0,0,0,0,0,0,0,0,0,0,0,0,0,0,0,0,0,0,0,0,0,0,0,0,0,0,0,0,0,0,0,0,0,0,0,0,0,0,0,0,0,0,0,0,0,0,0,0,0,0,0,0,0,0,0,0,0,0,0,0,6863,6863,6863,6863,6863,6863,6863,6863,6863,6863,6863,6863,6863,0,0,0,0,0,0,0,0,0,0,0,0,0,0,0,0,0,0,0,0,0,0,0,0,0,0,0,0,0,0,0,0,0,0,0,0,0,0,0,0,0,0,0,0,0,0,0,0,0,
0,0,0,0,0,0,0,0,0,0,0,0,0,0,0,0,0,0,0,0,0,0,0,0,0,0,0,0,0,0,0,0,0,0,0,0,0,0,0,0,0,0,0,0,0,0,0,0,0,0,0,0,0,0,0,0,0,0,0,0,0,0,0,0,0,0,0,0,6863,6863,6863,6863,6863,6863,6863,6863,0,0,0,0,0,0,0,0,0,0,0,0,0,0,0,0,0,0,0,0,0,0,0,0,0,0,0,0,0,0,0,0,0,0,0,0,0,0,0,0,0,0,0,0,0,0,0,0,0,0,0,0,0,0,
0,0,0,0,0,0,0,0,0,0,0,0,0,0,0,0,0,0,0,0,0,0,0,0,0,0,0,0,0,0,0,0,0,0,0,0,0,0,0,0,0,0,0,0,0,0,0,0,0,0,0,0,0,0,0,0,0,0,0,0,0,0,0,0,0,0,0,0,6863,6863,6863,6863,6863,6863,6863,0,0,0,0,0,0,0,0,0,0,0,0,0,0,0,0,0,0,0,0,0,0,0,0,0,0,0,0,0,0,0,0,0,0,0,0,0,0,0,0,0,0,0,0,0,0,0,0,0,0,0,0,0,0,0,
0,0,0,0,0,0,0,0,0,0,0,0,0,0,0,0,0,0,0,0,0,0,0,0,0,0,0,0,0,0,0,0,0,0,0,0,0,0,0,0,0,0,0,0,0,0,0,0,0,0,0,0,0,0,0,0,0,0,0,0,0,0,0,0,0,0,0,0,6863,6863,6863,6863,6863,6863,6863,0,0,0,0,0,0,0,0,0,0,0,0,0,0,0,0,0,0,0,0,0,0,0,0,0,0,0,0,0,0,0,0,0,0,0,0,0,0,0,0,0,0,0,0,0,0,0,0,0,0,0,0,0,0,0,
0,0,0,0,0,0,0,0,0,0,0,0,0,0,0,0,0,0,0,0,0,0,0,0,0,0,0,0,0,0,0,0,0,0,0,0,0,0,0,0,0,0,0,0,0,0,0,0,0,0,0,0,0,0,0,0,0,0,0,0,0,0,0,0,0,0,0,0,6863,6863,6863,6863,6863,6863,6863,0,0,0,0,0,0,0,0,0,0,0,0,0,0,0,0,0,0,0,0,0,0,0,0,0,0,0,0,0,0,0,0,0,0,0,0,0,0,0,0,0,0,0,0,0,0,0,0,0,0,0,0,0,0,0,
0,0,0,0,0,0,0,0,0,0,0,0,0,0,0,0,0,0,0,0,0,0,0,0,0,0,0,0,0,0,0,0,0,0,0,0,0,0,0,0,0,0,0,0,0,0,0,0,0,0,0,0,0,0,0,0,0,0,0,0,0,0,0,0,0,0,0,0,6863,6863,6863,6863,6863,6863,6863,6863,0,0,0,0,0,0,0,0,0,0,0,0,0,0,0,0,0,0,0,0,0,0,0,0,0,0,0,0,0,0,0,0,0,0,0,0,0,0,0,0,0,0,0,0,0,0,0,0,0,0,0,0,0,0,
0,0,0,0,0,0,0,0,0,0,0,0,0,0,0,0,0,0,0,0,0,0,0,0,0,0,0,0,0,0,0,0,0,0,0,0,0,0,0,0,0,0,0,0,0,0,0,0,0,0,0,0,0,0,0,0,0,0,0,0,0,0,0,0,0,0,0,0,6863,6863,6863,6863,6863,6863,6863,6863,6863,0,0,0,0,0,0,0,0,0,0,0,0,0,0,0,0,0,0,0,0,0,0,0,0,0,0,0,0,0,0,0,0,0,0,0,0,0,0,0,0,0,0,0,0,0,0,0,0,0,0,0,0,0,
0,0,0,0,0,0,0,0,0,0,0,0,0,0,0,0,0,0,0,0,0,0,0,0,0,0,0,0,0,0,0,0,0,0,0,0,0,0,0,0,0,0,0,0,0,0,0,0,0,0,0,0,0,0,0,0,0,0,0,0,0,0,0,0,0,0,0,0,0,6863,6863,6863,6863,6863,6863,6863,6863,6863,0,0,0,0,0,0,0,0,0,0,0,0,0,0,0,0,0,0,0,0,0,0,0,0,0,0,0,0,0,0,0,0,0,0,0,0,0,0,0,0,0,0,0,0,0,0,0,0,0,0,0,0,
0,0,0,0,0,0,0,0,0,0,0,0,0,0,0,0,0,0,0,0,0,0,0,0,0,0,0,0,0,0,0,0,0,0,0,0,0,0,0,0,0,0,0,0,0,0,0,0,0,0,0,0,0,0,0,0,0,0,0,0,0,0,0,0,0,0,0,0,0,0,6863,6863,6863,6863,6863,6863,6863,6863,0,0,0,0,0,0,0,0,0,0,0,0,0,0,0,0,0,0,0,0,0,0,0,0,0,0,0,0,0,0,0,0,0,0,0,0,0,0,0,0,0,0,0,0,0,0,0,0,0,0,0,0,
0,0,0,0,0,0,0,0,0,0,0,0,0,0,0,0,0,0,0,0,0,0,0,0,0,0,0,0,0,0,0,0,0,0,0,0,0,0,0,0,0,0,0,0,0,0,0,0,0,0,0,0,0,0,0,0,0,0,0,0,0,0,0,0,0,0,0,0,0,0,6863,6863,6863,6863,6863,6863,6863,6863,0,0,0,0,0,0,0,0,0,0,0,0,0,0,0,0,0,0,0,0,0,0,0,0,0,0,0,0,0,0,0,0,0,0,0,0,0,0,0,0,0,0,0,0,0,0,0,0,0,0,0,0,
0,0,0,0,0,0,0,0,0,0,0,0,0,0,0,0,0,0,0,0,0,0,0,0,0,0,0,0,0,0,0,0,0,0,0,0,0,0,0,0,0,0,0,0,0,0,0,0,0,0,0,0,0,0,0,0,0,0,0,0,0,0,0,0,0,0,0,0,0,0,6863,6863,6863,6863,6863,6863,6863,6863,0,0,0,0,0,0,0,0,0,0,0,0,0,0,0,0,0,0,0,0,0,0,0,0,0,0,0,0,0,0,0,0,0,0,0,0,0,0,0,0,0,0,0,0,0,0,0,0,0,0,0,0,
0,0,0,0,0,0,0,0,0,0,0,0,0,0,0,0,0,0,0,0,0,0,0,0,0,0,0,0,0,0,0,0,0,0,0,0,0,0,0,0,0,0,0,0,0,0,0,0,0,0,0,0,0,0,0,0,0,0,0,0,0,0,0,0,0,0,0,0,0,0,6863,6863,6863,6863,6863,6863,6863,6863,0,0,0,0,0,0,0,0,0,0,0,0,0,0,0,0,0,0,0,0,0,0,0,0,0,0,0,0,0,0,0,0,0,0,0,0,0,0,0,0,0,0,0,0,0,0,0,0,0,0,0,0,
0,0,0,0,0,0,0,0,0,0,0,0,0,0,0,0,0,0,0,0,0,0,0,0,0,0,0,0,0,0,0,0,0,0,0,0,0,0,0,0,0,0,0,0,0,0,0,0,0,0,0,0,0,0,0,0,0,0,0,0,0,0,0,0,0,0,0,0,0,0,6863,6863,6863,6863,6863,6863,6863,6863,0,0,0,0,0,0,0,0,0,0,0,0,0,0,0,0,0,0,0,0,0,0,0,0,0,0,0,0,0,0,0,0,0,0,0,0,0,0,0,0,0,0,0,0,0,0,0,0,0,0,0,0,
0,0,0,0,0,0,0,0,0,0,0,0,0,0,0,0,0,0,0,0,0,0,0,0,0,0,0,0,0,0,0,0,0,0,0,0,0,0,0,0,0,0,0,0,0,0,0,0,0,0,0,0,0,0,0,0,0,0,0,0,0,0,0,0,0,0,0,0,0,0,6863,6863,6863,6863,6863,6863,6863,6863,0,0,0,0,0,0,0,0,0,0,0,0,0,0,0,0,0,0,0,0,0,0,0,0,0,0,0,0,0,0,0,0,0,0,0,0,0,0,0,0,0,0,0,0,0,0,0,0,0,0,0,0,
0,0,0,0,0,0,0,0,0,0,0,0,0,0,0,0,0,0,0,0,0,0,0,0,0,0,0,0,0,0,0,0,0,0,0,0,0,0,0,0,0,0,0,0,0,0,0,0,0,0,0,0,0,0,0,0,0,0,0,0,0,0,0,0,0,0,0,0,0,0,6863,6863,6863,6863,6863,6863,6863,6863,0,0,0,0,0,0,0,0,0,0,0,0,0,0,0,0,0,0,0,0,0,0,0,0,0,0,0,0,0,0,0,0,0,0,0,0,0,0,0,0,0,0,0,0,0,0,0,0,0,0,0,0,
0,0,0,0,0,0,0,0,0,0,0,0,0,0,0,0,0,0,0,0,0,0,0,0,0,0,0,0,0,0,0,0,0,0,0,0,0,0,0,0,0,0,0,0,0,0,0,0,0,0,0,0,0,0,0,0,0,0,0,0,0,0,0,0,0,0,0,0,0,0,6863,6863,6863,6863,6863,6863,6863,6863,6863,0,0,0,0,0,0,0,0,0,0,0,0,0,0,0,0,0,0,0,0,0,0,0,0,0,0,0,0,0,0,0,0,0,0,0,0,0,0,0,0,0,0,0,0,0,0,0,0,0,0,0,
0,0,0,0,0,0,0,0,0,0,0,0,0,0,0,0,0,0,0,0,0,0,0,0,0,0,0,0,0,0,0,0,0,0,0,0,0,0,0,0,0,0,0,0,0,0,0,0,0,0,0,0,0,0,0,0,0,0,0,0,0,0,0,0,0,0,0,0,0,0,6863,6863,6863,6863,6863,6863,6863,6863,6863,6863,6863,6863,6863,0,0,0,0,0,0,0,0,0,0,0,0,0,0,0,0,0,0,0,0,0,0,0,0,0,0,0,0,0,0,0,0,0,0,0,0,0,0,0,0,0,0,0,0,0,0,0,
0,0,0,0,0,0,0,0,0,0,0,0,0,0,0,0,0,0,0,0,0,0,0,0,0,0,0,0,0,0,0,0,0,0,0,0,0,0,0,0,0,0,0,0,0,0,0,0,0,0,0,0,0,0,0,0,0,0,0,0,0,0,0,0,0,0,0,0,0,0,6863,6863,6863,6863,6863,6863,6863,6863,6863,6863,6863,6863,6863,6863,0,0,0,0,0,0,0,0,0,0,0,0,0,0,0,0,0,0,0,0,0,0,0,0,0,0,0,0,0,0,0,0,0,0,0,0,0,0,0,0,0,0,0,0,0,0,
0,0,0,0,0,0,0,0,0,0,0,0,0,0,0,0,0,0,0,0,0,0,0,0,0,0,0,0,0,0,0,0,0,0,0,0,0,0,0,0,0,0,0,0,0,0,0,0,0,0,0,0,0,0,0,0,0,0,0,0,0,0,0,0,0,0,0,0,0,0,0,6863,6863,6863,6863,6863,6863,6863,6863,6863,6863,6863,6863,6863,6863,0,0,0,0,0,0,0,0,0,0,0,0,0,0,0,0,0,0,0,0,0,0,0,0,0,0,0,0,0,0,0,0,0,0,0,0,0,0,0,0,0,0,0,0,0,
0,0,0,0,0,0,0,0,0,0,0,0,0,0,0,0,0,0,0,0,0,0,0,0,0,0,0,0,0,0,0,0,0,0,0,0,0,0,0,0,0,0,0,0,0,0,0,0,0,0,0,0,0,0,0,0,0,0,0,0,0,0,0,0,0,0,0,0,0,0,0,0,6863,6863,6863,6863,6863,6863,6863,6863,6863,6863,6863,6863,6863,6863,0,0,0,0,0,0,0,0,0,0,0,0,0,0,0,0,0,0,0,0,0,0,0,0,0,0,0,0,0,0,0,0,0,0,0,0,0,0,0,0,0,0,0,0,
0,0,0,0,0,0,0,0,0,0,0,0,0,0,0,0,0,0,0,0,0,0,0,0,0,0,0,0,0,0,0,0,0,0,0,0,0,0,0,0,0,0,0,0,0,0,0,0,0,0,0,0,0,0,0,0,0,0,0,0,0,0,0,0,0,0,0,0,0,0,0,0,0,6863,6863,6863,6863,6863,6863,6863,6863,6863,6863,6863,6863,6863,0,0,0,0,0,0,0,0,0,0,0,0,0,0,0,0,0,0,0,0,0,0,0,0,0,0,0,0,0,0,0,0,0,0,0,0,0,0,0,0,0,0,0,0,
0,0,0,0,0,0,0,0,0,0,0,0,0,0,0,0,0,0,0,0,0,0,0,0,0,0,0,0,0,0,0,0,0,0,0,0,0,0,0,0,0,0,0,0,0,0,0,0,0,0,0,0,0,0,0,0,0,0,0,0,0,0,0,0,0,0,0,0,0,0,0,0,0,0,0,0,0,6863,6863,6863,6863,6863,6863,6863,6863,6863,0,0,0,0,0,0,0,0,0,0,0,0,0,0,0,0,0,0,0,0,0,0,0,0,0,0,0,0,0,0,0,0,0,0,0,0,0,0,0,0,0,0,0,0,
0,0,0,0,0,0,0,0,0,0,0,0,0,0,0,0,0,0,0,0,0,0,0,0,0,0,0,0,0,0,0,0,0,0,0,0,0,0,0,0,0,0,0,0,0,0,0,0,0,0,0,0,0,0,0,0,0,0,0,0,0,0,0,0,0,0,0,0,0,0,0,0,0,0,0,0,0,0,6863,6863,6863,6863,6863,6863,6863,6863,0,0,0,0,0,0,0,0,0,0,0,0,0,0,0,0,0,0,0,0,0,0,0,0,0,0,0,0,0,0,0,0,0,0,0,0,0,0,0,0,0,0,0,0,
0,0,0,0,0,0,0,0,0,0,0,0,0,0,0,0,0,0,0,0,0,0,0,0,0,0,0,0,0,0,0,0,0,0,0,0,0,0,0,0,0,0,0,0,0,0,0,0,0,0,0,0,0,0,0,0,0,0,0,0,0,0,0,0,0,0,0,0,0,0,0,0,0,0,0,0,0,0,0,6863,6863,6863,6863,6863,6863,6863,0,0,0,0,0,0,0,0,0,0,0,0,0,0,0,0,0,0,0,0,0,0,0,0,0,0,0,0,0,0,0,0,0,0,0,0,0,0,0,0,0,0,0,0,
0,0,0,0,0,0,0,0,0,0,0,0,0,0,0,0,0,0,0,0,0,0,0,0,0,0,0,0,0,0,0,0,0,0,0,0,0,0,0,0,0,0,0,0,0,0,0,0,0,0,0,0,0,0,0,0,0,0,0,0,0,0,0,0,0,0,0,0,0,0,0,0,0,0,0,0,0,0,0,0,6863,6863,6863,6863,6863,6863,0,0,0,0,0,0,0,0,0,0,0,0,0,0,0,0,0,0,0,0,0,0,0,0,0,0,0,0,0,0,0,0,0,0,0,0,0,0,0,0,0,0,0,0,
0,0,0,0,0,0,0,0,0,0,0,0,0,0,0,0,0,0,0,0,0,0,0,0,0,0,0,0,0,0,0,0,0,0,0,0,0,0,0,0,0,0,0,0,0,0,0,0,0,0,0,0,0,0,0,0,0,0,0,0,0,0,0,0,0,0,0,0,0,0,0,0,0,0,0,0,0,0,0,0,6863,6863,6863,6863,6863,6863,0,0,0,0,0,0,0,0,0,0,0,0,0,0,0,0,0,0,0,0,0,0,0,0,0,0,0,0,0,0,0,0,0,0,0,0,0,0,0,0,0,0,0,0,
0,0,0,0,0,0,0,0,0,0,0,0,0,0,0,0,0,0,0,0,0,0,0,0,0,0,0,0,0,0,0,0,0,0,0,0,0,0,0,0,0,0,0,0,0,0,0,0,0,0,0,0,0,0,0,0,0,0,0,0,0,0,0,0,0,0,0,0,0,0,0,0,0,0,0,0,0,0,0,6863,6863,6863,6863,6863,6863,6863,0,0,0,0,0,0,0,0,0,0,0,0,0,0,0,0,0,0,0,0,0,0,0,0,0,0,0,0,0,0,0,0,0,0,0,0,0,0,0,0,0,0,0,0,
0,0,0,0,0,0,0,0,0,0,0,0,0,0,0,0,0,0,0,0,0,0,0,0,0,0,0,0,0,0,0,0,0,0,0,0,0,0,0,0,0,0,0,0,0,0,0,0,0,0,0,0,0,0,0,0,0,0,0,0,0,0,0,0,0,0,0,0,0,0,0,0,0,0,0,0,0,0,6863,6863,6863,6863,6863,6863,6863,0,0,0,0,0,0,0,0,0,0,0,0,0,0,0,0,0,0,0,0,0,0,0,0,0,0,0,0,0,0,0,0,0,0,0,0,0,0,0,0,0,0,0,0,0,
0,0,0,0,0,0,0,0,0,0,0,0,0,0,0,0,0,0,0,0,0,0,0,0,0,0,0,0,0,0,0,0,0,0,0,0,0,0,0,0,0,0,0,0,0,0,0,0,0,0,0,0,0,0,0,0,0,0,0,0,0,0,0,0,0,0,0,0,0,0,0,0,0,0,0,0,0,0,6863,6863,6863,6863,6863,6863,0,0,0,0,0,0,0,0,0,0,0,0,0,0,0,0,0,0,0,0,0,0,0,0,0,0,0,0,0,0,0,0,0,0,0,0,0,0,0,0,0,0,0,0,0,0,
0,0,0,0,0,0,0,0,0,0,0,0,0,0,0,0,0,0,0,0,0,0,0,0,0,0,0,0,0,0,0,0,0,0,0,0,0,0,0,0,0,0,0,0,0,0,0,0,0,0,0,0,0,0,0,0,0,0,0,0,0,0,0,0,0,0,0,0,0,0,0,0,0,0,0,0,0,6863,6863,6863,6863,6863,6863,6863,0,0,0,0,0,0,0,0,0,0,0,0,0,0,0,0,0,0,0,0,0,0,0,0,0,0,0,0,0,0,0,0,0,0,0,0,0,0,0,0,0,0,0,0,0,0,
0,0,0,0,0,0,0,0,0,0,0,0,0,0,0,0,0,0,0,0,0,0,0,0,0,0,0,0,0,0,0,0,0,0,0,0,0,0,0,0,0,0,0,0,0,0,0,0,0,0,0,0,0,0,0,0,0,0,0,0,0,0,0,0,0,0,0,0,0,0,0,0,0,0,0,0,6863,6863,6863,6863,6863,6863,6863,6863,0,0,0,0,0,0,0,0,0,0,0,0,0,0,0,0,0,0,0,0,0,0,0,0,0,0,0,0,0,0,0,0,0,0,0,0,0,0,0,0,0,0,0,0,0,0,
0,0,0,0,0,0,0,0,0,0,0,0,0,0,0,0,0,0,0,0,0,0,0,0,0,0,0,0,0,0,0,0,0,0,0,0,0,0,0,0,0,0,0,0,0,0,0,0,0,0,0,0,0,0,0,0,0,0,0,0,0,0,0,0,0,0,0,0,0,0,0,0,0,0,0,6863,6863,6863,6863,6863,6863,6863,6863,6863,0,0,0,0,0,0,0,0,0,0,0,0,0,0,0,0,0,0,0,0,0,0,0,0,0,0,0,0,0,0,0,0,0,0,0,0,0,0,0,0,0,0,0,0,0,0,
0,0,0,0,0,0,0,0,0,0,0,0,0,0,0,0,0,0,0,0,0,0,0,0,0,0,0,0,0,0,0,0,0,0,0,0,0,0,0,0,0,0,0,0,0,0,0,0,0,0,0,0,0,0,0,0,0,0,0,0,0,0,0,0,0,0,0,0,0,0,0,0,0,0,0,6863,6863,6863,6863,6863,6863,6863,6863,6863,0,0,0,0,0,0,0,0,0,0,0,0,0,0,0,0,0,0,0,0,0,0,0,0,0,0,0,0,0,0,0,0,0,0,0,0,0,0,0,0,0,0,0,0,0,0,
0,0,0,0,0,0,0,0,0,0,0,0,0,0,0,0,0,0,0,0,0,0,0,0,0,0,0,0,0,0,0,0,0,0,0,0,0,0,0,0,0,0,0,0,0,0,0,0,0,0,0,0,0,0,0,0,0,0,0,0,0,0,0,0,0,0,0,0,0,0,0,0,0,6863,6863,6863,6863,6863,6863,6863,6863,6863,6863,0,0,0,0,0,0,0,0,0,0,0,0,0,0,0,0,0,0,0,0,0,0,0,0,0,0,0,0,0,0,0,0,0,0,0,0,0,0,0,0,0,0,0,0,0,0,0,
0,0,0,0,0,0,0,0,0,0,0,0,0,0,0,0,0,0,0,0,0,0,0,0,0,0,0,0,0,0,0,0,0,0,0,0,0,0,0,0,0,0,0,0,0,0,0,0,0,0,0,0,0,0,0,0,0,0,0,0,0,0,0,0,0,0,0,0,0,0,0,0,0,6863,6863,6863,6863,6863,6863,6863,6863,6863,0,0,0,0,0,0,0,0,0,0,0,0,0,0,0,0,0,0,0,0,0,0,0,0,0,0,0,0,0,0,0,0,0,0,0,0,0,0,0,0,0,0,0,0,0,0,0,0,
0,0,0,0,0,0,0,0,0,0,0,0,0,0,0,0,0,0,0,0,0,0,0,0,0,0,0,0,0,0,0,0,0,0,0,0,0,0,0,0,0,0,0,0,0,0,0,0,0,0,0,0,0,0,0,0,0,0,0,0,0,0,0,0,0,0,0,0,0,0,0,0,6863,6863,6863,6863,6863,6863,6863,6863,6863,0,0,0,0,0,0,0,0,0,0,0,0,0,0,0,0,0,0,0,0,0,0,0,0,0,0,0,0,0,0,0,0,0,0,0,0,0,0,0,0,0,0,0,0,0,0,0,0,0,
0,0,0,0,0,0,0,0,0,0,0,0,0,0,0,0,0,0,0,0,0,0,0,0,0,0,0,0,0,0,0,0,0,0,0,0,0,0,0,0,0,0,0,0,0,0,0,0,0,0,0,0,0,0,0,0,0,0,0,0,0,0,0,0,0,0,0,0,0,0,0,6863,6863,6863,6863,6863,6863,6863,6863,6863,0,0,0,0,0,0,0,0,0,0,0,0,0,0,0,0,0,0,0,0,0,0,0,0,0,0,0,0,0,0,0,0,0,0,0,0,0,0,0,0,0,0,0,0,0,0,0,0,0,0,
0,0,0,0,0,0,0,0,0,0,0,0,0,0,0,0,0,0,0,0,0,0,0,0,0,0,0,0,0,0,0,0,0,0,0,0,0,0,0,0,0,0,0,0,0,0,0,0,0,0,0,0,0,0,0,0,0,0,0,0,0,0,0,0,0,0,0,0,0,0,0,6863,6863,6863,6863,6863,6863,6863,6863,0,0,0,0,0,0,0,0,0,0,0,0,0,0,0,0,0,0,0,0,0,0,0,0,0,0,0,0,0,0,0,0,0,0,0,0,0,0,0,0,0,0,0,0,0,0,0,0,0,0,0,
0,0,0,0,0,0,0,0,0,0,0,0,0,0,0,0,0,0,0,0,0,0,0,0,0,0,0,0,0,0,0,0,0,0,0,0,0,0,0,0,0,0,0,0,0,0,0,0,0,0,0,0,0,0,0,0,0,0,0,0,0,0,0,0,0,0,0,0,0,0,6863,6863,6863,6863,6863,6863,6863,6863,0,0,0,0,0,0,0,0,0,0,0,0,0,0,0,0,0,0,0,0,0,0,0,0,0,0,0,0,0,0,0,0,0,0,0,0,0,0,0,0,0,0,0,0,0,0,0,0,0,0,0,0,
0,0,0,0,0,0,0,0,0,0,0,0,0,0,0,0,0,0,0,0,0,0,0,0,0,0,0,0,0,0,0,0,0,0,0,0,0,0,0,0,0,0,0,0,0,0,0,0,0,0,0,0,0,0,0,0,0,0,0,0,0,0,0,0,0,0,0,0,0,0,6863,6863,6863,6863,6863,6863,6863,0,0,0,0,0,0,0,0,0,0,0,0,0,0,0,0,0,0,0,0,0,0,0,0,0,0,0,0,0,0,0,0,0,0,0,0,0,0,0,0,0,0,0,0,0,0,0,0,0,0,0,0,0,
0,0,0,0,0,0,0,0,0,0,0,0,0,0,0,0,0,0,0,0,0,0,0,0,0,0,0,0,0,0,0,0,0,0,0,0,0,0,0,0,0,0,0,0,0,0,0,0,0,0,0,0,0,0,0,0,0,0,0,0,0,0,0,0,0,0,0,0,0,0,6863,6863,6863,6863,6863,6863,6863,0,0,0,0,0,0,0,0,0,0,0,0,0,0,0,0,0,0,0,0,0,0,0,0,0,0,0,0,0,0,0,0,0,0,0,0,0,0,0,0,0,0,0,0,0,0,0,0,0,0,0,0,0,
0,0,0,0,0,0,0,0,0,0,0,0,0,0,0,0,0,0,0,0,0,0,0,0,0,0,0,0,0,0,0,0,0,0,0,0,0,0,0,0,0,0,0,0,0,0,0,0,0,0,0,0,0,0,0,0,0,0,0,0,0,0,0,0,0,0,0,0,0,0,6863,6863,6863,6863,6863,6863,6863,0,0,0,0,0,0,0,0,0,0,0,0,0,0,0,0,0,0,0,0,0,0,0,0,0,0,0,0,0,0,0,0,0,0,0,0,0,0,0,0,0,0,0,0,0,0,0,0,0,0,0,0,0,
0,0,0,0,0,0,0,0,0,0,0,0,0,0,0,0,0,0,0,0,0,0,0,0,0,0,0,0,0,0,0,0,0,0,0,0,0,0,0,0,0,0,0,0,0,0,0,0,0,0,0,0,0,0,0,0,0,0,0,0,0,0,0,0,0,0,0,0,0,0,6863,6863,6863,6863,6863,6863,6863,0,0,0,0,0,0,0,0,0,0,0,0,0,0,0,0,0,0,0,0,0,0,0,0,0,0,0,0,0,0,0,0,0,0,0,0,0,0,0,0,0,0,0,0,0,0,0,0,0,0,0,0,0,
0,0,0,0,0,0,0,0,0,0,0,0,0,0,0,0,0,0,0,0,0,0,0,0,0,0,0,0,0,0,0,0,0,0,0,0,0,0,0,0,0,0,0,0,0,0,0,0,0,0,0,0,0,0,0,0,0,0,0,0,0,0,0,0,0,0,0,0,0,0,6863,6863,6863,6863,6863,6863,6863,6863,0,0,0,0,0,0,0,0,0,0,0,0,0,0,0,0,0,0,0,0,0,0,0,0,0,0,0,0,0,0,0,0,0,0,0,0,0,0,0,0,0,0,0,0,0,0,0,0,0,0,0,0,
0,0,0,0,0,0,0,0,0,0,0,0,0,0,0,0,0,0,0,0,0,0,0,0,0,0,0,0,0,0,0,0,0,0,0,0,0,0,0,0,0,0,0,0,0,0,0,0,0,0,0,0,0,0,0,0,0,0,0,0,0,0,0,0,0,0,0,0,0,0,0,6863,6863,6863,6863,6863,6863,6863,6863,0,0,0,0,0,0,0,0,0,0,0,0,0,0,0,0,0,0,0,0,0,0,0,0,0,0,0,0,0,0,0,0,0,0,0,0,0,0,0,0,0,0,0,0,0,0,0,0,0,0,0,
0,0,0,0,0,0,0,0,0,0,0,0,0,0,0,0,0,0,0,0,0,0,0,0,0,0,0,0,0,0,0,0,0,0,0,0,0,0,0,0,0,0,0,0,0,0,0,0,0,0,0,0,0,0,0,0,0,0,0,0,0,0,0,0,0,0,0,0,0,0,0,0,6863,6863,6863,6863,6863,6863,6863,6863,6863,6863,0,0,0,0,0,0,0,0,0,0,0,0,0,0,0,0,0,0,0,0,0,0,0,0,0,0,0,0,0,0,0,0,0,0,0,0,0,0,0,0,0,0,0,0,0,0,0,0,
0,0,0,0,0,0,0,0,0,0,0,0,0,0,0,0,0,0,0,0,0,0,0,0,0,0,0,0,0,0,0,0,0,0,0,0,0,0,0,0,0,0,0,0,0,0,0,0,0,0,0,0,0,0,0,0,0,0,0,0,0,0,0,0,0,0,0,0,0,0,0,0,0,0,6863,6863,6863,6863,6863,6863,6863,6863,0,0,0,0,0,0,0,0,0,0,0,0,0,0,0,0,0,0,0,0,0,0,0,0,0,0,0,0,0,0,0,0,0,0,0,0,0,0,0,0,0,0,0,0,0,0,0,0,
0,0,0,0,0,0,0,0,0,0,0,0,0,0,0,0,0,0,0,0,0,0,0,0,0,0,0,0,0,0,0,0,0,0,0,0,0,0,0,0,0,0,0,0,0,0,0,0,0,0,0,0,0,0,0,0,0,0,0,0,0,0,0,0,0,0,0,0,0,0,0,0,0,0,0,6863,6863,6863,6863,6863,6863,6863,0,0,0,0,0,0,0,0,0,0,0,0,0,0,0,0,0,0,0,0,0,0,0,0,0,0,0,0,0,0,0,0,0,0,0,0,0,0,0,0,0,0,0,0,0,0,0,0,
0,0,0,0,0,0,0,0,0,0,0,0,0,0,0,0,0,0,0,0,0,0,0,0,0,0,0,0,0,0,0,0,0,0,0,0,0,0,0,0,0,0,0,0,0,0,0,0,0,0,0,0,0,0,0,0,0,0,0,0,0,0,0,0,0,0,0,0,0,0,0,0,0,0,0,6863,6863,6863,6863,6863,6863,6863,6863,0,0,0,0,0,0,0,0,0,0,0,0,0,0,0,0,0,0,0,0,0,0,0,0,0,0,0,0,0,0,0,0,0,0,0,0,0,0,0,0,0,0,0,0,0,0,0,
0,0,0,0,0,0,0,0,0,0,0,0,0,0,0,0,0,0,0,0,0,0,0,0,0,0,0,0,0,0,0,0,0,0,0,0,0,0,0,0,0,0,0,0,0,0,0,0,0,0,0,0,0,0,0,0,0,0,0,0,0,0,0,0,0,0,0,0,0,0,0,0,0,0,0,6863,6863,6863,6863,6863,6863,6863,6863,0,0,0,0,0,0,0,0,0,0,0,0,0,0,0,0,0,0,0,0,0,0,0,0,0,0,0,0,0,0,0,0,0,0,0,0,0,0,0,0,0,0,0,0,0,0,0,
0,0,0,0,0,0,0,0,0,0,0,0,0,0,0,0,0,0,0,0,0,0,0,0,0,0,0,0,0,0,0,0,0,0,0,0,0,0,0,0,0,0,0,0,0,0,0,0,0,0,0,0,0,0,0,0,0,0,0,0,0,0,0,0,0,0,0,0,0,0,0,0,0,0,0,6863,6863,6863,6863,6863,6863,6863,6863,0,0,0,0,0,0,0,0,0,0,0,0,0,0,0,0,0,0,0,0,0,0,0,0,0,0,0,0,0,0,0,0,0,0,0,0,0,0,0,0,0,0,0,0,0,0,0,
6863,6863,6863,6863,6863,6863,6863,6863,6863,6863,0,0,0,0,0,0,0,0,0,0,0,0,0,0,0,0,0,0,0,0,0,0,0,0,0,0,0,0,0,0,0,0,0,0,0,0,0,0,0,0,0,0,0,0,0,0,0,0,0,0,0,0,0,0,0,0,0,0,0,0,0,0,0,0,0,6887,6887,6887,6887,6887,6887,6887,6887,0,0,0,0,0,0,0,0,0,0,0,0,0,0,0,0,0,0,0,0,0,0,0,0,0,0,0,0,0,0,0,0,0,0,0,0,0,0,0,0,0,0,0,0,0,0,0,
6863,6863,6863,6863,6863,6863,6863,6863,6863,6863,6863,6863,6863,6863,0,0,0,0,0,0,0,0,0,0,0,0,0,0,0,0,0,0,0,0,0,0,0,0,0,0,0,0,0,0,0,0,0,0,0,0,0,0,0,0,0,0,0,0,0,0,0,0,0,0,0,0,0,0,0,0,0,0,0,0,0,6887,6887,6887,6887,6887,6887,6887,6887,0,0,0,0,0,0,0,0,0,0,0,0,0,0,0,0,0,0,0,0,0,0,0,0,0,0,0,0,0,0,0,0,0,0,0,0,0,0,0,0,0,0,0,0,0,0,0,
6863,6863,6863,6863,6863,6863,6863,6863,6863,6863,6863,6863,6863,6863,6863,0,0,0,0,0,0,0,0,0,0,0,0,0,0,0,0,0,0,0,0,0,0,0,0,0,0,0,0,0,0,0,0,0,0,0,0,0,0,0,0,0,0,0,0,0,0,0,0,0,0,0,0,0,0,0,0,0,0,0,0,6863,6863,6863,6863,6863,6863,6863,6863,0,0,0,0,0,0,0,0,0,0,0,0,0,0,0,0,0,0,0,0,0,0,0,0,0,0,0,0,0,0,0,0,0,0,0,0,0,0,0,0,0,0,0,0,0,0,0,
6863,6863,6863,6863,6863,6863,6863,6863,6863,6863,6863,6863,6863,6863,6863,6863,6863,6863,6863,6863,0,0,0,0,0,0,0,0,0,0,0,0,0,0,0,0,0,0,0,0,0,0,0,0,0,0,0,0,0,0,0,0,0,0,0,0,0,0,0,0,0,0,0,0,0,0,0,0,0,0,0,0,0,0,0,6863,6863,6863,6863,6863,6863,6863,6863,0,0,0,0,0,0,0,0,0,0,0,0,0,0,0,0,0,0,0,0,0,0,0,0,0,0,0,0,0,0,0,0,0,0,0,0,0,0,0,0,0,0,0,0,0,0,0,
6863,6863,6863,6863,6863,6863,6863,6863,6863,6863,6863,6863,6863,6863,6863,6863,6863,6863,6863,6863,6863,0,0,0,0,0,0,0,0,0,0,0,0,0,0,0,0,0,0,0,0,0,0,0,0,0,0,0,0,0,0,0,0,0,0,0,0,0,0,0,0,0,0,0,0,0,0,0,0,0,0,0,0,0,0,6863,6863,6863,6863,6863,6863,6863,6863,0,0,0,0,0,0,0,0,0,0,0,0,0,0,0,0,0,0,0,0,0,0,0,0,0,0,0,0,0,0,0,0,0,0,0,0,0,0,0,0,0,0,0,0,0,0,0,
6863,6863,6863,6863,6863,6863,6863,6863,6863,6863,6863,6863,6863,6863,6863,6863,6863,6863,6863,6863,6863,6863,0,0,0,0,0,0,0,0,0,0,0,0,0,0,0,0,0,0,0,0,0,0,0,0,0,0,0,0,0,0,0,0,0,0,0,0,0,0,0,0,0,0,0,0,0,0,0,0,0,0,0,0,0,6863,6863,6863,6863,6863,6863,6863,6863,0,0,0,0,0,0,0,0,0,0,0,0,0,0,0,0,0,0,0,0,0,0,0,0,0,0,0,0,0,0,0,0,0,0,0,0,0,0,0,0,0,0,0,0,0,0,0,
6863,6863,6863,6863,6863,6863,6863,6863,6863,6863,6863,6863,6863,6863,6863,6863,6863,6863,6863,6863,6863,6863,0,0,0,0,0,0,0,0,0,0,0,0,0,0,0,0,0,0,0,0,0,0,0,0,0,0,0,0,0,0,0,0,0,0,0,0,0,0,0,0,0,0,0,0,0,0,0,0,0,0,0,0,0,6863,6863,6863,6863,6863,6863,6863,6863,0,0,0,0,0,0,0,0,0,0,0,0,0,0,0,0,0,0,0,0,0,0,0,0,0,0,0,0,0,0,0,0,0,0,0,0,0,0,0,0,0,0,0,0,0,0,0,
6863,6863,6863,6863,6863,6863,6863,6863,6863,6863,6863,6863,6863,6863,6863,6863,6863,6863,6863,6863,6863,6863,6863,6863,6863,6863,6863,6863,6863,0,0,0,0,0,0,0,0,0,0,0,0,0,0,0,0,0,0,0,0,0,0,0,0,0,0,0,0,0,6863,6863,6863,6863,6863,6863,6863,6863,6863,6863,6863,0,0,0,0,0,6863,6863,6863,6863,6863,6863,6863,6863,6863,0,0,0,0,0,0,0,0,0,0,0,0,0,0,0,0,0,0,0,0,0,0,0,0,0,0,0,0,0,0,0,0,0,0,0,0,0,0,0,0,0,0,0,0,0,0,0,
6863,6863,6863,6863,6863,6863,6863,6863,6863,6863,6863,6863,6863,6863,6863,6863,6863,6863,6863,6863,6863,6863,6863,6863,6863,6863,6863,6863,6863,6863,6863,6863,6863,6863,6863,6863,6863,6863,6863,0,0,0,0,0,0,0,0,6863,6863,6863,6863,6863,6863,6863,6863,6863,6863,6863,6863,6863,6863,6863,6863,6863,6863,6863,6863,6863,6863,6863,6863,6863,6863,6863,6863,6863,6863,6863,6863,6863,6863,6863,6863,6863,0,0,0,0,0,0,0,0,0,0,0,0,0,0,0,0,0,0,0,0,0,0,0,0,0,0,0,0,0,0,0,0,0,0,0,0,0,0,0,0,0,0,0,0,0,0,
6863,6863,6863,6863,6863,6863,6863,6863,6863,6863,6863,6863,6863,6863,6863,6863,6863,6863,6863,6863,6863,6863,6863,6863,6863,6863,6863,6863,6863,6863,6863,6863,6863,6863,6863,6863,6863,6863,6863,6863,6863,6863,6863,6863,6863,6863,6863,6863,6863,6863,6863,6863,6863,6863,6863,6863,6863,6863,6863,6863,6863,6863,6863,6863,6863,6863,6863,6863,6863,6863,6863,6863,6863,6863,6863,6863,6863,6863,6863,6863,6863,6863,6863,6863,6863,0,0,0,0,0,0,0,0,0,0,0,0,0,0,0,0,0,0,0,0,0,0,0,0,0,0,0,0,0,0,0,0,0,0,0,0,0,0,0,0,0,0,0,0,0,
6863,6863,6863,6863,6863,6863,6863,6863,6863,6863,6863,6863,6863,6863,6863,6863,6863,6863,6863,6863,6863,6863,6863,6863,6863,6863,6863,6863,6863,6863,6863,6863,6863,6863,6863,6863,6863,6863,6863,6863,6863,6863,6863,6863,6863,6863,6863,6863,6863,6863,6863,6863,6863,6863,6863,6863,6863,6863,6863,6863,6863,6863,6863,6863,6863,6863,6863,6863,6863,6863,6863,6863,6863,6863,6863,6863,6863,6863,6863,6863,6863,6863,6863,6863,6863,6863,6863,6863,6863,6863,6863,0,0,0,0,0,0,0,0,0,0,0,0,0,0,0,0,0,0,0,0,0,0,0,0,0,0,0,0,0,0,0,0,0,0,0,0,0,0,0,
0,0,0,0,6863,6863,6863,6863,6863,6863,6863,6863,6863,6863,6863,6863,6863,6863,6863,6863,6863,6863,6863,6863,6863,6863,6863,6863,6863,6863,6863,6863,6863,6863,6863,6863,6863,6863,6863,6863,6863,6863,6863,6863,6863,6863,6863,6863,6863,6863,6863,6863,6863,6863,6863,6863,6863,6863,6863,6863,6863,6863,6863,6863,6863,6863,6863,6863,6863,6863,6863,6863,6863,6863,6863,6863,6863,0,0,0,6863,6863,6863,6863,6863,6863,6863,6863,6863,6863,6863,6863,0,0,0,0,0,0,0,0,0,0,0,0,0,0,0,0,0,0,0,0,0,0,0,0,0,0,0,0,0,0,0,0,0,0,0,0,0,0,
0,0,0,0,0,0,0,0,0,0,0,0,0,0,0,0,0,6863,6863,6863,6863,6863,6863,6863,6863,6863,6863,6863,6863,6863,6863,6863,6863,6863,6863,6863,6863,6863,6863,6863,6863,6863,6863,6863,6863,6863,6863,6863,6863,6863,6863,6863,6863,6863,6863,6863,6863,6863,6863,0,0,0,0,6863,6863,6863,6863,6863,6863,6863,6863,6863,6863,6863,6863,6863,0,0,0,0,0,6863,6863,6863,6863,6863,6863,6863,6863,6863,6863,6863,6863,0,0,0,0,0,0,0,0,0,0,0,0,0,0,0,0,0,0,0,0,0,0,0,0,0,0,0,0,0,0,0,0,0,0,0,0,0,
0,0,0,0,0,0,0,0,0,0,0,0,0,0,0,0,0,0,0,0,0,0,0,6863,6863,6863,6863,6863,6863,6863,6863,6863,6863,6863,6863,6863,6863,6863,6863,6863,6863,6863,6863,6863,6863,6863,6863,6863,6863,0,0,0,0,0,0,0,0,0,0,0,0,0,0,0,0,0,6863,6863,6863,6863,6863,6863,0,0,0,0,0,0,0,0,0,0,6863,6863,6863,6863,6863,6863,6863,6863,6863,6863,6863,6863,0,0,0,0,0,0,0,0,0,0,0,0,0,0,0,0,0,0,0,0,0,0,0,0,0,0,0,0,0,0,0,0,0,0,0,0,
0,0,0,0,0,0,0,0,0,0,0,0,0,0,0,0,0,0,0,0,0,0,0,0,0,0,0,0,0,0,0,0,0,0,0,0,0,6863,6863,6863,6863,6863,6863,6863,6863,6863,6863,6863,0,0,0,0,0,0,0,0,0,0,0,0,0,0,0,0,0,0,0,0,0,0,0,0,0,0,0,0,0,0,0,0,0,0,0,0,0,6863,6863,6863,6863,6863,6863,6863,6863,6863,0,0,0,0,0,0,0,0,0,0,0,0,0,0,0,0,0,0,0,0,0,0,0,0,0,0,0,0,0,0,0,0,0,0,0,0,
0,0,0,0,0,0,0,0,0,0,0,0,0,0,0,0,0,0,0,0,0,0,0,0,0,0,0,0,0,0,0,0,0,0,0,0,0,0,0,0,0,0,0,0,0,0,0,0,0,0,0,0,0,0,0,0,0,0,0,0,0,0,0,0,0,0,0,0,0,0,0,0,0,0,0,0,0,0,0,0,0,0,0,0,0,0,0,6863,6863,6863,6863,6863,6863,6863,0,0,0,0,0,0,0,0,0,0,0,0,0,0,0,0,0,0,0,0,0,0,0,0,0,0,0,0,0,0,0,0,0,0,0,0
</data>
 </layer>
 <layer id="3" name="kittycatcasey.Stardew3D/FloorData_West" width="130" height="110">
  <data encoding="csv">
0,0,0,0,0,0,0,0,0,0,0,0,0,0,0,0,0,0,0,0,0,0,0,0,0,0,0,0,0,0,0,0,0,0,0,0,0,0,0,0,0,0,0,0,0,0,0,0,0,0,0,0,0,0,0,0,0,0,0,0,0,0,0,0,0,0,0,0,0,0,0,0,0,0,0,0,0,0,0,0,0,0,0,0,0,0,0,0,0,0,0,0,0,0,0,0,0,0,0,0,0,0,0,0,0,0,0,0,0,0,0,0,0,0,0,6871,6871,6871,6871,0,0,0,0,0,0,0,0,0,0,0,
0,0,0,0,0,0,0,0,0,0,0,0,0,0,0,0,0,0,0,0,0,0,0,0,0,0,0,0,0,0,0,0,0,0,0,0,0,0,0,0,0,0,0,0,0,0,0,0,0,0,0,0,0,0,0,0,0,0,0,0,0,0,0,0,0,0,0,0,0,0,0,0,0,0,0,0,0,0,0,0,0,0,0,0,0,0,0,0,0,0,0,0,0,0,0,0,0,0,0,0,0,0,0,0,0,0,0,0,0,0,0,0,0,0,0,6871,6871,6871,6871,0,0,0,0,0,0,0,0,0,0,0,
0,0,0,0,0,0,0,0,0,0,0,0,0,0,0,0,0,0,0,0,0,0,0,0,0,0,0,0,0,0,0,0,0,0,0,0,0,0,0,0,0,0,0,0,0,0,0,0,0,0,0,0,0,0,0,0,0,0,0,0,0,0,0,0,0,0,0,0,0,0,0,0,0,0,0,0,0,0,0,0,0,0,0,0,0,0,0,0,0,0,0,0,0,0,0,0,0,0,0,0,0,0,0,0,0,0,0,0,0,0,0,0,0,0,0,6871,6871,6871,6871,0,0,0,0,0,0,0,0,0,0,0,
0,0,0,0,0,0,0,0,0,0,0,0,0,0,0,0,0,0,0,0,0,0,0,0,0,0,0,0,0,0,0,0,0,0,0,0,0,0,0,0,0,0,0,0,0,0,0,0,0,0,0,0,0,0,0,0,0,0,0,0,0,0,0,0,0,0,0,0,0,0,0,0,0,0,0,0,0,0,0,0,0,0,0,0,0,0,0,0,0,0,0,0,0,0,0,0,0,0,0,0,0,0,0,0,0,0,0,0,0,0,0,0,0,0,0,6871,6871,6871,6871,0,0,0,0,0,0,0,0,0,0,0,
0,0,0,0,0,0,0,0,0,0,0,0,0,0,0,0,0,0,0,0,0,0,0,0,0,0,0,0,0,0,0,0,0,0,0,0,0,0,0,0,0,0,0,0,0,0,0,0,0,0,0,0,0,0,0,0,0,0,0,0,0,0,0,0,0,0,0,0,0,0,0,0,0,0,0,0,0,0,0,0,0,0,0,0,0,0,0,0,0,0,0,0,0,0,0,0,0,0,0,0,0,0,0,0,0,0,0,0,0,0,0,0,0,0,0,6871,6871,6871,6871,0,0,0,0,0,0,0,0,0,0,0,
0,0,0,0,0,0,0,0,0,0,0,0,0,0,0,0,0,0,0,0,0,0,0,0,0,0,0,0,0,0,0,0,0,0,0,0,0,0,0,0,0,0,0,0,0,0,0,0,0,0,0,0,0,0,0,0,0,0,0,0,0,0,0,0,0,0,0,0,0,0,0,0,0,0,0,0,0,0,0,0,0,0,0,0,0,0,0,0,0,0,0,0,0,0,0,0,0,0,0,0,0,0,0,0,0,0,0,0,0,0,0,0,0,0,0,6871,6871,6871,6871,0,0,0,0,0,0,0,0,0,0,0,
0,0,0,0,0,0,0,0,0,0,0,0,0,0,0,0,0,0,0,0,0,0,0,0,0,0,0,0,0,0,0,0,0,0,0,0,0,0,0,0,0,0,0,0,0,0,0,0,0,0,0,0,0,0,0,0,0,0,0,0,0,0,0,0,0,0,0,0,0,0,0,0,0,0,0,0,0,0,0,0,0,0,0,0,0,0,0,0,0,0,0,0,0,0,0,0,0,0,0,0,0,0,0,0,0,0,0,0,0,0,0,0,0,0,0,6871,6871,6871,6871,0,0,0,0,0,0,0,0,0,0,0,
0,0,0,0,0,0,0,0,0,0,0,0,0,0,0,0,0,0,0,0,0,0,0,0,0,0,0,0,0,0,0,0,0,0,0,0,0,0,0,0,0,0,0,0,0,0,0,0,0,0,0,0,0,0,0,0,0,0,0,0,0,0,0,0,0,0,0,0,0,0,0,0,0,0,0,0,0,0,0,0,0,0,0,0,0,0,0,0,0,0,0,0,0,0,0,0,0,0,0,0,0,0,0,0,0,0,0,0,0,0,0,0,0,0,0,6871,6871,6871,6871,0,0,0,0,0,0,0,0,0,0,0,
0,0,0,0,0,0,0,0,0,0,0,0,0,0,0,0,0,0,0,0,0,0,0,0,0,0,0,0,0,0,0,0,0,0,0,0,0,0,0,0,0,0,0,0,0,0,0,0,0,0,0,0,0,0,0,0,0,0,0,0,0,0,0,0,0,0,0,0,0,0,0,0,0,0,0,0,0,0,0,0,0,0,0,0,0,0,0,0,0,0,0,0,0,0,0,0,0,0,0,0,0,0,0,0,0,0,0,0,0,0,0,0,0,0,0,6871,6871,6871,6871,0,0,0,0,0,0,0,0,0,0,0,
0,0,0,0,0,0,0,0,0,0,0,0,0,0,0,0,0,0,0,0,0,0,0,0,0,0,0,0,0,0,0,0,0,0,0,0,0,0,0,0,0,0,0,0,0,0,0,0,0,0,0,0,0,0,0,0,0,0,0,0,0,0,0,0,0,0,0,0,0,0,0,0,0,0,0,0,0,0,0,0,0,0,0,0,0,0,0,0,0,0,0,0,0,0,0,0,0,0,0,0,0,0,0,0,0,0,0,0,0,0,0,0,0,0,0,6871,6871,6871,6871,0,0,0,0,0,0,0,0,0,0,0,
0,0,0,0,0,0,0,0,0,0,0,0,0,0,0,0,0,0,0,0,0,0,0,0,0,0,0,0,0,0,0,0,0,0,0,0,0,0,0,0,0,0,0,0,0,0,0,0,0,0,0,0,0,0,0,0,0,0,0,0,0,0,0,0,0,0,0,0,0,0,0,0,0,0,0,0,0,0,0,0,0,0,0,0,0,0,0,0,0,0,0,0,0,0,0,0,0,0,0,0,0,0,0,0,0,0,0,0,0,0,0,0,0,0,0,6871,6871,6871,6871,0,0,0,0,0,0,0,0,0,0,0,
0,0,0,0,0,0,0,0,0,0,0,0,0,0,0,0,0,0,0,0,0,0,0,0,0,0,0,0,0,0,0,0,0,0,0,0,0,0,0,0,0,0,0,0,0,0,0,0,0,0,0,0,0,0,0,0,0,0,0,0,0,0,0,0,0,0,0,0,0,0,0,0,0,0,0,0,0,0,0,0,0,0,0,0,0,0,0,0,0,0,0,0,0,0,0,0,0,0,0,0,0,0,0,0,0,0,0,0,0,0,0,0,0,0,0,6871,6871,6871,6871,0,0,0,0,0,0,0,0,0,0,0,
0,0,0,0,0,0,0,0,0,0,0,0,0,0,0,0,0,0,0,0,0,0,0,0,0,0,0,0,0,0,0,0,0,0,0,0,0,0,0,0,0,0,0,0,0,0,0,0,0,0,0,0,0,0,0,0,0,0,0,0,0,0,0,0,0,0,0,0,0,0,0,0,0,0,0,0,0,0,0,0,0,0,0,0,0,0,0,0,0,0,0,0,0,0,0,0,0,0,0,0,0,0,0,0,0,0,0,0,0,0,0,0,0,0,0,6871,6871,6871,6871,0,0,0,0,0,0,0,0,0,0,0,
0,0,0,0,0,0,0,0,0,0,0,0,0,0,0,0,0,0,0,0,0,0,0,0,0,0,0,0,0,0,0,0,0,0,0,0,0,0,0,0,0,0,0,0,0,0,0,0,0,0,0,0,0,0,0,0,0,0,0,0,0,0,0,0,0,0,0,0,0,0,0,0,0,0,0,0,0,0,0,0,0,0,0,0,0,0,0,0,0,0,0,0,0,0,0,0,0,0,0,0,0,0,0,0,0,0,0,0,0,0,0,0,0,0,0,6871,6871,6871,6871,0,0,0,0,0,0,0,0,0,0,0,
0,0,0,0,0,0,0,0,0,0,0,0,0,0,0,0,0,0,0,0,0,0,0,0,0,0,0,0,0,0,0,0,0,0,0,0,0,0,0,0,0,0,0,0,0,0,0,0,0,0,0,0,0,0,0,0,0,0,0,0,0,0,0,0,0,0,0,0,0,0,0,0,0,0,0,0,0,0,0,0,0,0,0,0,0,0,0,0,0,0,0,0,0,0,0,0,0,0,0,0,0,0,0,0,0,0,0,0,0,0,0,0,0,0,0,6871,6871,6871,6871,0,0,0,0,0,0,0,0,0,0,0,
0,0,0,0,0,0,0,0,0,0,0,0,0,0,0,0,0,0,0,0,0,0,0,0,0,0,0,0,0,0,0,0,0,0,0,0,0,0,0,0,0,0,0,0,0,0,0,0,0,0,0,0,0,0,0,0,0,0,0,0,0,0,0,0,0,0,0,0,0,0,0,0,0,0,0,0,0,0,0,0,0,0,0,0,0,0,0,0,0,0,0,0,0,0,0,0,0,0,0,0,0,0,0,0,0,0,0,0,0,0,0,0,0,0,0,6871,6871,6871,6871,0,0,0,0,0,0,0,0,0,0,0,
0,0,0,0,0,0,0,0,0,0,0,0,0,0,0,0,0,0,0,0,0,0,0,0,0,0,0,0,0,0,0,0,0,0,0,0,0,0,0,0,0,0,0,0,0,0,0,0,0,0,0,0,0,0,0,0,0,0,0,0,0,0,0,0,0,0,0,0,0,0,0,0,0,0,0,0,0,0,0,0,0,0,0,0,0,0,0,0,0,0,0,0,0,0,0,0,0,0,0,0,0,0,0,0,0,0,0,0,0,0,0,0,0,0,0,6871,6871,6871,6871,0,0,0,0,0,0,0,0,0,0,0,
0,0,0,0,0,0,0,0,0,0,0,0,0,0,0,0,0,0,0,0,0,0,0,0,0,0,0,0,0,0,0,0,0,0,0,0,0,0,0,0,0,0,0,0,0,0,0,0,0,0,0,0,0,0,0,0,0,0,0,0,0,0,0,0,0,0,0,0,0,0,0,0,0,0,0,0,0,0,0,0,0,0,0,0,0,0,0,0,0,0,0,0,0,0,0,0,0,0,0,0,0,0,0,0,0,0,0,0,0,0,0,0,0,0,0,0,0,0,0,0,0,0,0,0,0,0,0,0,0,0,
0,0,0,0,0,0,0,0,0,0,0,0,0,0,0,0,0,0,0,0,0,0,0,0,0,0,0,0,0,0,0,0,0,0,0,0,0,0,0,0,0,0,0,0,0,0,0,0,0,0,0,0,0,0,0,0,0,0,0,0,0,0,0,0,0,0,0,0,0,0,0,0,0,0,0,0,0,0,0,0,0,0,0,0,0,0,0,0,0,0,0,0,0,0,0,0,0,0,0,0,0,0,0,0,0,0,0,0,0,0,0,0,0,0,0,0,0,0,0,0,0,0,0,0,0,0,0,0,0,0,
0,0,0,0,0,0,0,0,0,0,0,0,0,0,0,0,0,0,0,0,0,0,0,0,0,0,0,0,0,0,0,0,0,0,0,0,0,0,0,0,0,0,0,0,0,0,0,0,0,0,0,0,0,0,0,0,0,0,0,0,0,0,0,0,0,0,0,0,0,0,0,0,0,0,0,0,0,0,0,0,0,0,0,0,0,0,0,0,0,0,0,0,0,0,0,0,0,0,0,0,0,0,0,0,0,0,0,0,0,0,0,0,0,0,0,0,0,0,0,0,0,0,0,0,0,0,0,0,0,0,
0,0,0,0,0,0,0,0,0,0,0,0,0,0,0,0,0,0,0,0,0,0,0,0,0,0,0,0,0,0,0,0,0,0,0,0,0,0,0,0,0,0,0,0,0,0,0,0,0,0,0,0,0,0,0,0,0,0,0,0,0,0,0,0,0,0,0,0,0,0,0,0,0,0,0,0,0,0,0,0,0,0,0,0,0,0,0,0,0,0,0,0,0,0,0,0,0,0,0,0,0,0,0,0,0,0,0,0,0,0,0,0,0,0,0,0,0,0,0,0,0,0,0,0,0,0,0,0,0,0,
0,0,0,0,0,0,0,0,0,0,0,0,0,0,0,0,0,0,0,0,0,0,0,0,0,0,0,0,0,0,0,0,0,0,0,0,0,0,0,0,0,0,0,0,0,0,0,0,0,0,0,0,0,0,0,0,0,0,0,0,0,0,0,0,0,0,0,0,0,0,0,0,0,0,0,0,0,0,0,0,0,0,0,0,0,0,0,0,0,0,0,0,0,0,0,0,0,0,0,0,0,0,0,0,0,0,0,0,0,0,0,0,0,0,0,0,0,0,0,0,0,0,0,0,0,0,0,0,0,0,
0,0,0,0,0,0,0,0,0,0,0,0,0,0,0,0,0,0,0,0,0,0,0,0,0,0,0,0,0,0,0,0,0,0,0,0,0,0,0,0,0,0,0,0,0,0,0,0,0,0,0,0,0,0,0,0,0,0,0,0,0,0,0,0,0,0,0,0,0,0,0,0,0,0,0,0,0,0,0,0,0,0,0,0,0,0,0,0,0,0,0,0,0,0,0,0,0,0,0,0,0,0,0,0,0,0,0,0,0,0,0,0,0,0,0,0,0,0,0,0,0,0,0,0,0,0,0,0,0,0,
0,0,0,0,0,0,0,0,0,0,0,0,0,0,0,0,0,0,0,0,0,0,0,0,0,0,0,0,0,0,0,0,0,0,0,0,0,0,0,0,0,0,0,0,0,0,0,0,0,0,0,0,0,0,0,0,0,0,0,0,0,0,0,0,0,0,0,0,0,0,0,0,0,0,0,0,0,0,0,0,0,0,0,0,0,0,0,0,0,0,0,0,0,0,0,0,0,0,0,0,0,0,0,0,0,0,0,0,0,0,0,0,0,0,0,0,0,0,0,0,0,0,0,0,0,0,0,0,0,0,
0,0,0,0,0,0,0,0,0,0,0,0,0,0,0,0,0,0,0,0,0,0,0,0,0,0,0,0,0,0,0,0,0,0,0,0,0,0,0,0,0,0,0,0,0,0,0,0,0,0,0,0,0,0,0,0,0,0,0,0,0,0,0,0,0,0,0,0,0,0,0,0,0,0,0,0,0,0,0,0,0,0,0,0,0,0,0,0,0,0,0,0,0,0,0,0,0,0,0,0,0,0,0,0,0,0,0,0,0,0,0,0,0,0,0,0,0,0,0,0,0,0,0,0,0,0,0,0,0,0,
0,0,0,0,0,0,0,0,0,0,0,0,0,0,0,0,0,0,0,0,0,0,0,0,0,0,0,0,0,0,0,0,0,0,0,0,0,0,0,0,0,0,0,0,0,0,0,0,0,0,0,0,0,0,0,0,0,0,0,0,0,0,0,0,0,0,0,0,0,0,0,0,0,0,0,0,0,0,0,0,0,0,0,0,0,0,0,0,0,0,0,0,0,0,0,0,0,0,0,0,0,0,0,0,0,0,0,0,0,0,0,0,0,0,0,0,0,0,0,0,0,0,0,0,0,0,0,0,0,0,
0,0,0,0,0,0,0,0,0,0,0,0,0,0,0,0,0,0,0,0,0,0,0,0,0,0,0,0,0,0,0,0,0,0,0,0,0,0,0,0,0,0,0,0,0,0,0,0,0,0,0,0,0,0,0,0,0,0,0,0,0,0,0,0,0,0,0,0,0,0,0,0,0,0,0,0,0,0,0,0,0,0,0,0,0,0,0,0,0,0,0,0,0,0,0,0,0,0,0,0,0,0,0,0,0,0,0,0,0,0,0,0,0,0,0,0,0,0,0,0,0,0,0,0,0,0,0,0,0,0,
0,0,0,0,0,0,0,0,0,0,0,0,0,0,0,0,0,0,0,0,0,0,0,0,0,0,0,0,0,0,0,0,0,0,0,0,0,0,0,0,0,0,0,0,0,0,0,0,0,0,0,0,0,0,0,0,0,0,0,0,0,0,0,0,0,0,0,0,0,0,0,0,0,0,0,0,0,0,0,0,0,0,0,0,0,0,0,0,0,0,0,0,0,0,0,0,0,0,0,0,0,0,0,0,0,0,0,0,0,0,0,0,0,0,0,0,0,0,0,0,0,0,0,0,0,0,0,0,0,0,
0,0,0,0,0,0,0,0,0,0,0,0,0,0,0,0,0,0,0,0,0,0,0,0,0,0,0,0,0,0,0,0,0,0,0,0,0,0,0,0,0,0,0,0,0,0,0,0,0,0,0,0,0,0,0,0,0,0,0,0,0,0,0,0,0,0,0,0,0,0,0,0,0,0,0,0,0,0,0,0,0,0,0,0,0,0,0,0,0,0,0,0,0,0,0,0,0,0,0,0,0,0,0,0,0,0,0,0,0,0,0,0,0,0,0,0,0,0,0,0,0,0,0,0,0,0,0,0,0,0,
0,0,0,0,0,0,0,0,0,0,0,0,0,0,0,0,0,0,0,0,0,0,0,0,0,0,0,0,0,0,0,0,0,0,0,0,0,0,0,0,0,0,0,0,0,0,0,0,0,0,0,0,0,0,0,0,0,0,0,0,0,0,0,0,0,0,0,0,0,0,0,0,0,0,0,0,0,0,0,0,0,0,0,0,0,0,0,0,0,0,0,0,0,0,0,0,0,0,0,0,0,0,0,0,0,0,0,0,0,0,0,0,0,0,0,0,0,0,0,0,0,0,0,0,0,0,0,0,0,0,
0,0,0,0,0,0,0,0,0,0,0,0,0,0,0,0,0,0,0,0,0,0,0,0,0,0,0,0,0,0,0,0,0,0,0,0,0,0,0,0,0,0,0,0,0,0,0,0,0,0,0,0,0,0,0,0,0,0,0,0,0,0,0,0,0,0,0,0,0,0,0,0,0,0,0,0,0,0,0,0,0,0,0,0,0,0,0,0,0,0,0,0,0,0,0,0,0,0,0,0,0,0,0,0,0,0,0,0,0,0,0,0,0,0,0,0,0,0,0,0,0,0,0,0,0,0,0,0,0,0,
0,0,0,0,0,0,0,0,0,0,0,0,0,0,0,0,0,0,0,0,0,0,0,0,0,0,0,0,0,0,0,0,0,0,0,0,0,0,0,0,0,0,0,0,0,0,0,0,0,0,0,0,0,0,0,0,0,0,0,0,0,0,0,0,0,0,0,0,0,0,0,0,0,0,0,0,0,0,0,0,0,0,0,0,0,0,0,0,0,0,0,0,0,0,0,0,0,0,0,0,0,0,0,0,0,0,0,0,0,0,0,0,0,0,0,0,0,0,0,0,0,0,0,0,0,0,0,0,0,0,
0,0,0,0,0,0,0,0,0,0,0,0,0,0,0,0,0,0,0,0,0,0,0,0,0,0,0,0,0,0,0,0,0,0,0,0,0,0,0,0,0,0,0,0,0,0,0,0,0,0,0,0,0,0,0,0,0,0,0,0,0,0,0,0,0,0,0,0,0,0,0,0,0,0,0,0,0,0,0,0,0,0,0,0,0,0,0,0,0,0,0,0,0,0,0,0,0,0,0,0,0,0,0,0,0,0,0,0,0,0,0,0,0,0,0,0,0,0,0,0,0,0,0,0,0,0,0,0,0,0,
0,0,0,0,0,0,0,0,0,0,0,0,0,0,0,0,0,0,0,0,0,0,0,0,0,0,0,0,0,0,0,0,0,0,0,0,0,0,0,0,0,0,0,0,0,0,0,0,0,0,0,0,0,0,0,0,0,0,0,0,0,0,0,0,0,0,0,0,0,0,0,0,0,0,0,0,0,0,0,0,0,0,0,0,0,0,0,0,0,0,0,0,0,0,0,0,0,0,0,0,0,0,0,0,0,0,0,0,0,0,0,0,0,0,0,0,0,0,0,0,0,0,0,0,0,0,0,0,0,0,
0,0,0,0,0,0,0,0,0,0,0,0,0,0,0,0,0,0,0,0,0,0,0,0,0,0,0,0,0,0,0,0,0,0,0,0,0,0,0,0,0,0,0,0,0,0,0,0,0,0,0,0,0,0,0,0,0,0,0,0,0,0,0,0,0,0,0,0,0,0,0,0,0,0,0,0,0,0,0,0,0,0,0,0,0,0,0,0,0,0,0,0,0,0,0,0,0,0,0,0,0,0,0,0,0,0,0,0,0,0,0,0,0,0,0,0,0,0,0,0,0,0,0,0,0,0,0,0,0,0,
0,0,0,0,0,0,0,0,0,0,0,0,0,0,0,0,0,0,0,0,0,0,0,0,0,0,0,0,0,0,0,0,0,0,0,0,0,0,0,0,0,0,0,0,0,0,0,0,0,0,0,0,0,0,0,0,0,0,0,0,0,0,0,0,0,0,0,0,0,0,0,0,0,0,0,0,0,0,0,0,0,0,0,0,0,0,0,0,0,0,0,0,0,0,0,0,0,0,0,0,0,0,0,0,0,0,0,0,0,0,0,0,0,0,0,0,0,0,0,0,0,0,0,0,0,0,0,0,0,0,
0,0,0,0,0,0,0,0,0,0,0,0,0,0,0,0,0,0,0,0,0,0,0,0,0,0,0,0,0,0,0,0,0,0,0,0,0,0,0,0,0,0,0,0,0,0,0,0,0,0,0,0,0,0,0,0,0,0,0,0,0,0,0,0,0,0,0,0,0,0,0,0,0,0,0,0,0,0,0,0,0,0,0,0,0,0,0,0,0,0,0,0,0,0,0,0,0,0,0,0,0,0,0,0,0,0,0,0,0,0,0,0,0,0,0,0,0,0,0,0,0,0,0,0,0,0,0,0,0,0,
0,0,0,0,0,0,0,0,0,0,0,0,0,0,0,0,0,0,0,0,0,0,0,0,0,0,0,0,0,0,0,0,0,0,0,0,0,0,0,0,0,0,0,0,0,0,0,0,0,0,0,0,0,0,0,0,0,0,0,0,0,0,0,0,0,0,0,0,0,0,0,0,0,0,0,0,0,0,0,0,0,0,0,0,0,0,0,0,0,0,0,0,0,0,0,0,0,0,0,0,0,0,0,0,0,0,0,0,0,0,0,0,0,0,0,0,0,0,0,0,0,0,0,0,0,0,0,0,0,0,
0,0,0,0,0,0,0,0,0,0,0,0,0,0,0,0,0,0,0,0,0,0,0,0,0,0,0,0,0,0,0,0,0,0,0,0,0,0,0,0,0,0,0,0,0,0,0,0,0,0,0,0,0,0,0,0,0,0,0,0,0,0,0,0,0,0,0,0,0,0,0,0,0,0,0,0,0,0,0,0,0,0,0,0,0,0,0,0,0,0,0,0,0,0,0,0,0,0,0,0,0,0,0,0,0,0,0,0,0,0,0,0,0,0,0,0,0,0,0,0,0,0,0,0,0,0,0,0,0,0,
0,0,0,0,0,0,0,0,0,0,0,0,0,0,0,0,0,0,0,0,0,0,0,0,0,0,0,0,0,0,0,0,0,0,0,0,0,0,0,0,0,0,0,0,0,0,0,0,0,0,0,0,0,0,0,0,0,0,0,0,0,0,0,0,0,0,0,0,0,0,0,0,0,0,0,0,0,0,0,0,0,0,0,0,0,0,0,0,0,0,0,0,0,0,0,0,0,0,0,0,0,0,0,0,0,0,0,0,0,0,0,0,0,0,0,0,0,0,0,0,0,0,0,0,0,0,0,0,0,0,
0,0,0,0,0,0,0,0,0,0,0,0,0,0,0,0,0,0,0,0,0,0,0,0,0,0,0,0,0,0,0,0,0,0,0,0,0,0,0,0,0,0,0,0,0,0,0,0,0,0,0,0,0,0,0,0,0,0,0,0,0,0,0,0,0,0,0,0,0,0,0,0,0,0,0,0,0,0,0,0,0,0,0,0,0,0,0,0,0,0,0,0,0,0,0,0,0,0,0,0,0,0,0,0,0,0,0,0,0,0,0,0,0,0,0,0,0,0,0,0,0,0,0,0,0,0,0,0,0,0,
0,0,0,0,0,0,0,0,0,0,0,0,0,0,0,0,0,0,0,0,0,0,0,0,0,0,0,0,0,0,0,0,0,0,0,0,0,0,0,0,0,0,0,0,0,0,0,0,0,0,0,0,0,0,0,0,0,0,0,0,0,0,0,0,0,0,0,0,0,0,0,0,0,0,0,0,0,0,0,0,0,0,0,0,0,0,0,0,0,0,0,0,0,0,0,0,0,0,0,0,0,0,0,0,0,0,0,0,0,0,0,0,0,0,0,0,0,0,0,0,0,0,0,0,0,0,0,0,0,0,
0,0,0,0,0,0,0,0,0,0,0,0,0,0,0,0,0,0,0,0,0,0,0,0,0,0,0,0,0,0,0,0,0,0,0,0,0,0,0,0,0,0,0,0,0,0,0,0,0,0,0,0,0,0,0,0,0,0,0,0,0,0,0,0,0,0,0,0,0,0,0,0,0,0,0,0,0,0,0,0,0,0,0,0,0,0,0,0,0,0,0,0,0,0,0,0,0,0,0,0,0,0,0,0,0,0,0,0,0,0,0,0,0,0,0,0,0,0,0,0,0,0,0,0,0,0,0,0,0,0,
0,0,0,0,0,0,0,0,0,0,0,0,0,0,0,0,0,0,0,0,0,0,0,0,0,0,0,0,0,0,0,0,0,0,0,0,0,0,0,0,0,0,0,0,0,0,0,0,0,0,0,0,0,0,0,0,0,0,0,0,0,0,0,0,0,0,0,0,0,0,0,0,0,0,0,0,0,0,0,0,0,0,0,0,0,0,0,0,0,0,0,0,0,0,0,0,0,0,0,0,0,0,0,0,0,0,0,0,0,0,0,0,0,0,0,0,0,0,0,0,0,0,0,0,0,0,0,0,0,0,
0,0,0,0,0,0,0,0,0,0,0,0,0,0,0,0,0,0,0,0,0,0,0,0,0,0,0,0,0,0,0,0,0,0,0,0,0,0,0,0,0,0,0,0,0,0,0,0,0,0,0,0,0,0,0,0,0,0,0,0,0,0,0,0,0,0,0,0,0,0,0,0,0,0,0,0,0,0,0,0,0,0,0,0,0,0,0,0,0,0,0,0,0,0,0,0,0,0,0,0,0,0,0,0,0,0,0,0,0,0,0,0,0,0,0,0,0,0,0,0,0,0,0,0,0,0,0,0,0,0,
0,0,0,0,0,0,0,0,0,0,0,0,0,0,0,0,0,0,0,0,0,0,0,0,0,0,0,0,0,0,0,0,0,0,0,0,0,0,0,0,0,0,0,0,0,0,0,0,0,0,0,0,0,0,0,0,0,0,0,0,0,0,0,0,0,0,0,0,0,0,0,0,0,0,0,0,0,0,0,0,0,0,0,0,0,0,0,0,0,0,0,0,0,0,0,0,0,0,0,0,0,0,0,0,0,0,0,0,0,0,0,0,0,0,0,0,0,0,0,0,0,0,0,0,0,0,0,0,0,0,
0,0,0,0,0,0,0,0,0,0,0,0,0,0,0,0,0,0,0,0,0,0,0,0,0,0,0,0,0,0,0,0,0,0,0,0,0,0,0,0,0,0,0,0,0,0,0,0,0,0,0,0,0,0,0,0,0,0,0,0,0,0,0,0,0,0,0,0,0,0,0,0,0,0,0,0,0,0,0,0,0,0,0,0,0,0,0,0,0,0,0,0,0,0,0,0,0,0,0,0,0,0,0,0,0,0,0,0,0,0,0,0,0,0,0,0,0,0,0,0,0,0,0,0,0,0,0,0,0,0,
0,0,0,0,0,0,0,0,0,0,0,0,0,0,0,0,0,0,0,0,0,0,0,0,0,0,0,0,0,0,0,0,0,0,0,0,0,0,0,0,0,0,0,0,0,0,0,0,0,0,0,0,0,0,0,0,0,0,0,0,0,0,0,0,0,0,0,0,0,0,0,0,0,0,0,0,0,0,0,0,0,0,0,0,0,0,0,0,0,0,0,0,0,0,0,0,0,0,0,0,0,0,0,0,0,0,0,0,0,0,0,0,0,0,0,0,0,0,0,0,0,0,0,0,0,0,0,0,0,0,
0,0,0,0,0,0,0,0,0,0,0,0,0,0,0,0,0,0,0,0,0,0,0,0,0,0,0,0,0,0,0,0,0,0,0,0,0,0,0,0,0,0,0,0,0,0,0,0,0,0,0,0,0,0,0,0,0,0,0,0,0,0,0,0,0,0,0,0,0,0,0,0,0,0,0,0,0,0,0,0,0,0,0,0,0,0,0,0,0,0,0,0,0,0,0,0,0,0,0,0,0,0,0,0,0,0,0,0,0,0,0,0,0,0,0,0,0,0,0,0,0,0,0,0,0,0,0,0,0,0,
0,0,0,0,0,0,0,0,0,0,0,0,0,0,0,0,0,0,0,0,0,0,0,0,0,0,0,0,0,0,0,0,0,0,0,0,0,0,0,0,0,0,0,0,0,0,0,0,0,0,0,0,0,0,0,0,0,0,0,0,0,0,0,0,0,0,0,0,0,0,0,0,0,0,0,0,0,0,0,0,0,0,0,0,0,0,0,0,0,0,0,0,0,0,0,0,0,0,0,0,0,0,0,0,0,0,0,0,0,0,0,0,0,0,0,0,0,0,0,0,0,0,0,0,0,0,0,0,0,0,
0,0,0,0,0,0,0,0,0,0,0,0,0,0,0,0,0,0,0,0,0,0,0,0,0,0,0,0,0,0,0,0,0,0,0,0,0,0,0,0,0,0,0,0,0,0,0,0,0,0,0,0,0,0,0,0,0,0,0,0,0,0,0,0,0,0,0,0,0,0,0,0,0,0,0,0,0,0,0,0,0,0,0,0,0,0,0,0,0,0,0,0,0,0,0,0,0,0,0,0,0,0,0,0,0,0,0,0,0,0,0,0,0,0,0,0,0,0,0,0,0,0,0,0,0,0,0,0,0,0,
0,0,0,0,0,0,0,0,0,0,0,0,0,0,0,0,0,0,0,0,0,0,0,0,0,0,0,0,0,0,0,0,0,0,0,0,0,0,0,0,0,0,0,0,0,0,0,0,0,0,0,0,0,0,0,0,0,0,0,0,0,0,0,0,0,0,0,0,0,0,0,0,0,0,0,0,0,0,0,0,0,0,0,0,0,0,0,0,0,0,0,0,0,0,0,0,0,0,0,0,0,0,0,0,0,0,0,0,0,0,0,0,0,0,0,0,0,0,0,0,0,0,0,0,0,0,0,0,0,0,
0,0,0,0,0,0,0,0,0,0,0,0,0,0,0,0,0,0,0,0,0,0,0,0,0,0,0,0,0,0,0,0,0,0,0,0,0,0,0,0,0,0,0,0,0,0,0,0,0,0,0,0,0,0,0,0,0,0,0,0,0,0,0,0,0,0,0,0,0,0,0,0,0,0,0,0,0,0,0,0,0,0,0,0,0,0,0,0,0,0,0,0,0,0,0,0,0,0,0,0,0,0,0,0,0,0,0,0,0,0,0,0,0,0,0,0,0,0,0,0,0,0,0,0,0,0,0,0,0,0,
0,0,0,0,0,0,0,0,0,0,0,0,0,0,0,0,0,0,0,0,0,0,0,0,0,0,0,0,0,0,0,0,0,0,0,0,0,0,0,0,0,0,0,0,0,0,0,0,0,0,0,0,0,0,0,0,0,0,0,0,0,0,0,0,0,0,0,0,0,0,0,0,0,0,0,0,0,0,0,0,0,0,0,0,0,0,0,0,0,0,0,0,0,0,0,0,0,0,0,0,0,0,0,0,0,0,0,0,0,0,0,0,0,0,0,0,0,0,0,0,0,0,0,0,0,0,0,0,0,0,
0,0,0,0,0,0,0,0,0,0,0,0,0,0,0,0,0,0,0,0,0,0,0,0,0,0,0,0,0,0,0,0,0,0,0,0,0,0,0,0,0,0,0,0,0,0,0,0,0,0,0,0,0,0,0,0,0,0,0,0,0,0,0,0,0,0,0,0,0,0,0,0,0,0,0,0,0,0,0,0,0,0,0,0,0,0,0,0,0,0,0,0,0,0,0,0,0,0,0,0,0,0,0,0,0,0,0,0,0,0,0,0,0,0,0,0,0,0,0,0,0,0,0,0,0,0,0,0,0,0,
0,0,0,0,0,0,0,0,0,0,0,0,0,0,0,0,0,0,0,0,0,0,0,0,0,0,0,0,0,0,0,0,0,0,0,0,0,0,0,0,0,0,0,0,0,0,0,0,0,0,0,0,0,0,0,0,0,0,0,0,0,0,0,0,0,0,0,0,0,0,0,0,0,0,0,0,0,0,0,0,0,0,0,0,0,0,0,0,0,0,0,0,0,0,0,0,0,0,0,0,0,0,0,0,0,0,0,0,0,0,0,0,0,0,0,0,0,0,0,0,0,0,0,0,0,0,0,0,0,0,
0,0,0,0,0,0,0,0,0,0,0,0,0,0,0,0,0,0,0,0,0,0,0,0,0,0,0,0,0,0,0,0,0,0,0,0,0,0,0,0,0,0,0,0,0,0,0,0,0,0,0,0,0,0,0,0,0,0,0,0,0,0,0,0,0,0,0,0,0,0,0,0,0,0,0,0,0,0,0,0,0,0,0,0,0,0,0,0,0,0,0,0,0,0,0,0,0,0,0,0,0,0,0,0,0,0,0,0,0,0,0,0,0,0,0,0,0,0,0,0,0,0,0,0,0,0,0,0,0,0,
0,0,0,0,0,0,0,0,0,0,0,0,0,0,0,0,0,0,0,0,0,0,0,0,0,0,0,0,0,0,0,0,0,0,0,0,0,0,0,0,0,0,0,0,0,0,0,0,0,0,0,0,0,0,0,0,0,0,0,0,0,0,0,0,0,0,0,0,0,0,0,0,0,0,0,0,0,0,0,0,0,0,0,0,0,0,0,0,0,0,0,0,0,0,0,0,0,0,0,0,0,0,0,0,0,0,0,0,0,0,0,0,0,0,0,0,0,0,0,0,0,0,0,0,0,0,0,0,0,0,
0,0,0,0,0,0,0,0,0,0,0,0,0,0,0,0,0,0,0,0,0,0,0,0,0,0,0,0,0,0,0,0,0,0,0,0,0,0,0,0,0,0,0,0,0,0,0,0,0,0,0,0,0,0,0,0,0,0,0,0,0,0,0,0,0,0,0,0,0,0,0,0,0,0,0,0,0,0,0,0,0,0,0,0,0,0,0,0,0,0,0,0,0,0,0,0,0,0,0,0,0,0,0,0,0,0,0,0,0,0,0,0,0,0,0,0,0,0,0,0,0,0,0,0,0,0,0,0,0,0,
0,0,0,0,0,0,0,0,0,0,0,0,0,0,0,0,0,0,0,0,0,0,0,0,0,0,0,0,0,0,0,0,0,0,0,0,0,0,0,0,0,0,0,0,0,0,0,0,0,0,0,0,0,0,0,0,0,0,0,0,0,0,0,0,0,0,0,0,0,0,0,0,0,0,0,0,0,0,0,0,0,0,0,0,0,0,0,0,0,0,0,0,0,0,0,0,0,0,0,0,0,0,0,0,0,0,0,0,0,0,0,0,0,0,0,0,0,0,0,0,0,0,0,0,0,0,0,0,0,0,
0,0,0,0,0,0,0,0,0,0,0,0,0,0,0,0,0,0,0,0,0,0,0,0,0,0,0,0,0,0,0,0,0,0,0,0,0,0,0,0,0,0,0,0,0,0,0,0,0,0,0,0,0,0,0,0,0,0,0,0,0,0,0,0,0,0,0,0,0,0,0,0,0,0,0,0,0,0,0,0,0,0,0,0,0,0,0,0,0,0,0,0,0,0,0,0,0,0,0,0,0,0,0,0,0,0,0,0,0,0,0,0,0,0,0,0,0,0,0,0,0,0,0,0,0,0,0,0,0,0,
0,0,0,0,0,0,0,0,0,0,0,0,0,0,0,0,0,0,0,0,0,0,0,0,0,0,0,0,0,0,0,0,0,0,0,0,0,0,0,0,0,0,0,0,0,0,0,0,0,0,0,0,0,0,0,0,0,0,0,0,0,0,0,0,0,0,0,0,0,0,0,0,0,0,0,0,0,0,0,0,0,0,0,0,0,0,0,0,0,0,0,0,0,0,0,0,0,0,0,0,0,0,0,0,0,0,0,0,0,0,0,0,0,0,0,0,0,0,0,0,0,0,0,0,0,0,0,0,0,0,
0,0,0,0,0,0,0,0,0,0,0,0,0,0,0,0,0,0,0,0,0,0,0,0,0,0,0,0,0,0,0,0,0,0,0,0,0,0,0,0,0,0,0,0,0,0,0,0,0,0,0,0,0,0,0,0,0,0,0,0,0,0,0,0,0,0,0,0,0,0,0,0,0,0,0,0,0,0,0,0,0,0,0,0,0,0,0,0,0,0,0,0,0,0,0,0,0,0,0,0,0,0,0,0,0,0,0,0,0,0,0,0,0,0,0,0,0,0,0,0,0,0,0,0,0,0,0,0,0,0,
0,0,0,0,0,0,0,0,0,0,0,0,0,0,0,0,0,0,0,0,0,0,0,0,0,0,0,0,0,0,0,0,0,0,0,0,0,0,0,0,0,0,0,0,0,0,0,0,0,0,0,0,0,0,0,0,0,0,0,0,0,0,0,0,0,0,0,0,0,0,0,0,0,0,0,0,0,0,0,0,0,0,0,0,0,0,0,0,0,0,0,0,0,0,0,0,0,0,0,0,0,0,0,0,0,0,0,0,0,0,0,0,0,0,0,0,0,0,0,0,0,0,0,0,0,0,0,0,0,0,
0,0,0,0,0,0,0,0,0,0,0,0,0,0,0,0,0,0,0,0,0,0,0,0,0,0,0,0,0,0,0,0,0,0,0,0,0,0,0,0,0,0,0,0,0,0,0,0,0,0,0,0,0,0,0,0,0,0,0,0,0,0,0,0,0,0,0,0,0,0,0,0,0,0,0,0,0,0,0,0,0,0,0,0,0,0,0,0,0,0,0,0,0,0,0,0,0,0,0,0,0,0,0,0,0,0,0,0,0,0,0,0,0,0,0,0,0,0,0,0,0,0,0,0,0,0,0,0,0,0,
0,0,0,0,0,0,0,0,0,0,0,0,0,0,0,0,0,0,0,0,0,0,0,0,0,0,0,0,0,0,0,0,0,0,0,0,0,0,0,0,0,0,0,0,0,0,0,0,0,0,0,0,0,0,0,0,0,0,0,0,0,0,0,0,0,0,0,0,0,0,0,0,0,0,0,0,0,0,0,0,0,0,0,0,0,0,0,0,0,0,0,0,0,0,0,0,0,0,0,0,0,0,0,0,0,0,0,0,0,0,0,0,0,0,0,0,0,0,0,0,0,0,0,0,0,0,0,0,0,0,
0,0,0,0,0,0,0,0,0,0,0,0,0,0,0,0,0,0,0,0,0,0,0,0,0,0,0,0,0,0,0,0,0,0,0,0,0,0,0,0,0,0,0,0,0,0,0,0,0,0,0,0,0,0,0,0,0,0,0,0,0,0,0,0,0,0,0,0,0,0,0,0,0,0,0,0,0,0,0,0,0,0,0,0,0,0,0,0,0,0,0,0,0,0,0,0,0,0,0,0,0,0,0,0,0,0,0,0,0,0,0,0,0,0,0,0,0,0,0,0,0,0,0,0,0,0,0,0,0,0,
0,0,0,0,0,0,0,0,0,0,0,0,0,0,0,0,0,0,0,0,0,0,0,0,0,0,0,0,0,0,0,0,0,0,0,0,0,0,0,0,0,0,0,0,0,0,0,0,0,0,0,0,0,0,0,0,0,0,0,0,0,0,0,0,0,0,0,0,0,0,0,0,0,0,0,0,0,0,0,0,0,0,0,0,0,0,0,0,0,0,0,0,0,0,0,0,0,0,0,0,0,0,0,0,0,0,0,0,0,0,0,0,0,0,0,0,0,0,0,0,0,0,0,0,0,0,0,0,0,0,
0,0,0,0,0,0,0,0,0,0,0,0,0,0,0,0,0,0,0,0,0,0,0,0,0,0,0,0,0,0,0,0,0,0,0,0,0,0,0,0,0,0,0,0,0,0,0,0,0,0,0,0,0,0,0,0,0,0,0,0,0,0,0,0,0,0,0,0,0,0,0,0,0,0,0,0,0,0,0,0,0,0,0,0,0,0,0,0,0,0,0,0,0,0,0,0,0,0,0,0,0,0,0,0,0,0,0,0,0,0,0,0,0,0,0,0,0,0,0,0,0,0,0,0,0,0,0,0,0,0,
0,0,0,0,0,0,0,0,0,0,0,0,0,0,0,0,0,0,0,0,0,0,0,0,0,0,0,0,0,0,0,0,0,0,0,0,0,0,0,0,0,0,0,0,0,0,0,0,0,0,0,0,0,0,0,0,0,0,0,0,0,0,0,0,0,0,0,0,0,0,0,0,0,0,0,0,0,0,0,0,0,0,0,0,0,0,0,0,0,0,0,0,0,0,0,0,0,0,0,0,0,0,0,0,0,0,0,0,0,0,0,0,0,0,0,0,0,0,0,0,0,0,0,0,0,0,0,0,0,0,
0,0,0,0,0,0,0,0,0,0,0,0,0,0,0,0,0,0,0,0,0,0,0,0,0,0,0,0,0,0,0,0,0,0,0,0,0,0,0,0,0,0,0,0,0,0,0,0,0,0,0,0,0,0,0,0,0,0,0,0,0,0,0,0,0,0,0,0,0,0,0,0,0,0,0,0,0,0,0,0,0,0,0,0,0,0,0,0,0,0,0,0,0,0,0,0,0,0,0,0,0,0,0,0,0,0,0,0,0,0,0,0,0,0,0,0,0,0,0,0,0,0,0,0,0,0,0,0,0,0,
0,0,0,0,0,0,0,0,0,0,0,0,0,0,0,0,0,0,0,0,0,0,0,0,0,0,0,0,0,0,0,0,0,0,0,0,0,0,0,0,0,0,0,0,0,0,0,0,0,0,0,0,0,0,0,0,0,0,0,0,0,0,0,0,0,0,0,0,0,0,0,0,0,0,0,0,0,0,0,0,0,0,0,0,0,0,0,0,0,0,0,0,0,0,0,0,0,0,0,0,0,0,0,0,0,0,0,0,0,0,0,0,0,0,0,0,0,0,0,0,0,0,0,0,0,0,0,0,0,0,
0,0,0,0,0,0,0,0,0,0,0,0,0,0,0,0,0,0,0,0,0,0,0,0,0,0,0,0,0,0,0,0,0,0,0,0,0,0,0,0,0,0,0,0,0,0,0,0,0,0,0,0,0,0,0,0,0,0,0,0,0,0,0,0,0,0,0,0,0,0,0,0,0,0,0,0,0,0,0,0,0,0,0,0,0,0,0,0,0,0,0,0,0,0,0,0,0,0,0,0,0,0,0,0,0,0,0,0,0,0,0,0,0,0,0,0,0,0,0,0,0,0,0,0,0,0,0,0,0,0,
0,0,0,0,0,0,0,0,0,0,0,0,0,0,0,0,0,0,0,0,0,0,0,0,0,0,0,0,0,0,0,0,0,0,0,0,0,0,0,0,0,0,0,0,0,0,0,0,0,0,0,0,0,0,0,0,0,0,0,0,0,0,0,0,0,0,0,0,0,0,0,0,0,0,0,0,0,0,0,0,0,0,0,0,0,0,0,0,0,0,0,0,0,0,0,0,0,0,0,0,0,0,0,0,0,0,0,0,0,0,0,0,0,0,0,0,0,0,0,0,0,0,0,0,0,0,0,0,0,0,
0,0,0,0,0,0,0,0,0,0,0,0,0,0,0,0,0,0,0,0,0,0,0,0,0,0,0,0,0,0,0,0,0,0,0,0,0,0,0,0,0,0,0,0,0,0,0,0,0,0,0,0,0,0,0,0,0,0,0,0,0,0,0,0,0,0,0,0,0,0,0,0,0,0,0,0,0,0,0,0,0,0,0,0,0,0,0,0,0,0,0,0,0,0,0,0,0,0,0,0,0,0,0,0,0,0,0,0,0,0,0,0,0,0,0,0,0,0,0,0,0,0,0,0,0,0,0,0,0,0,
0,0,0,0,0,0,0,0,0,0,0,0,0,0,0,0,0,0,0,0,0,0,0,0,0,0,0,0,0,0,0,0,0,0,0,0,0,0,0,0,0,0,0,0,0,0,0,0,0,0,0,0,0,0,0,0,0,0,0,0,0,0,0,0,0,0,0,0,0,0,0,0,0,0,0,0,0,0,0,0,0,0,0,0,0,0,0,0,0,0,0,0,0,0,0,0,0,0,0,0,0,0,0,0,0,0,0,0,0,0,0,0,0,0,0,0,0,0,0,0,0,0,0,0,0,0,0,0,0,0,
0,0,0,0,0,0,0,0,0,0,0,0,0,0,0,0,0,0,0,0,0,0,0,0,0,0,0,0,0,0,0,0,0,0,0,0,0,0,0,0,0,0,0,0,0,0,0,0,0,0,0,0,0,0,0,0,0,0,0,0,0,0,0,0,0,0,0,0,0,0,0,0,0,0,0,0,0,0,0,0,0,0,0,0,0,0,0,0,0,0,0,0,0,0,0,0,0,0,0,0,0,0,0,0,0,0,0,0,0,0,0,0,0,0,0,0,0,0,0,0,0,0,0,0,0,0,0,0,0,0,
0,0,0,0,0,0,0,0,0,0,0,0,0,0,0,0,0,0,0,0,0,0,0,0,0,0,0,0,0,0,0,0,0,0,0,0,0,0,0,0,0,0,0,0,0,0,0,0,0,0,0,0,0,0,0,0,0,0,0,0,0,0,0,0,0,0,0,0,0,0,0,0,0,0,0,0,0,0,0,0,0,0,0,0,0,0,0,0,0,0,0,0,0,0,0,0,0,0,0,0,0,0,0,0,0,0,0,0,0,0,0,0,0,0,0,0,0,0,0,0,0,0,0,0,0,0,0,0,0,0,
0,0,0,0,0,0,0,0,0,0,0,0,0,0,0,0,0,0,0,0,0,0,0,0,0,0,0,0,0,0,0,0,0,0,0,0,0,0,0,0,0,0,0,0,0,0,0,0,0,0,0,0,0,0,0,0,0,0,0,0,0,0,0,0,0,0,0,0,0,0,0,0,0,0,0,0,0,0,0,0,0,0,0,0,0,0,0,0,0,0,0,0,0,0,0,0,0,0,0,0,0,0,0,0,0,0,0,0,0,0,0,0,0,0,0,0,0,0,0,0,0,0,0,0,0,0,0,0,0,0,
0,0,0,0,0,0,0,0,0,0,0,0,0,0,0,0,0,0,0,0,0,0,0,0,0,0,0,0,0,0,0,0,0,0,0,0,0,0,0,0,0,0,0,0,0,0,0,0,0,0,0,0,0,0,0,0,0,0,0,0,0,0,0,0,0,0,0,0,0,0,0,0,0,0,0,0,0,0,0,0,0,0,0,0,0,0,0,0,0,0,0,0,0,0,0,0,0,0,0,0,0,0,0,0,0,0,0,0,0,0,0,0,0,0,0,0,0,0,0,0,0,0,0,0,0,0,0,0,0,0,
0,0,0,0,0,0,0,0,0,0,0,0,0,0,0,0,0,0,0,0,0,0,0,0,0,0,0,0,0,0,0,0,0,0,0,0,0,0,0,0,0,0,0,0,0,0,0,0,0,0,0,0,0,0,0,0,0,0,0,0,0,0,0,0,0,0,0,0,0,0,0,0,0,0,0,0,0,0,0,0,0,0,0,0,0,0,0,0,0,0,0,0,0,0,0,0,0,0,0,0,0,0,0,0,0,0,0,0,0,0,0,0,0,0,0,0,0,0,0,0,0,0,0,0,0,0,0,0,0,0,
0,0,0,0,0,0,0,0,0,0,0,0,0,0,0,0,0,0,0,0,0,0,0,0,0,0,0,0,0,0,0,0,0,0,0,0,0,0,0,0,0,0,0,0,0,0,0,0,0,0,0,0,0,0,0,0,0,0,0,0,0,0,0,0,0,0,0,0,0,0,0,0,0,0,0,0,0,0,0,0,0,0,0,0,0,0,0,0,0,0,0,0,0,0,0,0,0,0,0,0,0,0,0,0,0,0,0,0,0,0,0,0,0,0,0,0,0,0,0,0,0,0,0,0,0,0,0,0,0,0,
0,0,0,0,0,0,0,0,0,0,0,0,0,0,0,0,0,0,0,0,0,0,0,0,0,0,0,0,0,0,0,0,0,0,0,0,0,0,0,0,0,0,0,0,0,0,0,0,0,0,0,0,0,0,0,0,0,0,0,0,0,0,0,0,0,0,0,0,0,0,0,0,0,0,0,0,0,0,0,0,0,0,0,0,0,0,0,0,0,0,0,0,0,0,0,0,0,0,0,0,0,0,0,0,0,0,0,0,0,0,0,0,0,0,0,0,0,0,0,0,0,0,0,0,0,0,0,0,0,0,
0,0,0,0,0,0,0,0,0,0,0,0,0,0,0,0,0,0,0,0,0,0,0,0,0,0,0,0,0,0,0,0,0,0,0,0,0,0,0,0,0,0,0,0,0,0,0,0,0,0,0,0,0,0,0,0,0,0,0,0,0,0,0,0,0,0,0,0,0,0,0,0,0,0,0,0,0,0,0,0,0,0,0,0,0,0,0,0,0,0,0,0,0,0,0,0,0,0,0,0,0,0,0,0,0,0,0,0,0,0,0,0,0,0,0,0,0,0,0,0,0,0,0,0,0,0,0,0,0,0,
0,0,0,0,0,0,0,0,0,0,0,0,0,0,0,0,0,0,0,0,0,0,0,0,0,0,0,0,0,0,0,0,0,0,0,0,0,0,0,0,0,0,0,0,0,0,0,0,0,0,0,0,0,0,0,0,0,0,0,0,0,0,0,0,0,0,0,0,0,0,0,0,0,0,0,0,0,0,0,0,0,0,0,0,0,0,0,0,0,0,0,0,0,0,0,0,0,0,0,0,0,0,0,0,0,0,0,0,0,0,0,0,0,0,0,0,0,0,0,0,0,0,0,0,0,0,0,0,0,0,
0,0,0,0,0,0,0,0,0,0,0,0,0,0,0,0,0,0,0,0,0,0,0,0,0,0,0,0,0,0,0,0,0,0,0,0,0,0,0,0,0,0,0,0,0,0,0,0,0,0,0,0,0,0,0,0,0,0,0,0,0,0,0,0,0,0,0,0,0,0,0,0,0,0,0,0,0,0,0,0,0,0,0,0,0,0,0,0,0,0,0,0,0,0,0,0,0,0,0,0,0,0,0,0,0,0,0,0,0,0,0,0,0,0,0,0,0,0,0,0,0,0,0,0,0,0,0,0,0,0,
0,0,0,0,0,0,0,0,0,0,0,0,0,0,0,0,0,0,0,0,0,0,0,0,0,0,0,0,0,0,0,0,0,0,0,0,0,0,0,0,0,0,0,0,0,0,0,0,0,0,0,0,0,0,0,0,0,0,0,0,0,0,0,0,0,0,0,0,0,0,0,0,0,0,0,0,0,0,0,0,0,0,0,0,0,0,0,0,0,0,0,0,0,0,0,0,0,0,0,0,0,0,0,0,0,0,0,0,0,0,0,0,0,0,0,0,0,0,0,0,0,0,0,0,0,0,0,0,0,0,
0,0,0,0,0,0,0,0,0,0,0,0,0,0,0,0,0,0,0,0,0,0,0,0,0,0,0,0,0,0,0,0,0,0,0,0,0,0,0,0,0,0,0,0,0,0,0,0,0,0,0,0,0,0,0,0,0,0,0,0,0,0,0,0,0,0,0,0,0,0,0,0,0,0,0,0,0,0,0,0,0,0,0,0,0,0,0,0,0,0,0,0,0,0,0,0,0,0,0,0,0,0,0,0,0,0,0,0,0,0,0,0,0,0,0,0,0,0,0,0,0,0,0,0,0,0,0,0,0,0,
0,0,0,0,0,0,0,0,0,0,0,0,0,0,0,0,0,0,0,0,0,0,0,0,0,0,0,0,0,0,0,0,0,0,0,0,0,0,0,0,0,0,0,0,0,0,0,0,0,0,0,0,0,0,0,0,0,0,0,0,0,0,0,0,0,0,0,0,0,0,0,0,0,0,0,0,0,0,0,0,0,0,0,0,0,0,0,0,0,0,0,0,0,0,0,0,0,0,0,0,0,0,0,0,0,0,0,0,0,0,0,0,0,0,0,0,0,0,0,0,0,0,0,0,0,0,0,0,0,0,
0,0,0,0,0,0,0,0,0,0,0,0,0,0,0,0,0,0,0,0,0,0,0,0,0,0,0,0,0,0,0,0,0,0,0,0,0,0,0,0,0,0,0,0,0,0,0,0,0,0,0,0,0,0,0,0,0,0,0,0,0,0,0,0,0,0,0,0,0,0,0,0,0,0,0,0,0,0,0,0,0,0,0,0,0,0,0,0,0,0,0,0,0,0,0,0,0,0,0,0,0,0,0,0,0,0,0,0,0,0,0,0,0,0,0,0,0,0,0,0,0,0,0,0,0,0,0,0,0,0,
0,0,0,0,0,0,0,0,0,0,0,0,0,0,0,0,0,0,0,0,0,0,0,0,0,0,0,0,0,0,0,0,0,0,0,0,0,0,0,0,0,0,0,0,0,0,0,0,0,0,0,0,0,0,0,0,0,0,0,0,0,0,0,0,0,0,0,0,0,0,0,0,0,0,0,0,0,0,0,0,0,0,0,0,0,0,0,0,0,0,0,0,0,0,0,0,0,0,0,0,0,0,0,0,0,0,0,0,0,0,0,0,0,0,0,0,0,0,0,0,0,0,0,0,0,0,0,0,0,0,
0,0,0,0,0,0,0,0,0,0,0,0,0,0,0,0,0,0,0,0,0,0,0,0,0,0,0,0,0,0,0,0,0,0,0,0,0,0,0,0,0,0,0,0,0,0,0,0,0,0,0,0,0,0,0,0,0,0,0,0,0,0,0,0,0,0,0,0,0,0,0,0,0,0,0,0,0,0,0,0,0,0,0,0,0,0,0,0,0,0,0,0,0,0,0,0,0,0,0,0,0,0,0,0,0,0,0,0,0,0,0,0,0,0,0,0,0,0,0,0,0,0,0,0,0,0,0,0,0,0,
0,0,0,0,0,0,0,0,0,0,0,0,0,0,0,0,0,0,0,0,0,0,0,0,0,0,0,0,0,0,0,0,0,0,0,0,0,0,0,0,0,0,0,0,0,0,0,0,0,0,0,0,0,0,0,0,0,0,0,0,0,0,0,0,0,0,0,0,0,0,0,0,0,0,0,0,0,0,0,0,0,0,0,0,0,0,0,0,0,0,0,0,0,0,0,0,0,0,0,0,0,0,0,0,0,0,0,0,0,0,0,0,0,0,0,0,0,0,0,0,0,0,0,0,0,0,0,0,0,0,
0,0,0,0,0,0,0,0,0,0,0,0,0,0,0,0,0,0,0,0,0,0,0,0,0,0,0,0,0,0,0,0,0,0,0,0,0,0,0,0,0,0,0,0,0,0,0,0,0,0,0,0,0,0,0,0,0,0,0,0,0,0,0,0,0,0,0,0,0,0,0,0,0,0,0,0,0,0,0,0,0,0,0,0,0,0,0,0,0,0,0,0,0,0,0,0,0,0,0,0,0,0,0,0,0,0,0,0,0,0,0,0,0,0,0,0,0,0,0,0,0,0,0,0,0,0,0,0,0,0,
0,0,0,0,0,0,0,0,0,0,0,0,0,0,0,0,0,0,0,0,0,0,0,0,0,0,0,0,0,0,0,0,0,0,0,0,0,0,0,0,0,0,0,0,0,0,0,0,0,0,0,0,0,0,0,0,0,0,0,0,0,0,0,0,0,0,0,0,0,0,0,0,0,0,0,0,0,0,0,0,0,0,0,0,0,0,0,0,0,0,0,0,0,0,0,0,0,0,0,0,0,0,0,0,0,0,0,0,0,0,0,0,0,0,0,0,0,0,0,0,0,0,0,0,0,0,0,0,0,0,
0,0,0,0,0,0,0,0,0,0,0,0,0,0,0,0,0,0,0,0,0,0,0,0,0,0,0,0,0,0,0,0,0,0,0,0,0,0,0,0,0,0,0,0,0,0,0,0,0,0,0,0,0,0,0,0,0,0,0,0,0,0,0,0,0,0,0,0,0,0,0,0,0,0,0,0,0,0,0,0,0,0,0,0,0,0,0,0,0,0,0,0,0,0,0,0,0,0,0,0,0,0,0,0,0,0,0,0,0,0,0,0,0,0,0,0,0,0,0,0,0,0,0,0,0,0,0,0,0,0,
0,0,0,0,0,0,0,0,0,0,0,0,0,0,0,0,0,0,0,0,0,0,0,0,0,0,0,0,0,0,0,0,0,0,0,0,0,0,0,0,0,0,0,0,0,0,0,0,0,0,0,0,0,0,0,0,0,0,0,0,0,0,0,0,0,0,0,0,0,0,0,0,0,0,0,0,0,0,0,0,0,0,0,0,0,0,0,0,0,0,0,0,0,0,0,0,0,0,0,0,0,0,0,0,0,0,0,0,0,0,0,0,0,0,0,0,0,0,0,0,0,0,0,0,0,0,0,0,0,0,
0,0,0,0,0,0,0,0,0,0,0,0,0,0,0,0,0,0,0,0,0,0,0,0,0,0,0,0,0,0,0,0,0,0,0,0,0,0,0,0,0,0,0,0,0,0,0,0,0,0,0,0,0,0,0,0,0,0,0,0,0,0,0,0,0,0,0,0,0,0,0,0,0,0,0,0,0,0,0,0,0,0,0,0,0,0,0,0,0,0,0,0,0,0,0,0,0,0,0,0,0,0,0,0,0,0,0,0,0,0,0,0,0,0,0,0,0,0,0,0,0,0,0,0,0,0,0,0,0,0,
0,0,0,0,0,0,0,0,0,0,0,0,0,0,0,0,0,0,0,0,0,0,0,0,0,0,0,0,0,0,0,0,0,0,0,0,0,0,0,0,0,0,0,0,0,0,0,0,0,0,0,0,0,0,0,0,0,0,0,0,0,0,0,0,0,0,0,0,0,0,0,0,0,0,0,0,0,0,0,0,0,0,0,0,0,0,0,0,0,0,0,0,0,0,0,0,0,0,0,0,0,0,0,0,0,0,0,0,0,0,0,0,0,0,0,0,0,0,0,0,0,0,0,0,0,0,0,0,0,0,
0,0,0,0,0,0,0,0,0,0,0,0,0,0,0,0,0,0,0,0,0,0,0,0,0,0,0,0,0,0,0,0,0,0,0,0,0,0,0,0,0,0,0,0,0,0,0,0,0,0,0,0,0,0,0,0,0,0,0,0,0,0,0,0,0,0,0,0,0,0,0,0,0,0,0,0,0,0,0,0,0,0,0,0,0,0,0,0,0,0,0,0,0,0,0,0,0,0,0,0,0,0,0,0,0,0,0,0,0,0,0,0,0,0,0,0,0,0,0,0,0,0,0,0,0,0,0,0,0,0,
0,0,0,0,0,0,0,0,0,0,0,0,0,0,0,0,0,0,0,0,0,0,0,0,0,0,0,0,0,0,0,0,0,0,0,0,0,0,0,0,0,0,0,0,0,0,0,0,0,0,0,0,0,0,0,0,0,0,0,0,0,0,0,0,0,0,0,0,0,0,0,0,0,0,0,0,0,0,0,0,0,0,0,0,0,0,0,0,0,0,0,0,0,0,0,0,0,0,0,0,0,0,0,0,0,0,0,0,0,0,0,0,0,0,0,0,0,0,0,0,0,0,0,0,0,0,0,0,0,0,
0,0,0,0,0,0,0,0,0,0,0,0,0,0,0,0,0,0,0,0,0,0,0,0,0,0,0,0,0,0,0,0,0,0,0,0,0,0,0,0,0,0,0,0,0,0,0,0,0,0,0,0,0,0,0,0,0,0,0,0,0,0,0,0,0,0,0,0,0,0,0,0,0,0,0,0,0,0,0,0,0,0,0,0,0,0,0,0,0,0,0,0,0,0,0,0,0,0,0,0,0,0,0,0,0,0,0,0,0,0,0,0,0,0,0,0,0,0,0,0,0,0,0,0,0,0,0,0,0,0,
0,0,0,0,0,0,0,0,0,0,0,0,0,0,0,0,0,0,0,0,0,0,0,0,0,0,0,0,0,0,0,0,0,0,0,0,0,0,0,0,0,0,0,0,0,0,0,0,0,0,0,0,0,0,0,0,0,0,0,0,0,0,0,0,0,0,0,0,0,0,0,0,0,0,0,0,0,0,0,0,0,0,0,0,0,0,0,0,0,0,0,0,0,0,0,0,0,0,0,0,0,0,0,0,0,0,0,0,0,0,0,0,0,0,0,0,0,0,0,0,0,0,0,0,0,0,0,0,0,0,
0,0,0,0,0,0,0,0,0,0,0,0,0,0,0,0,0,0,0,0,0,0,0,0,0,0,0,0,0,0,0,0,0,0,0,0,0,0,0,0,0,0,0,0,0,0,0,0,0,0,0,0,0,0,0,0,0,0,0,0,0,0,0,0,0,0,0,0,0,0,0,0,0,0,0,0,0,0,0,0,0,0,0,0,0,0,0,0,0,0,0,0,0,0,0,0,0,0,0,0,0,0,0,0,0,0,0,0,0,0,0,0,0,0,0,0,0,0,0,0,0,0,0,0,0,0,0,0,0,0,
0,0,0,0,0,0,0,0,0,0,0,0,0,0,0,0,0,0,0,0,0,0,0,0,0,0,0,0,0,0,0,0,0,0,0,0,0,0,0,0,0,0,0,0,0,0,0,0,0,0,0,0,0,0,0,0,0,0,0,0,0,0,0,0,0,0,0,0,0,0,0,0,0,0,0,0,0,0,0,0,0,0,0,0,0,0,0,0,0,0,0,0,0,0,0,0,0,0,0,0,0,0,0,0,0,0,0,0,0,0,0,0,0,0,0,0,0,0,0,0,0,0,0,0,0,0,0,0,0,0,
0,0,0,0,0,0,0,0,0,0,0,0,0,0,0,0,0,0,0,0,0,0,0,0,0,0,0,0,0,0,0,0,0,0,0,0,0,0,0,0,0,0,0,0,0,0,0,0,0,0,0,0,0,0,0,0,0,0,0,0,0,0,0,0,0,0,0,0,0,0,0,0,0,0,0,0,0,0,0,0,0,0,0,0,0,0,0,0,0,0,0,0,0,0,0,0,0,0,0,0,0,0,0,0,0,0,0,0,0,0,0,0,0,0,0,0,0,0,0,0,0,0,0,0,0,0,0,0,0,0,
0,0,0,0,0,0,0,0,0,0,0,0,0,0,0,0,0,0,0,0,0,0,0,0,0,0,0,0,0,0,0,0,0,0,0,0,0,0,0,0,0,0,0,0,0,0,0,0,0,0,0,0,0,0,0,0,0,0,0,0,0,0,0,0,0,0,0,0,0,0,0,0,0,0,0,0,0,0,0,0,0,0,0,0,0,0,0,0,0,0,0,0,0,0,0,0,0,0,0,0,0,0,0,0,0,0,0,0,0,0,0,0,0,0,0,0,0,0,0,0,0,0,0,0,0,0,0,0,0,0,
0,0,0,0,0,0,0,0,0,0,0,0,0,0,0,0,0,0,0,0,0,0,0,0,0,0,0,0,0,0,0,0,0,0,0,0,0,0,0,0,0,0,0,0,0,0,0,0,0,0,0,0,0,0,0,0,0,0,0,0,0,0,0,0,0,0,0,0,0,0,0,0,0,0,0,0,0,0,0,0,0,0,0,0,0,0,0,0,0,0,0,0,0,0,0,0,0,0,0,0,0,0,0,0,0,0,0,0,0,0,0,0,0,0,0,0,0,0,0,0,0,0,0,0,0,0,0,0,0,0,
0,0,0,0,0,0,0,0,0,0,0,0,0,0,0,0,0,0,0,0,0,0,0,0,0,0,0,0,0,0,0,0,0,0,0,0,0,0,0,0,0,0,0,0,0,0,0,0,0,0,0,0,0,0,0,0,0,0,0,0,0,0,0,0,0,0,0,0,0,0,0,0,0,0,0,0,0,0,0,0,0,0,0,0,0,0,0,0,0,0,0,0,0,0,0,0,0,0,0,0,0,0,0,0,0,0,0,0,0,0,0,0,0,0,0,0,0,0,0,0,0,0,0,0,0,0,0,0,0,0,
0,0,0,0,0,0,0,0,0,0,0,0,0,0,0,0,0,0,0,0,0,0,0,0,0,0,0,0,0,0,0,0,0,0,0,0,0,0,0,0,0,0,0,0,0,0,0,0,0,0,0,0,0,0,0,0,0,0,0,0,0,0,0,0,0,0,0,0,0,0,0,0,0,0,0,0,0,0,0,0,0,0,0,0,0,0,0,0,0,0,0,0,0,0,0,0,0,0,0,0,0,0,0,0,0,0,0,0,0,0,0,0,0,0,0,0,0,0,0,0,0,0,0,0,0,0,0,0,0,0
</data>
 </layer>
 <layer id="4" name="kittycatcasey.Stardew3D/FloorData_North" width="130" height="110">
  <data encoding="csv">
0,0,0,0,0,0,0,0,0,0,0,0,0,0,0,0,0,0,0,0,0,0,0,0,0,0,0,0,0,0,0,0,0,0,0,0,0,0,0,0,0,0,0,0,0,0,0,0,0,0,0,0,0,0,0,0,0,0,0,0,0,0,0,0,0,0,0,0,0,0,0,0,0,0,0,0,0,0,0,0,0,0,0,0,0,0,0,0,0,0,0,0,0,0,0,0,0,0,0,0,0,0,0,0,0,0,0,0,0,0,0,0,0,0,0,0,0,0,0,0,0,0,0,0,0,0,0,0,0,0,
0,0,0,0,0,0,0,0,0,0,0,0,0,0,0,0,0,0,0,0,0,0,0,0,0,0,0,0,0,0,0,0,0,0,0,0,0,0,0,0,0,0,0,0,0,0,0,0,0,0,0,0,0,0,0,0,0,0,0,0,0,0,0,0,0,0,0,0,0,0,0,0,0,0,0,0,0,0,0,0,0,0,0,0,0,0,0,0,0,0,0,0,0,0,0,0,0,0,0,0,0,0,0,0,0,0,0,0,0,0,0,0,0,0,0,0,0,0,0,0,0,0,0,0,0,0,0,0,0,0,
0,0,0,0,0,0,0,0,0,0,0,0,0,0,0,0,0,0,0,0,0,0,0,0,0,0,0,0,0,0,0,0,0,0,0,0,0,0,0,0,0,0,0,0,0,0,0,0,0,0,0,0,0,0,0,0,0,0,0,0,0,0,0,0,0,0,0,0,0,0,0,0,0,0,0,0,0,0,0,0,0,0,0,0,0,0,0,0,0,0,0,0,0,0,0,0,0,0,0,0,0,0,0,0,0,0,0,0,0,0,0,0,0,0,0,0,0,0,0,0,0,0,0,0,0,0,0,0,0,0,
0,0,0,0,0,0,0,0,0,0,0,0,0,0,0,0,0,0,0,0,0,0,0,0,0,0,0,0,0,0,0,0,0,0,0,0,0,0,0,0,0,0,0,0,0,0,0,0,0,0,0,0,0,0,0,0,0,0,0,0,0,0,0,0,0,0,0,0,0,0,0,0,0,0,0,0,0,0,0,0,0,0,0,0,0,0,0,0,0,0,0,0,0,0,0,0,0,0,0,0,0,0,0,0,0,0,0,0,0,0,0,0,0,0,0,0,0,0,0,0,0,0,0,0,0,0,0,0,0,0,
0,0,0,0,0,0,0,0,0,0,0,0,0,0,0,0,0,0,0,0,0,0,0,0,0,0,0,0,0,0,0,0,0,0,0,0,0,0,0,0,0,0,0,0,0,0,0,0,0,0,0,0,0,0,0,0,0,0,0,0,0,0,0,0,0,0,0,0,0,0,0,0,0,0,0,0,0,0,0,0,0,0,0,0,0,0,0,0,0,0,0,0,0,0,0,0,0,0,0,0,0,0,0,0,0,0,0,0,0,0,0,0,0,0,0,0,0,0,0,0,0,0,0,0,0,0,0,0,0,0,
0,0,0,0,0,0,0,0,0,0,0,0,0,0,0,0,0,0,0,0,0,0,0,0,0,0,0,0,0,0,0,0,0,0,0,0,0,0,0,0,0,0,0,0,0,0,0,0,0,0,0,0,0,0,0,0,0,0,0,0,0,0,0,0,0,0,0,0,0,0,0,0,0,0,0,0,0,0,0,0,0,0,0,0,0,0,0,0,0,0,0,0,0,0,0,0,0,0,0,0,0,0,0,0,0,0,0,0,0,0,0,0,0,0,0,0,0,0,0,0,0,0,0,0,0,0,0,0,0,0,
0,0,0,0,0,0,0,0,0,0,0,0,0,0,0,0,0,0,0,0,0,0,0,0,0,0,0,0,0,0,0,0,0,0,0,0,0,0,0,0,0,0,0,0,0,0,0,0,0,0,0,0,0,0,0,0,0,0,0,0,0,0,0,0,0,0,0,0,0,0,0,0,0,0,0,0,0,0,0,0,0,0,0,0,0,0,0,0,0,0,0,0,0,0,0,0,0,0,0,0,0,0,0,0,0,0,0,0,0,0,0,0,0,0,0,0,0,0,0,0,0,0,0,0,0,0,0,0,0,0,
0,0,0,0,0,0,0,0,0,0,0,0,0,0,0,0,0,0,0,0,0,0,0,0,0,0,0,0,0,0,0,0,0,0,0,0,0,0,0,0,0,0,0,0,0,0,0,0,0,0,0,0,0,0,0,0,0,0,0,0,0,0,0,0,0,0,0,0,0,0,0,0,0,0,0,0,0,0,0,0,0,0,0,0,0,0,0,0,0,0,0,0,0,0,0,0,0,0,0,0,0,0,0,0,0,0,0,0,0,0,0,0,0,0,0,0,0,0,0,0,0,0,0,0,0,0,0,0,0,0,
0,0,0,0,0,0,0,0,0,0,0,0,0,0,0,0,0,0,0,0,0,0,0,0,0,0,0,0,0,0,0,0,0,0,0,0,0,0,0,0,0,0,0,0,0,0,0,0,0,0,0,0,0,0,0,0,0,0,0,0,0,0,0,0,0,0,0,0,0,0,0,0,0,0,0,0,0,0,0,0,0,0,0,0,0,0,0,0,0,0,0,0,0,0,0,0,0,0,0,0,0,0,0,0,0,0,0,0,0,0,0,0,0,0,0,0,0,0,0,0,0,0,0,0,0,0,0,0,0,0,
0,0,0,0,0,0,0,0,0,0,0,0,0,0,0,0,0,0,0,0,0,0,0,0,0,0,0,0,0,0,0,0,0,0,0,0,0,0,0,0,0,0,0,0,0,0,0,0,0,0,0,0,0,0,0,0,0,0,0,0,0,0,0,0,0,0,0,0,0,0,0,0,0,0,0,0,0,0,0,0,0,0,0,0,0,0,0,0,0,0,0,0,0,0,0,0,0,0,0,0,0,0,0,0,0,0,0,0,0,0,0,0,0,0,0,0,0,0,0,0,0,0,0,0,0,0,0,0,0,0,
0,0,0,0,0,0,0,0,0,0,0,0,0,0,0,0,0,0,0,0,0,0,0,0,0,0,0,0,0,0,0,0,0,0,0,0,0,0,0,0,0,0,0,0,0,0,0,0,0,0,0,0,0,0,0,0,0,0,0,0,0,0,0,0,0,0,0,0,0,0,0,0,0,0,0,0,0,0,0,0,0,0,0,0,0,0,0,0,0,0,0,0,0,0,0,0,0,0,0,0,0,0,0,0,0,0,0,0,0,0,0,0,0,0,0,0,0,0,0,0,0,0,0,0,0,0,0,0,0,0,
0,0,0,0,0,0,0,0,0,0,0,0,0,0,0,0,0,0,0,0,0,0,0,0,0,0,0,0,0,0,0,0,0,0,0,0,0,0,0,0,0,0,0,0,0,0,0,0,0,0,0,0,0,0,0,0,0,0,0,0,0,0,0,0,0,0,0,0,0,0,0,0,0,0,0,0,0,0,0,0,0,0,0,0,0,0,0,0,0,0,0,0,0,0,0,0,0,0,0,0,0,0,0,0,0,0,0,0,0,0,0,0,0,0,0,0,0,0,0,0,0,0,0,0,0,0,0,0,0,0,
0,0,0,0,0,0,0,0,0,0,0,0,0,0,0,0,0,0,0,0,0,0,0,0,0,0,0,0,0,0,0,0,0,0,0,0,0,0,0,0,0,0,0,0,0,0,0,0,0,0,0,0,0,0,0,0,0,0,0,0,0,0,0,0,0,0,0,0,0,0,0,0,0,0,0,0,0,0,0,0,0,0,0,0,0,0,0,0,0,0,0,0,0,0,0,0,0,0,0,0,0,0,0,0,0,0,0,0,0,0,0,0,0,0,0,0,0,0,0,0,0,0,0,0,0,0,0,0,0,0,
0,0,0,0,0,0,0,0,0,0,0,0,0,0,0,0,0,0,0,0,0,0,0,0,0,0,0,0,0,0,0,0,0,0,0,0,0,0,0,0,0,0,0,0,0,0,0,0,0,0,0,0,0,0,0,0,0,0,0,0,0,0,0,0,0,0,0,0,0,0,0,0,0,0,0,0,0,0,0,0,0,0,0,0,0,0,0,0,0,0,0,0,0,0,0,0,0,0,0,0,0,0,0,0,0,0,0,0,0,0,0,0,0,0,0,0,0,0,0,0,0,0,0,0,0,0,0,0,0,0,
0,0,0,0,0,0,0,0,0,0,0,0,0,0,0,0,0,0,0,0,0,0,0,0,0,0,0,0,0,0,0,0,0,0,0,0,0,0,0,0,0,0,0,0,0,0,0,0,0,0,0,0,0,0,0,0,0,0,0,0,0,0,0,0,0,0,0,0,0,0,0,0,0,0,0,0,0,0,0,0,0,0,0,0,0,0,0,0,0,0,0,0,0,0,0,0,0,0,0,0,0,0,0,0,0,0,0,0,0,0,0,0,0,0,0,0,0,0,0,0,0,0,0,0,0,0,0,0,0,0,
0,0,0,0,0,0,0,0,0,0,0,0,0,0,0,0,0,0,0,0,0,0,0,0,0,0,0,0,0,0,0,0,0,0,0,0,0,0,0,0,0,0,0,0,0,0,0,0,0,0,0,0,0,0,0,0,0,0,0,0,0,0,0,0,0,0,0,0,0,0,0,0,0,0,0,0,0,0,0,0,0,0,0,0,0,0,0,0,0,0,0,0,0,0,0,0,0,0,0,0,0,0,0,0,0,0,0,0,0,0,0,0,0,0,0,0,0,0,0,0,0,0,0,0,0,0,0,0,0,0,
0,0,0,0,0,0,0,0,0,0,0,0,0,0,0,0,0,0,0,0,0,0,0,0,0,0,0,0,0,0,0,0,0,0,0,0,0,0,0,0,0,0,0,0,0,0,0,0,0,0,0,0,0,0,0,0,0,0,0,0,0,0,0,0,0,0,0,0,0,0,0,0,0,0,0,0,0,0,0,0,0,0,0,0,0,0,0,0,0,0,0,0,0,0,0,0,0,0,0,0,0,0,0,0,0,0,0,0,0,0,0,0,0,0,0,0,0,0,0,0,0,0,0,0,0,0,0,0,0,0,
0,0,0,0,0,0,0,0,0,0,0,0,0,0,0,0,0,0,0,0,0,0,0,0,0,0,0,0,0,0,0,0,0,0,0,0,0,0,0,0,0,0,0,0,0,0,0,0,0,0,0,0,0,0,0,0,0,0,0,0,0,0,0,0,0,0,0,0,0,0,0,0,0,0,0,0,0,0,0,0,0,0,0,0,0,0,0,0,0,0,0,0,0,0,0,0,0,0,0,0,0,0,0,0,0,0,0,0,0,0,0,0,0,0,0,0,0,0,0,0,0,0,0,0,0,0,0,0,0,0,
0,0,0,0,0,0,0,0,0,0,0,0,0,0,0,0,0,0,0,0,0,0,0,0,0,0,0,0,0,0,0,0,0,0,0,0,0,0,0,0,0,0,0,0,0,0,0,0,0,0,0,0,0,0,0,0,0,0,0,0,0,0,0,0,0,0,0,0,0,0,0,0,0,0,0,0,0,0,0,0,0,0,0,0,0,0,0,0,0,0,0,0,0,0,0,0,0,0,0,0,0,0,0,0,0,0,0,0,0,0,0,0,0,0,0,0,0,0,0,0,0,0,0,0,0,0,0,0,0,0,
0,0,0,0,0,0,0,0,0,0,0,0,0,0,0,0,0,0,0,0,0,0,0,0,0,0,0,0,0,0,0,0,0,0,0,0,0,0,0,0,0,0,0,0,0,0,0,0,0,0,0,0,0,0,0,0,0,0,0,0,0,0,0,0,0,0,0,0,0,0,0,0,0,0,0,0,0,0,0,0,0,0,0,0,0,0,0,0,0,0,0,0,0,0,0,0,0,0,0,0,0,0,0,0,0,0,0,0,0,0,0,0,0,0,0,0,0,0,0,0,0,0,0,0,0,0,0,0,0,0,
0,0,0,0,0,0,0,0,0,0,0,0,0,0,0,0,0,0,0,0,0,0,0,0,0,0,0,0,0,0,0,0,0,0,0,0,0,0,0,0,0,0,0,0,0,0,0,0,0,0,0,0,0,0,0,0,0,0,0,0,0,0,0,0,0,0,0,0,0,0,0,0,0,0,0,0,0,0,0,0,0,0,0,0,0,0,0,0,0,0,0,0,0,0,0,0,0,0,0,0,0,0,0,0,0,0,0,0,0,0,0,0,0,0,0,0,0,0,0,0,0,0,0,0,0,0,0,0,0,0,
0,0,0,0,0,0,0,0,0,0,0,0,0,0,0,0,0,0,0,0,0,0,0,0,0,0,0,0,0,0,0,0,0,0,0,0,0,0,0,0,0,0,0,0,0,0,0,0,0,0,0,0,0,0,0,0,0,0,0,0,0,0,0,0,0,0,0,0,0,0,0,0,0,0,0,0,0,0,0,0,0,0,0,0,0,0,0,0,0,0,0,0,0,0,0,0,0,0,0,0,0,0,0,0,0,0,0,0,0,0,0,0,0,0,0,0,0,0,0,0,0,0,0,0,0,0,0,0,0,0,
0,0,0,0,0,0,0,0,0,0,0,0,0,0,0,0,0,0,0,0,0,0,0,0,0,0,0,0,0,0,0,0,0,0,0,0,0,0,0,0,0,0,0,0,0,0,0,0,0,0,0,0,0,0,0,0,0,0,0,0,0,0,0,0,0,0,0,0,0,0,0,0,0,0,0,0,0,0,0,0,0,0,0,0,0,0,0,0,0,0,0,0,0,0,0,0,0,0,0,0,0,0,0,0,0,0,0,0,0,0,0,0,0,0,0,0,0,0,0,0,0,0,0,0,0,0,0,0,0,0,
0,0,0,0,0,0,0,0,0,0,0,0,0,0,0,0,0,0,0,0,0,0,0,0,0,0,0,0,0,0,0,0,0,0,0,0,0,0,0,0,0,0,0,0,0,0,0,0,0,0,0,0,0,0,0,0,0,0,0,0,0,0,0,0,0,0,0,0,0,0,0,0,0,0,0,0,0,0,0,0,0,0,0,0,0,0,0,0,0,0,0,0,0,0,0,0,0,0,0,0,0,0,0,0,0,0,0,0,0,0,0,0,0,0,0,0,0,0,0,0,0,0,0,0,0,0,0,0,0,0,
0,0,0,0,0,0,0,0,0,0,0,0,0,0,0,0,0,0,0,0,0,0,0,0,0,0,0,0,0,0,0,0,0,0,0,0,0,0,0,0,0,0,0,0,0,0,0,0,0,0,0,0,0,0,0,0,0,0,0,0,0,0,0,0,0,0,0,0,0,0,0,0,0,0,0,0,0,0,0,0,0,0,0,0,0,0,0,0,0,0,0,0,0,0,0,0,0,0,0,0,0,0,0,0,0,0,0,0,0,0,0,0,0,0,0,0,0,0,0,0,0,0,0,0,0,0,0,0,0,0,
0,0,0,0,0,0,0,0,0,0,0,0,0,0,0,0,0,0,0,0,0,0,0,0,0,0,0,0,0,0,0,0,0,0,0,0,0,0,0,0,0,0,0,0,0,0,0,0,0,0,0,0,0,0,0,0,0,0,0,0,0,0,0,0,0,0,0,0,0,0,0,0,0,0,0,0,0,0,0,0,0,0,0,0,0,0,0,0,0,0,0,0,0,0,0,0,0,0,0,0,0,0,0,0,0,0,0,0,0,0,0,0,0,0,0,0,0,0,0,0,0,0,0,0,0,0,0,0,0,0,
0,0,0,0,0,0,0,0,0,0,0,0,0,0,0,0,0,0,0,0,0,0,0,0,0,0,0,0,0,0,0,0,0,0,0,0,0,0,0,0,0,0,0,0,0,0,0,0,0,0,0,0,0,0,0,0,0,0,0,0,0,0,0,0,0,0,0,0,0,0,0,0,0,0,0,0,0,0,0,0,0,0,0,0,0,0,0,0,0,0,0,0,0,0,0,0,0,0,0,0,0,0,0,0,0,0,0,0,0,0,0,0,0,0,0,0,0,0,0,0,0,0,0,0,0,0,0,0,0,0,
0,0,0,0,0,0,0,0,0,0,0,0,0,0,0,0,0,0,0,0,0,0,0,0,0,0,0,0,0,0,0,0,0,0,0,0,0,0,0,0,0,0,0,0,0,0,0,0,0,0,0,0,0,0,0,0,0,0,0,0,0,0,0,0,0,0,0,0,0,0,0,0,0,0,0,0,0,0,0,0,0,0,0,0,0,0,0,0,0,0,0,0,0,0,0,0,0,0,0,0,0,0,0,0,0,0,0,0,0,0,0,0,0,0,0,0,0,0,0,0,0,0,0,0,0,0,0,0,0,0,
0,0,0,0,0,0,0,0,0,0,0,0,0,0,0,0,0,0,0,0,0,0,0,0,0,0,0,0,0,0,0,0,0,0,0,0,0,0,0,0,0,0,0,0,0,0,0,0,0,0,0,0,0,0,0,0,0,0,0,0,0,0,0,0,0,0,0,0,0,0,0,0,0,0,0,0,0,0,0,0,0,0,0,0,0,0,0,0,0,0,0,0,0,0,0,0,0,0,0,0,0,0,0,0,0,0,0,0,0,0,0,0,0,0,0,0,0,0,0,0,0,0,0,0,0,0,0,0,0,0,
0,0,0,0,0,0,0,0,0,0,0,0,0,0,0,0,0,0,0,0,0,0,0,0,0,0,0,0,0,0,0,0,0,0,0,0,0,0,0,0,0,0,0,0,0,0,0,0,0,0,0,0,0,0,0,0,0,0,0,0,0,0,0,0,0,0,0,0,0,0,0,0,0,0,0,0,0,0,0,0,0,0,0,0,0,0,0,0,0,0,0,0,0,0,0,0,0,0,0,0,0,0,0,0,0,0,0,0,0,0,0,0,0,0,0,0,0,0,0,0,0,0,0,0,0,0,0,0,0,0,
0,0,0,0,0,0,0,0,0,0,0,0,0,0,0,0,0,0,0,0,0,0,0,0,0,0,0,0,0,0,0,0,0,0,0,0,0,0,0,0,0,0,0,0,0,0,0,0,0,0,0,0,0,0,0,0,0,0,0,0,0,0,0,0,0,0,0,0,0,0,0,0,0,0,0,0,0,0,0,0,0,0,0,0,0,0,0,0,0,0,0,0,0,0,0,0,0,0,0,0,0,0,0,0,0,0,0,0,0,0,0,0,0,0,0,0,0,0,0,0,0,0,0,0,0,0,0,0,0,0,
0,0,0,0,0,0,0,0,0,0,0,0,0,0,0,0,0,0,0,0,0,0,0,0,0,0,0,0,0,0,0,0,0,0,0,0,0,0,0,0,0,0,0,0,0,0,0,0,0,0,0,0,0,0,0,0,0,0,0,0,0,0,0,0,0,0,0,0,0,0,0,0,0,0,6871,6871,0,0,0,0,0,0,0,0,0,0,0,0,0,0,0,0,0,0,0,0,0,0,0,0,0,0,0,0,0,0,0,0,0,0,0,0,0,0,0,0,0,0,0,0,0,0,0,0,0,0,0,0,0,0,
0,0,0,0,0,0,0,0,0,0,0,0,0,0,0,0,0,0,0,0,0,0,0,0,0,0,0,0,0,0,0,0,0,0,0,0,0,0,0,0,0,0,0,0,0,0,0,0,0,0,0,0,0,0,0,0,0,0,0,0,0,0,0,0,0,0,0,0,0,0,0,0,0,0,6871,6871,0,0,0,0,0,0,0,0,0,0,0,0,0,0,0,0,0,0,0,0,0,0,0,0,0,0,0,0,0,0,0,0,0,0,0,0,0,0,0,0,0,0,0,0,0,0,0,0,0,0,0,0,0,0,
0,0,0,0,0,0,0,0,0,0,0,0,0,0,0,0,0,0,0,0,0,0,0,0,0,0,0,0,0,0,0,0,0,0,0,0,0,0,0,0,0,0,0,0,0,0,0,0,0,0,0,0,0,0,0,0,0,0,0,0,0,0,0,0,0,0,0,0,0,0,0,0,0,0,6871,6871,0,0,0,0,0,0,0,0,0,0,0,0,0,0,0,0,0,0,0,0,0,0,0,0,0,0,0,0,0,0,0,0,0,0,0,0,0,0,0,0,0,0,0,0,0,0,0,0,0,0,0,0,0,0,
0,0,0,0,0,0,0,0,0,0,0,0,0,0,0,0,0,0,0,0,0,0,0,0,0,0,0,0,0,0,0,0,0,0,0,0,0,0,0,0,0,0,0,0,0,0,0,0,0,0,0,0,0,0,0,0,0,0,0,0,0,0,0,0,0,0,0,0,0,0,0,0,0,0,6871,6871,0,0,0,0,0,0,0,0,0,0,0,0,0,0,0,0,0,0,0,0,0,0,0,0,0,0,0,0,0,0,0,0,0,0,0,0,0,0,0,0,0,0,0,0,0,0,0,0,0,0,0,0,0,0,
0,0,0,0,0,0,0,0,0,0,0,0,0,0,0,0,0,0,0,0,0,0,0,0,0,0,0,0,0,0,0,0,0,0,0,0,0,0,0,0,0,0,0,0,0,0,0,0,0,0,0,0,0,0,0,0,0,0,0,0,0,0,0,0,0,0,0,0,0,0,0,0,0,0,0,0,0,0,0,0,0,0,0,0,0,0,0,0,0,0,0,0,0,0,0,0,0,0,0,0,0,0,0,0,0,0,0,0,0,0,0,0,0,0,0,0,0,0,0,0,0,0,0,0,0,0,0,0,0,0,
0,0,0,0,0,0,0,0,0,0,0,0,0,0,0,0,0,0,0,0,0,0,0,0,0,0,0,0,0,0,0,0,0,0,0,0,0,0,0,0,0,0,0,0,0,0,0,0,0,0,0,0,0,0,0,0,0,0,0,0,0,0,0,0,0,0,0,0,0,0,0,0,0,0,0,0,0,0,0,0,0,0,0,0,0,0,0,0,0,0,0,0,0,0,0,0,0,0,0,0,0,0,0,0,0,0,6871,6871,0,0,0,0,0,0,0,0,0,0,0,0,0,0,0,0,0,0,0,0,0,0,
0,0,0,0,0,0,0,0,0,0,0,0,0,0,0,0,0,0,0,0,0,0,0,0,0,0,0,0,0,0,0,0,0,0,0,0,0,0,0,0,0,0,0,0,0,0,0,0,0,0,0,0,0,0,0,0,0,0,0,0,0,0,0,0,0,0,0,0,0,0,0,0,0,0,0,0,0,0,0,0,0,0,0,0,0,0,0,0,0,0,0,0,0,0,0,0,0,0,0,0,0,0,0,0,0,0,6871,6871,0,0,0,0,0,0,0,0,0,0,0,0,0,0,0,0,0,0,0,0,0,0,
0,0,0,0,0,0,0,0,0,0,0,0,0,0,0,0,0,0,0,0,0,0,0,0,0,0,0,0,0,0,0,0,0,0,0,0,0,0,0,0,0,0,0,0,0,0,0,0,0,0,0,0,0,0,0,0,0,0,0,0,0,0,0,0,0,0,0,0,0,0,0,0,0,0,0,0,0,0,0,0,0,0,0,0,0,0,0,0,0,0,0,0,0,0,0,0,0,0,0,0,0,0,0,0,0,0,6871,6871,0,0,0,0,0,0,0,0,0,0,0,0,0,0,0,0,0,0,0,0,0,0,
0,0,0,0,0,0,0,0,0,0,0,0,0,0,0,0,0,0,0,0,0,0,0,0,0,0,0,0,0,0,0,0,0,0,0,0,0,0,0,0,0,0,0,0,0,0,0,0,0,0,0,0,0,0,0,0,0,0,0,0,0,0,0,0,0,0,0,0,0,0,0,0,0,0,0,0,0,0,0,0,0,0,0,0,0,0,0,0,0,0,0,0,0,0,0,0,0,0,0,0,0,0,0,0,0,0,6871,6871,0,0,0,0,0,0,0,0,0,0,0,0,0,0,0,0,0,0,0,0,0,0,
0,0,0,0,0,0,0,0,0,0,0,0,0,0,0,0,0,0,0,0,0,0,0,0,0,0,0,0,0,0,0,0,0,0,0,0,0,0,0,0,0,0,0,0,0,0,0,0,0,0,0,0,0,0,0,0,0,0,0,0,0,0,0,0,0,0,0,0,0,0,0,0,0,0,0,0,0,0,0,0,0,0,0,0,0,0,0,0,0,0,0,0,0,0,0,0,0,0,0,0,0,0,0,0,0,0,0,0,0,0,0,0,0,0,0,0,0,0,0,0,0,0,0,0,0,0,0,0,0,0,
0,0,0,0,0,0,0,0,0,0,0,0,0,0,0,0,0,0,0,0,0,0,0,0,0,0,0,0,0,0,0,0,0,0,0,0,0,0,0,0,0,0,0,0,0,0,0,0,0,0,0,0,0,0,0,0,0,0,0,0,0,0,0,0,0,0,0,0,0,0,0,0,0,0,0,0,0,0,0,0,0,0,0,0,0,0,0,0,0,0,0,0,0,0,0,0,0,0,0,0,0,0,0,0,0,0,0,0,0,0,0,0,0,0,0,0,0,0,0,0,0,0,0,0,0,0,0,0,0,0,
0,0,0,0,0,0,0,0,0,0,0,0,0,0,0,0,0,0,0,0,6871,6871,0,0,0,0,0,0,0,0,0,0,0,0,0,0,0,0,0,0,0,0,0,0,0,0,0,0,0,0,0,0,0,0,0,0,0,0,0,0,0,0,0,0,0,0,0,0,0,0,0,0,0,0,0,0,0,0,0,0,0,0,0,0,0,0,0,0,0,0,0,0,0,0,0,0,0,0,0,0,0,0,0,0,0,0,0,0,0,0,0,0,0,0,0,0,0,0,0,0,0,0,0,0,0,0,0,0,0,0,
0,0,0,0,0,0,0,0,0,0,0,0,0,0,0,0,0,0,0,0,6871,6871,0,0,0,0,0,0,0,0,0,0,0,0,0,0,0,0,0,0,0,0,0,0,0,0,0,0,6871,6871,0,0,0,0,0,0,0,0,0,0,0,0,0,0,0,0,0,0,0,0,0,0,0,0,0,0,0,0,0,0,0,0,0,0,0,0,0,0,0,0,0,0,0,0,0,0,0,0,0,0,0,0,0,0,0,0,0,0,0,0,0,0,0,0,0,0,0,0,0,0,0,0,0,0,0,0,0,0,0,0,
0,0,0,0,0,0,0,0,0,0,0,0,0,0,0,0,0,0,0,0,6871,6871,0,0,0,0,0,0,0,0,0,0,0,0,0,0,0,0,0,0,0,0,0,0,0,0,0,0,6871,6871,0,0,0,0,0,0,0,0,0,0,0,0,0,0,0,0,0,0,0,0,0,0,0,0,0,0,0,0,0,0,0,0,0,0,0,0,0,0,0,0,0,0,0,0,0,0,0,0,0,0,0,0,0,0,0,0,0,0,0,0,0,0,0,0,0,0,0,0,0,0,0,0,0,0,0,0,0,0,0,0,
0,0,0,0,0,0,0,0,0,0,0,0,0,0,0,0,0,0,0,0,6871,6871,0,0,0,0,0,0,0,0,0,0,0,0,0,0,0,0,0,0,0,0,0,0,0,0,0,0,6871,6871,0,0,0,0,0,0,0,0,0,0,0,0,0,0,0,0,0,0,0,0,0,0,0,0,0,0,0,0,0,0,0,0,0,0,0,0,0,0,0,0,0,0,0,0,0,0,0,0,0,0,0,0,0,0,0,0,0,0,0,0,0,0,0,0,0,0,0,0,0,0,0,0,0,0,0,0,0,0,0,0,
0,0,0,0,0,0,0,0,0,0,0,0,0,0,0,0,0,0,0,0,0,0,0,0,0,0,0,0,0,0,0,0,0,0,0,0,0,0,0,0,0,0,0,0,0,0,0,0,6871,6871,0,0,0,0,0,0,0,0,0,0,0,0,0,0,0,0,0,0,0,0,0,0,0,0,0,0,0,0,0,0,0,0,0,0,0,0,0,0,0,0,0,0,0,0,0,0,0,0,0,0,0,0,0,0,0,0,0,0,0,0,0,0,0,0,0,0,0,0,0,0,0,0,0,0,0,0,0,0,0,0,
0,0,0,0,0,0,0,0,0,0,0,0,0,0,0,0,0,0,0,0,0,0,0,0,0,0,0,0,0,0,0,0,0,0,0,0,0,0,0,0,0,0,0,0,0,0,0,0,0,0,0,0,0,0,0,0,0,0,0,0,0,0,0,0,0,0,0,0,0,0,0,0,0,0,0,0,0,0,0,0,0,0,0,0,0,0,0,0,0,0,0,0,0,0,0,0,0,0,0,0,0,0,0,0,0,0,0,0,0,0,0,0,0,0,0,0,0,0,0,0,0,0,0,0,0,0,0,0,0,0,
0,0,0,0,0,0,0,0,0,0,0,0,0,0,0,0,0,0,0,0,0,0,0,0,0,0,0,0,0,0,0,0,0,0,0,0,0,0,0,0,0,0,0,0,0,0,0,0,0,0,0,0,0,0,0,0,0,0,0,0,0,0,0,0,0,0,0,0,0,0,0,0,0,0,0,0,0,0,0,0,0,0,0,0,0,0,0,0,0,0,0,0,0,0,0,0,0,0,0,0,0,0,0,0,0,0,0,0,0,0,0,0,0,0,0,0,0,0,0,0,0,0,0,0,0,0,0,0,0,0,
0,0,0,0,0,0,0,0,0,0,0,0,0,0,0,0,0,0,0,0,0,0,0,0,0,0,0,0,0,0,0,0,0,0,0,0,0,0,0,0,0,0,0,0,0,0,0,0,0,0,0,0,0,0,0,0,0,0,0,0,0,0,0,0,0,0,0,0,0,0,0,0,0,0,0,0,0,0,0,0,0,0,0,0,0,0,0,0,0,0,0,0,0,0,0,0,0,0,0,0,0,0,0,0,0,0,0,0,0,0,0,0,0,0,0,0,0,0,0,0,0,0,0,0,0,0,0,0,0,0,
0,0,0,0,0,0,0,0,0,0,0,0,0,0,0,0,0,0,0,0,0,0,0,0,0,0,0,0,0,0,0,0,0,0,0,0,0,0,0,0,0,0,0,0,0,0,0,0,0,0,0,0,0,0,0,0,0,0,0,0,0,0,0,0,0,0,0,0,0,0,0,0,0,0,0,0,0,0,0,0,0,0,0,0,0,0,0,0,0,0,0,0,0,0,0,0,0,0,0,0,0,0,0,0,0,0,0,0,0,0,0,0,0,0,0,0,0,0,0,0,0,0,0,0,0,0,0,0,0,0,
0,0,0,0,0,0,0,0,0,0,0,0,0,0,0,0,0,0,0,0,0,0,0,0,0,0,0,0,0,0,0,0,0,0,0,0,0,0,0,0,0,0,0,0,0,0,0,0,0,0,0,0,0,0,0,0,0,0,0,0,0,0,0,0,0,0,0,0,0,0,0,0,0,0,0,0,0,0,0,0,0,0,0,0,0,0,0,0,0,0,0,0,0,0,0,0,0,0,0,0,0,0,0,0,0,0,0,0,0,0,0,0,0,0,0,0,0,0,0,0,0,0,0,0,0,0,0,0,0,0,
0,0,0,0,0,0,0,0,0,0,0,0,0,0,0,0,0,0,0,0,0,0,0,0,0,0,0,0,0,0,0,0,0,0,0,0,0,0,0,0,0,0,0,0,0,0,0,0,0,0,0,0,0,0,0,0,0,0,0,0,0,0,0,0,0,0,0,0,0,0,0,0,0,0,0,0,0,0,0,0,0,0,0,0,0,0,0,0,0,0,0,0,0,0,0,0,0,0,0,0,0,0,0,0,0,0,0,0,0,0,0,0,0,0,0,0,0,0,0,0,0,0,0,0,0,0,0,0,0,0,
0,0,0,0,0,0,0,0,0,0,0,0,0,0,0,0,0,0,0,0,0,0,0,0,0,0,0,0,0,0,0,0,0,0,0,0,0,0,0,0,0,0,0,0,0,0,0,0,0,0,0,0,0,0,0,0,0,0,0,0,0,0,0,0,0,0,0,0,0,0,0,0,0,0,0,0,0,0,0,0,0,0,0,0,0,0,0,0,0,0,0,0,0,0,0,0,0,0,0,0,0,0,0,0,0,0,0,0,0,0,0,0,0,0,0,0,0,0,0,0,0,0,0,0,0,0,0,0,0,0,
0,0,0,0,0,0,0,0,0,0,0,0,0,0,0,0,0,0,0,0,0,0,0,0,0,0,0,0,0,0,0,0,0,0,0,0,0,0,0,0,0,0,0,0,0,0,0,0,0,0,0,0,0,0,0,0,0,0,0,0,0,0,0,0,0,0,0,0,0,0,0,0,0,0,0,0,0,0,0,0,0,0,0,0,0,0,0,0,0,0,0,0,0,0,0,0,0,0,0,0,0,0,0,0,0,0,0,0,0,0,0,0,0,0,0,0,0,0,0,0,0,0,0,0,0,0,0,0,0,0,
0,0,0,0,0,0,0,0,0,0,0,0,0,0,0,0,0,0,0,0,0,0,0,0,0,0,0,0,0,0,0,0,0,0,0,0,0,0,0,0,0,0,0,0,0,0,0,0,0,0,0,0,0,0,0,0,0,0,0,0,0,0,0,0,0,0,0,0,0,0,0,0,0,0,0,0,0,0,0,0,0,0,0,0,0,0,0,0,0,0,0,0,0,0,0,0,0,0,0,0,0,0,0,0,0,0,0,0,0,0,0,0,0,0,0,0,0,0,0,0,0,0,0,0,0,0,0,0,0,0,
0,0,0,0,0,0,0,0,0,0,0,0,0,0,0,0,0,0,0,0,0,0,0,0,0,0,0,0,0,0,0,0,0,0,0,0,0,0,0,0,0,0,0,0,0,0,0,0,0,0,0,0,0,0,0,0,0,0,0,0,0,0,0,0,0,0,0,0,0,0,0,0,0,0,0,0,0,0,0,0,0,0,0,0,0,0,0,0,0,0,0,0,0,0,0,0,0,0,0,0,0,0,0,0,0,0,0,0,0,0,0,0,0,0,0,0,0,0,0,0,0,0,0,0,0,0,0,0,0,0,
0,0,0,0,0,0,0,0,0,0,0,0,0,0,0,0,0,0,0,0,0,0,0,0,0,0,0,0,0,0,0,0,0,0,0,0,0,0,0,0,0,0,0,0,0,0,0,0,0,0,0,0,0,0,0,0,0,0,0,0,0,0,0,0,0,0,0,0,0,0,0,0,0,0,0,0,0,0,0,0,0,0,0,0,0,0,0,0,0,0,0,0,0,0,0,0,0,0,0,0,0,0,0,0,0,0,0,0,0,0,0,0,0,0,0,0,0,0,0,0,0,0,0,0,0,0,0,0,0,0,
0,0,0,0,0,0,0,0,0,0,0,0,0,0,0,0,0,0,0,0,0,0,0,0,0,0,0,0,0,0,0,0,0,0,0,0,0,0,0,0,0,0,0,0,0,0,0,0,0,0,0,0,0,0,0,0,0,0,0,0,0,0,0,0,0,0,0,0,0,0,0,0,0,0,0,0,0,0,0,0,0,0,0,0,0,0,0,0,0,0,0,0,0,0,0,0,0,0,0,0,0,0,0,0,0,0,0,0,0,0,0,0,0,0,0,0,0,0,0,0,0,0,0,0,0,0,0,0,0,0,
0,0,0,0,0,0,0,0,0,0,0,0,0,0,0,0,0,0,0,0,0,0,0,0,0,0,0,0,0,0,0,0,0,0,0,0,0,0,0,0,0,0,0,0,0,0,0,0,0,0,0,0,0,0,0,0,0,0,0,0,0,0,0,0,0,0,0,0,0,0,0,0,0,0,0,0,0,0,0,0,0,0,0,0,0,0,0,0,0,0,0,0,0,0,0,0,0,0,0,0,0,0,0,0,0,0,0,0,0,0,0,0,0,0,0,0,0,0,0,0,0,0,0,0,0,0,0,0,0,0,
0,0,0,0,0,0,0,0,0,0,0,0,0,0,0,0,0,0,0,0,0,0,0,0,0,0,0,0,0,0,0,0,0,0,0,0,0,0,0,0,0,0,0,0,0,0,0,0,0,0,0,0,0,0,0,0,0,0,0,0,0,0,0,0,0,0,0,0,0,0,0,0,0,0,0,0,0,0,0,0,0,0,0,0,0,0,0,0,0,0,0,0,0,0,0,0,0,0,0,0,0,0,0,0,0,0,0,0,0,0,0,0,0,0,0,0,0,0,0,0,0,0,0,0,0,0,0,0,0,0,
0,0,0,0,0,0,0,0,0,0,0,0,0,0,0,0,0,0,0,0,0,0,0,0,0,0,0,0,0,0,0,0,0,0,0,0,0,0,0,0,0,0,0,0,0,0,0,0,0,0,0,0,0,0,0,0,0,0,0,0,0,0,0,0,0,0,0,0,0,0,0,0,0,0,0,0,0,0,0,0,0,0,0,0,0,0,0,0,0,0,0,0,0,0,0,0,0,0,0,0,0,0,0,0,0,0,0,0,0,0,0,0,0,0,0,0,0,0,0,0,0,0,0,0,0,0,0,0,0,0,
0,0,0,0,0,0,0,0,0,0,0,0,0,0,0,0,0,0,0,0,0,0,0,0,0,0,0,0,0,0,0,0,0,0,0,0,0,0,0,0,0,0,0,0,0,0,0,0,0,0,0,0,0,0,0,0,0,0,0,0,0,0,0,0,0,0,0,0,0,0,0,0,0,0,0,0,0,0,0,0,0,0,0,0,0,0,0,0,0,0,0,0,0,0,0,0,0,0,0,0,0,0,0,0,0,0,0,0,0,0,0,0,0,0,0,0,0,0,0,0,0,0,0,0,0,0,0,0,0,0,
0,0,0,0,0,0,0,0,0,0,0,0,0,0,0,0,0,0,0,0,0,0,0,0,0,0,0,0,0,0,0,0,0,0,0,0,0,0,0,0,0,0,0,0,0,0,0,0,0,0,0,0,0,0,0,0,0,0,0,0,0,0,0,0,0,0,0,0,0,0,0,0,0,0,0,0,0,0,0,0,0,0,0,0,0,0,0,0,0,0,0,0,0,0,0,0,0,0,0,0,0,0,0,0,0,0,0,0,0,0,0,0,0,0,0,0,0,0,0,0,0,0,0,0,0,0,0,0,0,0,
0,0,0,0,0,0,0,0,0,0,0,0,0,0,0,0,0,0,0,0,0,0,0,0,0,0,0,0,0,0,0,0,0,0,0,0,0,0,0,0,0,0,0,0,0,0,0,0,0,0,0,0,0,0,0,0,0,0,0,0,0,0,0,0,0,0,0,0,0,0,0,0,0,0,0,0,0,0,0,0,0,0,0,0,0,0,0,0,0,0,0,0,0,0,0,0,0,0,0,0,0,0,0,0,0,0,0,0,0,0,0,0,0,0,0,0,0,0,0,0,0,0,0,0,0,0,0,0,0,0,
0,0,0,0,0,0,0,0,0,0,0,0,0,0,0,0,0,0,0,0,0,0,0,0,0,0,0,0,0,0,0,0,0,0,0,0,0,0,0,0,0,0,0,0,0,0,0,0,0,0,0,0,0,0,0,0,0,0,0,0,0,0,0,0,0,0,0,0,0,0,0,0,0,0,0,0,0,0,0,0,0,0,0,0,0,0,0,0,0,0,0,0,0,0,0,0,0,0,0,0,0,0,0,0,0,0,0,0,0,0,0,0,0,0,0,0,0,0,0,0,0,0,0,0,0,0,0,0,0,0,
0,0,0,0,0,0,0,0,0,0,0,0,0,0,0,0,0,0,0,0,0,0,0,0,0,0,0,0,0,0,0,0,0,0,0,0,0,0,0,0,0,0,0,0,0,0,0,0,0,0,0,0,0,0,0,0,0,0,0,0,0,0,0,0,0,0,0,0,0,0,0,0,0,0,0,0,0,0,0,0,0,0,0,0,0,0,0,0,0,0,0,0,0,0,0,0,0,0,0,0,0,0,0,0,0,0,0,0,0,0,0,0,0,0,0,0,0,0,0,0,0,0,0,0,0,0,0,0,0,0,
0,0,0,0,0,0,0,0,0,0,0,0,0,0,0,0,0,0,0,0,0,0,0,0,0,0,0,0,0,0,0,0,0,0,0,0,0,0,0,0,0,0,0,0,0,0,0,0,0,0,0,0,0,0,0,0,0,0,0,0,0,0,0,0,0,0,0,0,0,0,0,0,0,0,0,0,0,0,0,0,0,0,0,0,0,0,0,0,0,0,0,0,0,0,0,0,0,0,0,0,0,0,0,0,0,0,0,0,0,0,0,0,0,0,0,0,0,0,0,0,0,0,0,0,0,0,0,0,0,0,
0,0,0,0,0,0,0,0,0,0,0,0,0,0,0,0,0,0,0,0,0,0,0,0,0,0,0,0,0,0,0,0,0,0,0,0,0,0,0,0,0,0,0,0,0,0,0,0,0,0,0,0,0,0,0,0,0,0,0,0,0,0,0,0,0,0,0,0,0,0,0,0,0,0,0,0,0,0,0,0,0,0,0,0,0,0,0,0,0,0,0,0,0,0,0,0,0,0,0,0,0,0,0,0,0,0,0,0,0,0,0,0,0,0,0,0,0,0,0,0,0,0,0,0,0,0,0,0,0,0,
0,0,0,0,0,0,0,0,0,0,0,0,0,0,0,0,0,0,0,0,0,0,0,0,0,0,0,0,0,0,0,0,0,0,0,0,0,0,0,0,0,0,0,0,0,0,0,0,0,0,0,0,0,0,0,0,0,0,0,0,0,0,0,0,0,0,0,0,0,0,0,0,0,0,0,0,0,0,0,0,0,0,0,0,0,0,0,0,0,0,0,0,0,0,0,0,0,0,0,0,0,0,0,0,0,0,0,0,0,0,0,0,0,0,0,0,0,0,0,0,0,0,0,0,0,0,0,0,0,0,
0,0,0,0,0,0,0,0,0,0,0,0,0,0,0,0,0,0,0,0,0,0,0,0,0,0,0,0,0,0,0,0,0,0,0,0,0,0,0,0,0,0,0,0,0,0,0,0,0,0,0,0,0,0,0,0,0,0,0,0,0,0,0,0,0,0,0,0,0,0,0,0,0,0,0,0,0,0,0,0,0,0,0,0,0,0,0,0,0,0,0,0,0,0,0,0,0,0,0,0,0,0,0,0,0,0,0,0,0,0,0,0,0,0,0,0,0,0,0,0,0,0,0,0,0,0,0,0,0,0,
0,0,0,0,0,0,0,0,0,0,0,0,0,0,0,0,0,0,0,0,0,0,0,0,0,0,0,0,0,0,0,0,0,0,0,0,0,0,0,0,0,0,0,0,0,0,0,0,0,0,0,0,0,0,0,0,0,0,0,0,0,0,0,0,0,0,0,0,0,0,0,0,0,0,0,0,0,0,0,0,0,0,0,0,0,0,0,0,0,0,0,0,0,0,0,0,0,0,0,0,0,0,0,0,0,0,0,0,0,0,0,0,0,0,0,0,0,0,0,0,0,0,0,0,0,0,0,0,0,0,
0,0,0,0,0,0,0,0,0,0,0,0,0,0,0,0,0,0,0,0,0,0,0,0,0,0,0,0,0,0,0,0,0,0,0,0,0,0,0,0,0,0,0,0,0,0,0,0,0,0,0,0,0,0,0,0,0,0,0,0,0,0,0,0,0,0,0,0,0,0,0,0,0,0,0,0,0,0,0,0,0,0,0,0,0,0,0,0,0,0,0,0,0,0,0,0,0,0,0,0,0,0,0,0,0,0,0,0,0,0,0,0,0,0,0,0,0,0,0,0,0,0,0,0,0,0,0,0,0,0,
0,0,0,0,0,0,0,0,0,0,0,0,0,0,0,0,0,0,0,0,0,0,0,0,0,0,0,0,0,0,0,0,0,0,0,0,0,0,0,0,0,0,0,0,0,0,0,0,0,0,0,0,0,0,0,0,0,0,0,0,0,0,0,0,0,0,0,0,0,0,0,0,0,0,0,0,0,0,0,0,0,0,0,0,0,0,0,0,0,0,0,0,0,0,0,0,0,0,0,0,0,0,0,0,0,0,0,0,0,0,0,0,0,0,0,0,0,0,0,0,0,0,0,0,0,0,0,0,0,0,
0,0,0,0,0,0,0,0,0,0,0,0,0,0,0,0,0,0,0,0,0,0,0,0,0,0,0,0,0,0,0,0,0,0,0,0,0,0,0,0,0,0,0,0,0,0,0,0,0,0,0,0,0,0,0,0,0,0,0,0,0,0,0,0,0,0,0,0,0,0,0,0,0,0,0,0,0,0,0,0,0,0,0,0,0,0,0,0,0,0,0,0,0,0,0,0,0,0,0,0,0,0,0,0,0,0,0,0,0,0,0,0,0,0,0,0,0,0,0,0,0,0,0,0,0,0,0,0,0,0,
0,0,0,0,0,0,0,0,0,0,0,0,0,0,0,0,0,0,0,0,0,0,0,0,0,0,0,0,0,0,0,0,0,0,0,0,0,0,0,0,0,0,0,0,0,0,0,0,0,0,0,0,0,0,0,0,0,0,0,0,0,0,0,0,0,0,0,0,0,0,0,0,0,0,0,0,0,0,0,0,0,0,0,0,0,0,0,0,0,0,0,0,0,0,0,0,0,0,0,0,0,0,0,0,0,0,0,0,0,0,0,0,0,0,0,0,0,0,0,0,0,0,0,0,0,0,0,0,0,0,
0,0,0,0,0,0,0,0,0,0,0,0,0,0,0,0,0,0,0,0,0,0,0,0,0,0,0,0,0,0,0,0,0,0,0,0,0,0,0,0,0,0,0,0,0,0,0,0,0,0,0,0,0,0,0,0,0,0,0,0,0,0,0,0,0,0,0,0,0,0,0,0,0,0,0,0,0,0,0,0,0,0,0,0,0,0,0,0,0,0,0,0,0,0,0,0,0,0,0,0,0,0,0,0,0,0,0,0,0,0,0,0,0,0,0,0,0,0,0,0,0,0,0,0,0,0,0,0,0,0,
0,0,0,0,0,0,0,0,0,0,0,0,0,0,0,0,0,0,0,0,0,0,0,0,0,0,0,0,0,0,0,0,0,0,0,0,0,0,0,0,0,0,0,0,0,0,0,0,0,0,0,0,0,0,0,0,0,0,0,0,0,0,0,0,0,0,0,0,0,0,0,0,0,0,0,0,0,0,0,0,0,0,0,0,0,0,0,0,0,0,0,0,0,0,0,0,0,0,0,0,0,0,0,0,0,0,0,0,0,0,0,0,0,0,0,0,0,0,0,0,0,0,0,0,0,0,0,0,0,0,
0,0,0,0,0,0,0,0,0,0,0,0,0,0,0,0,0,0,0,0,0,0,0,0,0,0,0,0,0,0,0,0,0,0,0,0,0,0,0,0,0,0,0,0,0,0,0,0,0,0,0,0,0,0,0,0,0,0,0,0,0,0,0,0,0,0,0,0,0,0,0,0,0,0,0,0,0,0,0,0,0,0,0,0,0,0,0,0,0,0,0,0,0,0,0,0,0,0,0,0,0,0,0,0,0,0,0,0,0,0,0,0,0,0,0,0,0,0,0,0,0,0,0,0,0,0,0,0,0,0,
0,0,0,0,0,0,0,0,0,0,0,0,0,0,0,0,0,0,0,0,0,0,0,0,0,0,0,0,0,0,0,0,0,0,0,0,0,0,0,0,0,0,0,0,0,0,0,0,0,0,0,0,0,0,0,0,0,0,0,0,0,0,0,0,0,0,0,0,0,0,0,0,0,0,0,0,0,0,0,0,0,0,0,0,0,0,0,0,0,0,0,0,0,0,0,0,0,0,0,0,0,0,0,0,0,0,0,0,0,0,0,0,0,0,0,0,0,0,0,0,0,0,0,0,0,0,0,0,0,0,
0,0,0,0,0,0,0,0,0,0,0,0,0,0,0,0,0,0,0,0,0,0,0,0,0,0,0,0,0,0,0,0,0,0,0,0,0,0,0,0,0,0,0,0,0,0,0,0,0,0,0,0,0,0,0,0,0,0,0,0,0,0,0,0,0,0,0,0,0,0,0,0,0,0,0,0,0,0,0,0,0,0,0,0,0,0,0,0,0,0,0,0,0,0,0,0,0,0,0,0,0,0,0,0,0,0,0,0,0,0,0,0,0,0,0,0,0,0,0,0,0,0,0,0,0,0,0,0,0,0,
0,0,0,0,0,0,0,0,0,0,0,0,0,0,0,0,0,0,0,0,0,0,0,0,0,0,0,0,0,0,0,0,0,0,0,0,0,0,0,0,0,0,0,0,0,0,0,0,0,0,0,0,0,0,0,0,0,0,0,0,0,0,0,0,0,0,0,0,0,0,0,0,0,0,0,0,0,0,0,0,0,0,0,0,0,0,0,0,0,0,0,0,0,0,0,0,0,0,0,0,0,0,0,0,0,0,0,0,0,0,0,0,0,0,0,0,0,0,0,0,0,0,0,0,0,0,0,0,0,0,
0,0,0,0,0,0,0,0,0,0,0,0,0,0,0,0,0,0,0,0,0,0,0,0,0,0,0,0,0,0,0,0,0,0,0,0,0,0,0,0,0,0,0,0,0,0,0,0,0,0,0,0,0,0,0,0,0,0,0,0,0,0,0,0,0,0,0,0,0,0,0,0,0,0,0,0,0,0,0,0,0,0,0,0,0,0,0,0,0,0,0,0,0,0,0,0,0,0,0,0,0,0,0,0,0,0,0,0,0,0,0,0,0,0,0,0,0,0,0,0,0,0,0,0,0,0,0,0,0,0,
0,0,0,0,0,0,0,0,0,0,0,0,0,0,0,0,0,0,0,0,0,0,0,0,0,0,0,0,0,0,0,0,0,0,0,0,0,0,0,0,0,0,0,0,0,0,0,0,0,0,0,0,0,0,0,0,0,0,0,0,0,0,0,0,0,0,0,0,0,0,0,0,0,0,0,0,0,0,0,0,0,0,0,0,0,0,0,0,0,0,0,0,0,0,0,0,0,0,0,0,0,0,0,0,0,0,0,0,0,0,0,0,0,0,0,0,0,0,0,0,0,0,0,0,0,0,0,0,0,0,
0,0,0,0,0,0,0,0,0,0,0,0,0,0,0,0,0,0,0,0,0,0,0,0,0,0,0,0,0,0,0,0,0,0,0,0,0,0,0,0,0,0,0,0,0,0,0,0,0,0,0,0,0,0,0,0,0,0,0,0,0,0,0,0,0,0,0,0,0,0,0,0,0,0,0,0,0,0,0,0,0,0,0,0,0,0,0,0,0,0,0,0,0,0,0,0,0,0,0,0,0,0,0,0,0,0,0,0,0,0,0,0,0,0,0,0,0,0,0,0,0,0,0,0,0,0,0,0,0,0,
0,0,0,0,0,0,0,0,0,0,0,0,0,0,0,0,0,0,0,0,0,0,0,0,0,0,0,0,0,0,0,0,0,0,0,0,0,0,0,0,0,0,0,0,0,0,0,0,0,0,0,0,0,0,0,0,0,0,0,0,0,0,0,0,0,0,0,0,0,0,0,0,0,0,0,0,0,0,0,0,0,0,0,0,0,0,0,0,0,0,0,0,0,0,0,0,0,0,0,0,0,0,0,0,0,0,0,0,0,0,0,0,0,0,0,0,0,0,0,0,0,0,0,0,0,0,0,0,0,0,
0,0,0,0,0,0,0,0,0,0,0,0,0,0,0,0,0,0,0,0,0,0,0,0,0,0,0,0,0,0,0,0,0,0,0,0,0,0,0,0,0,0,0,0,0,0,0,0,0,0,0,0,0,0,0,0,0,0,0,0,0,0,0,0,0,0,0,0,0,0,0,0,0,0,0,0,0,0,0,0,0,0,0,0,0,0,0,0,0,0,0,0,0,0,0,0,0,0,0,0,0,0,0,0,0,0,0,0,0,0,0,0,0,0,0,0,0,0,0,0,0,0,0,0,0,0,0,0,0,0,
0,0,0,0,0,0,0,0,0,0,0,0,0,0,0,0,0,0,0,0,0,0,0,0,0,0,0,0,0,0,0,0,0,0,0,0,0,0,0,0,0,0,0,0,0,0,0,0,0,0,0,0,0,0,0,0,0,0,0,0,0,0,0,0,0,0,0,0,0,0,0,0,0,0,0,0,0,0,0,0,0,0,0,0,0,0,0,0,0,0,0,0,0,0,0,0,0,0,0,0,0,0,0,0,0,0,0,0,0,0,0,0,0,0,0,0,0,0,0,0,0,0,0,0,0,0,0,0,0,0,
0,0,0,0,0,0,0,0,0,0,0,0,0,0,0,0,0,0,0,0,0,0,0,0,0,0,0,0,0,0,0,0,0,0,0,0,0,0,0,0,0,0,0,0,0,0,0,0,0,0,0,0,0,0,0,0,0,0,0,0,0,0,0,0,0,0,0,0,0,0,0,0,0,0,0,0,0,0,0,0,0,0,0,0,0,0,0,0,0,0,0,0,0,0,0,0,0,0,0,0,0,0,0,0,0,0,0,0,0,0,0,0,0,0,0,0,0,0,0,0,0,0,0,0,0,0,0,0,0,0,
0,0,0,0,0,0,0,0,0,0,0,0,0,0,0,0,0,0,0,0,0,0,0,0,0,0,0,0,0,0,0,0,0,0,0,0,0,0,0,0,0,0,0,0,0,0,0,0,0,0,0,0,0,0,0,0,0,0,0,0,0,0,0,0,0,0,0,0,0,0,0,0,0,0,0,0,0,0,0,0,0,0,0,0,0,0,0,0,0,0,0,0,0,0,0,0,0,0,0,0,0,0,0,0,0,0,0,0,0,0,0,0,0,0,0,0,0,0,0,0,0,0,0,0,0,0,0,0,0,0,
0,0,0,0,0,0,0,0,0,0,0,0,0,0,0,0,0,0,0,0,0,0,0,0,0,0,0,0,0,0,0,0,0,0,0,0,0,0,0,0,0,0,0,0,0,0,0,0,0,0,0,0,0,0,0,0,0,0,0,0,0,0,0,0,0,0,0,0,0,0,0,0,0,0,0,0,0,0,0,0,0,0,0,0,0,0,0,0,0,0,0,0,0,0,0,0,0,0,0,0,0,0,0,0,0,0,0,0,0,0,0,0,0,0,0,0,0,0,0,0,0,0,0,0,0,0,0,0,0,0,
0,0,0,0,0,0,0,0,0,0,0,0,0,0,0,0,0,0,0,0,0,0,0,0,0,0,0,0,0,0,0,0,0,0,0,0,0,0,0,0,0,0,0,0,0,0,0,0,0,0,0,0,0,0,0,0,0,0,0,0,0,0,0,0,0,0,0,0,0,0,0,0,0,0,0,0,0,0,0,0,0,0,0,0,0,0,0,0,0,0,0,0,0,0,0,0,0,0,0,0,0,0,0,0,0,0,0,0,0,0,0,0,0,0,0,0,0,0,0,0,0,0,0,0,0,0,0,0,0,0,
0,0,0,0,0,0,0,0,0,0,0,0,0,0,0,0,0,0,0,0,0,0,0,0,0,0,0,0,0,0,0,0,0,0,0,0,0,0,0,0,0,0,0,0,0,0,0,0,0,0,0,0,0,0,0,0,0,0,0,0,0,0,0,0,0,0,0,0,0,0,0,0,0,0,0,0,0,0,0,0,0,0,0,0,0,0,0,0,0,0,0,0,0,0,0,0,0,0,0,0,0,0,0,0,0,0,0,0,0,0,0,0,0,0,0,0,0,0,0,0,0,0,0,0,0,0,0,0,0,0,
0,0,0,0,0,0,0,0,0,0,0,0,0,0,0,0,0,0,0,0,0,0,0,0,0,0,0,0,0,0,0,0,0,0,0,0,0,0,0,0,0,0,0,0,0,0,0,0,0,0,0,0,0,0,0,0,0,0,0,0,0,0,0,0,0,0,0,0,0,0,0,0,0,0,0,0,0,0,0,0,0,0,0,0,0,0,0,0,0,0,0,0,0,0,0,0,0,0,0,0,0,0,0,0,0,0,0,0,0,0,0,0,0,0,0,0,0,0,0,0,0,0,0,0,0,0,0,0,0,0,
0,0,0,0,0,0,0,0,0,0,0,0,0,0,0,0,0,0,0,0,0,0,0,0,0,0,0,0,0,0,0,0,0,0,0,0,0,0,0,0,0,0,0,0,0,0,0,0,0,0,0,0,0,0,0,0,0,0,0,0,0,0,0,0,0,0,0,0,0,0,0,0,0,0,0,0,0,0,0,0,0,0,0,0,0,0,0,0,0,0,0,0,0,0,0,0,0,0,0,0,0,0,0,0,0,0,0,0,0,0,0,0,0,0,0,0,0,0,0,0,0,0,0,0,0,0,0,0,0,0,
0,0,0,0,0,0,0,0,0,0,0,0,0,0,0,0,0,0,0,0,0,0,0,0,0,0,0,0,0,0,0,0,0,0,0,0,0,0,0,0,0,0,0,0,0,0,0,0,0,0,0,0,0,0,0,0,0,0,0,0,0,0,0,0,0,0,0,0,0,0,0,0,0,0,0,0,0,0,0,0,0,0,0,0,0,0,0,0,0,0,0,0,0,0,0,0,0,0,0,0,0,0,0,0,0,0,0,0,0,0,0,0,0,0,0,0,0,0,0,0,0,0,0,0,0,0,0,0,0,0,
0,0,0,0,0,0,0,0,0,0,0,0,0,0,0,0,0,0,0,0,0,0,0,0,0,0,0,0,0,0,0,0,0,0,0,0,0,0,0,0,0,0,0,0,0,0,0,0,0,0,0,0,0,0,0,0,0,0,0,0,0,0,0,0,0,0,0,0,0,0,0,0,0,0,0,0,0,0,0,0,0,0,0,0,0,0,0,0,0,0,0,0,0,0,0,0,0,0,0,0,0,0,0,0,0,0,0,0,0,0,0,0,0,0,0,0,0,0,0,0,0,0,0,0,0,0,0,0,0,0,
0,0,0,0,0,0,0,0,0,0,0,0,0,0,0,0,0,0,0,0,0,0,0,0,0,0,0,0,0,0,0,0,0,0,0,0,0,0,0,0,0,0,0,0,0,0,0,0,0,0,0,0,0,0,0,0,0,0,0,0,0,0,0,0,0,0,0,0,0,0,0,0,0,0,0,0,0,0,0,0,0,0,0,0,0,0,0,0,0,0,0,0,0,0,0,0,0,0,0,0,0,0,0,0,0,0,0,0,0,0,0,0,0,0,0,0,0,0,0,0,0,0,0,0,0,0,0,0,0,0,
0,0,0,0,0,0,0,0,0,0,0,0,0,0,0,0,0,0,0,0,0,0,0,0,0,0,0,0,0,0,0,0,0,0,0,0,0,0,0,0,0,0,0,0,0,0,0,0,0,0,0,0,0,0,0,0,0,0,0,0,0,0,0,0,0,0,0,0,0,0,0,0,0,0,0,0,0,0,0,0,0,0,0,0,0,0,0,0,0,0,0,0,0,0,0,0,0,0,0,0,0,0,0,0,0,0,0,0,0,0,0,0,0,0,0,0,0,0,0,0,0,0,0,0,0,0,0,0,0,0,
0,0,0,0,0,0,0,0,0,0,0,0,0,0,0,0,0,0,0,0,0,0,0,0,0,0,0,0,0,0,0,0,0,0,0,0,0,0,0,0,0,0,0,0,0,0,0,0,0,0,0,0,0,0,0,0,0,0,0,0,0,0,0,0,0,0,0,0,0,0,0,0,0,0,0,0,0,0,0,0,0,0,0,0,0,0,0,0,0,0,0,0,0,0,0,0,0,0,0,0,0,0,0,0,0,0,0,0,0,0,0,0,0,0,0,0,0,0,0,0,0,0,0,0,0,0,0,0,0,0,
0,0,0,0,0,0,0,0,0,0,0,0,0,0,0,0,0,0,0,0,0,0,0,0,0,0,0,0,0,0,0,0,0,0,0,0,0,0,0,0,0,0,0,0,0,0,0,0,0,0,0,0,0,0,0,0,0,0,0,0,0,0,0,0,0,0,0,0,0,0,0,0,0,0,0,0,0,0,0,0,0,0,0,0,0,0,0,0,0,0,0,0,0,0,0,0,0,0,0,0,0,0,0,0,0,0,0,0,0,0,0,0,0,0,0,0,0,0,0,0,0,0,0,0,0,0,0,0,0,0,
0,0,0,0,0,0,0,0,0,0,0,0,0,0,0,0,0,0,0,0,0,0,0,0,0,0,0,0,0,0,0,0,0,0,0,0,0,0,0,0,0,0,0,0,0,0,0,0,0,0,0,0,0,0,0,0,0,0,0,0,0,0,0,0,0,0,0,0,0,0,0,0,0,0,0,0,0,0,0,0,0,0,0,0,0,0,0,0,0,0,0,0,0,0,0,0,0,0,0,0,0,0,0,0,0,0,0,0,0,0,0,0,0,0,0,0,0,0,0,0,0,0,0,0,0,0,0,0,0,0,
0,0,0,0,0,0,0,0,0,0,0,0,0,0,0,0,0,0,0,0,0,0,0,0,0,0,0,0,0,0,0,0,0,0,0,0,0,0,0,0,0,0,0,0,0,0,0,0,0,0,0,0,0,0,0,0,0,0,0,0,0,0,0,0,0,0,0,0,0,0,0,0,0,0,0,0,0,0,0,0,0,0,0,0,0,0,0,0,0,0,0,0,0,0,0,0,0,0,0,0,0,0,0,0,0,0,0,0,0,0,0,0,0,0,0,0,0,0,0,0,0,0,0,0,0,0,0,0,0,0,
0,0,0,0,0,0,0,0,0,0,0,0,0,0,0,0,0,0,0,0,0,0,0,0,0,0,0,0,0,0,0,0,0,0,0,0,0,0,0,0,0,0,0,0,0,0,0,0,0,0,0,0,0,0,0,0,0,0,0,0,0,0,0,0,0,0,0,0,0,0,0,0,0,0,0,0,0,0,0,0,0,0,0,0,0,0,0,0,0,0,0,0,0,0,0,0,0,0,0,0,0,0,0,0,0,0,0,0,0,0,0,0,0,0,0,0,0,0,0,0,0,0,0,0,0,0,0,0,0,0,
0,0,0,0,0,0,0,0,0,0,0,0,0,0,0,0,0,0,0,0,0,0,0,0,0,0,0,0,0,0,0,0,0,0,0,0,0,0,0,0,0,0,0,0,0,0,0,0,0,0,0,0,0,0,0,0,0,0,0,0,0,0,0,0,0,0,0,0,0,0,0,0,0,0,0,0,0,0,0,0,0,0,0,0,0,0,0,0,0,0,0,0,0,0,0,0,0,0,0,0,0,0,0,0,0,0,0,0,0,0,0,0,0,0,0,0,0,0,0,0,0,0,0,0,0,0,0,0,0,0,
0,0,0,0,0,0,0,0,0,0,0,0,0,0,0,0,0,0,0,0,0,0,0,0,0,0,0,0,0,0,0,0,0,0,0,0,0,0,0,0,0,0,0,0,0,0,0,0,0,0,0,0,0,0,0,0,0,0,0,0,0,0,0,0,0,0,0,0,0,0,0,0,0,0,0,0,0,0,0,0,0,0,0,0,0,0,0,0,0,0,0,0,0,0,0,0,0,0,0,0,0,0,0,0,0,0,0,0,0,0,0,0,0,0,0,0,0,0,0,0,0,0,0,0,0,0,0,0,0,0,
0,0,0,0,0,0,0,0,0,0,0,0,0,0,0,0,0,0,0,0,0,0,0,0,0,0,0,0,0,0,0,0,0,0,0,0,0,0,0,0,0,0,0,0,0,0,0,0,0,0,0,0,0,0,0,0,0,0,0,0,0,0,0,0,0,0,0,0,0,0,0,0,0,0,0,0,0,0,0,0,0,0,0,0,0,0,0,0,0,0,0,0,0,0,0,0,0,0,0,0,0,0,0,0,0,0,0,0,0,0,0,0,0,0,0,0,0,0,0,0,0,0,0,0,0,0,0,0,0,0,
0,0,0,0,0,0,0,0,0,0,0,0,0,0,0,0,0,0,0,0,0,0,0,0,0,0,0,0,0,0,0,0,0,0,0,0,0,0,0,0,0,0,0,0,0,0,0,0,0,0,0,0,0,0,0,0,0,0,0,0,0,0,0,0,0,0,0,0,0,0,0,0,0,0,0,0,0,0,0,0,0,0,0,0,0,0,0,0,0,0,0,0,0,0,0,0,0,0,0,0,0,0,0,0,0,0,0,0,0,0,0,0,0,0,0,0,0,0,0,0,0,0,0,0,0,0,0,0,0,0,
0,0,0,0,0,0,0,0,0,0,0,0,0,0,0,0,0,0,0,0,0,0,0,0,0,0,0,0,0,0,0,0,0,0,0,0,0,0,0,0,0,0,0,0,0,0,0,0,0,0,0,0,0,0,0,0,0,0,0,0,0,0,0,0,0,0,0,0,0,0,0,0,0,0,0,0,0,0,0,0,0,0,0,0,0,0,0,0,0,0,0,0,0,0,0,0,0,0,0,0,0,0,0,0,0,0,0,0,0,0,0,0,0,0,0,0,0,0,0,0,0,0,0,0,0,0,0,0,0,0,
0,0,0,0,0,0,0,0,0,0,0,0,0,0,0,0,0,0,0,0,0,0,0,0,0,0,0,0,0,0,0,0,0,0,0,0,0,0,0,0,0,0,0,0,0,0,0,0,0,0,0,0,0,0,0,0,0,0,0,0,0,0,0,0,0,0,0,0,0,0,0,0,0,0,0,0,0,0,0,0,0,0,0,0,0,0,0,0,0,0,0,0,0,0,0,0,0,0,0,0,0,0,0,0,0,0,0,0,0,0,0,0,0,0,0,0,0,0,0,0,0,0,0,0,0,0,0,0,0,0
</data>
 </layer>
 <objectgroup id="5" name="kittycatcasey.Stardew3D/FloorData_Center"/>
 <objectgroup id="6" name="kittycatcasey.Stardew3D/WaterData_Center"/>
 <objectgroup id="7" name="kittycatcasey.Stardew3D/FloorData_West"/>
 <objectgroup id="8" name="kittycatcasey.Stardew3D/FloorData_North"/>
</map>