<?xml version="1.0" encoding="UTF-8"?>
<map version="1.4" tiledversion="1.4.2" orientation="orthogonal" renderorder="right-down" compressionlevel="0" width="30" height="26" tilewidth="16" tileheight="16" infinite="0" nextlayerid="17" nextobjectid="167">
 
 <tileset firstgid="1" name="1" tilewidth="16" tileheight="16" tilecount="2176" columns="32">
  <image source="townInterior" width="512" height="1088"/>
 </tileset>
 <tileset firstgid="2177" name="p" tilewidth="16" tileheight="16" tilecount="64" columns="4">
  <image source="paths" width="64" height="256"/>
 </tileset>
 <tileset firstgid="2241" name="v15_townInterior_2" tilewidth="16" tileheight="16" tilecount="1312" columns="32">
  <image source="townInterior_2" width="512" height="656"/>
 </tileset>
 <tileset firstgid="3553" name="z_dataValues3d" tilewidth="16" tileheight="16" tilecount="512" columns="32">
  <image source="ThirdDimensionData/data" width="512" height="256"/>
 </tileset>
 <layer id="1" name="kittycatcasey.Stardew3D/FloorData_Center" width="30" height="26">
  <data encoding="csv">
0,0,0,0,0,0,0,0,0,0,0,0,0,0,0,0,0,0,0,0,0,0,0,0,0,0,0,0,0,0,
0,0,0,0,0,0,0,0,0,0,0,0,0,0,0,0,0,0,0,0,0,0,0,0,0,0,0,0,0,0,
0,0,0,0,0,0,0,0,0,0,0,0,0,0,0,0,0,0,0,0,0,0,0,0,0,0,0,0,0,0,
0,0,0,0,0,0,0,0,0,0,0,0,0,0,0,0,0,0,0,0,0,0,0,0,0,0,0,0,0,0,
0,3649,3649,3649,3649,3649,3649,0,0,0,0,0,0,3649,3649,3649,3649,0,0,0,0,0,0,0,0,0,0,0,0,0,
0,3649,3649,3649,3649,3649,3649,0,0,0,0,0,0,3649,3649,3649,3649,0,0,0,0,0,0,0,0,0,0,0,0,0,
0,3649,3649,3649,3649,3649,3649,0,0,3649,3649,3649,3649,3649,3649,3649,3649,3649,3649,3649,3649,3649,3649,3649,3649,0,0,0,0,0,
0,3649,3649,3649,3649,3649,3649,0,0,3649,3649,3649,3649,3649,3649,3649,3649,3649,3649,3649,3649,3649,3649,3649,3649,0,0,0,0,0,
0,3649,3649,3649,3649,3649,3649,0,0,3649,3649,3649,3649,3649,3649,3649,3649,3649,3649,3649,3649,3649,3649,3649,3649,0,0,0,0,0,
0,3649,3649,3649,3649,3649,3649,0,0,3649,3649,3649,3649,3649,3649,3649,3649,3649,3649,3649,3649,3649,3649,3649,3649,3649,3649,3649,0,0,
0,3649,3649,3649,3649,3649,3649,0,0,3649,3649,3649,3649,3649,3649,3649,3649,3649,3649,3649,3649,3649,3649,3649,3649,3649,3649,3649,0,0,
0,3649,3649,3649,3649,3649,3649,0,0,3649,3649,3649,3649,3649,3649,3649,3649,3649,3649,3649,3649,3649,3649,3649,3649,3649,3649,3649,0,0,
0,3649,3649,3649,3649,3649,3649,0,0,0,0,0,3649,3649,0,0,0,0,0,0,0,0,0,0,0,0,0,0,0,0,
0,3649,3649,3649,3649,3649,3649,0,0,0,0,0,3625,3625,0,0,0,0,0,0,0,0,0,0,0,0,0,0,0,0,
0,3649,3649,3649,3649,3649,3649,0,0,0,0,0,3617,3617,0,0,0,0,0,0,0,0,0,0,0,0,0,0,0,0,
0,0,0,0,3649,0,0,0,0,0,0,0,3593,3593,0,0,0,0,0,0,0,0,0,0,0,0,0,0,0,0,
0,0,0,0,3617,0,0,0,0,0,0,0,3585,3585,0,0,0,0,0,0,0,0,3553,3553,3553,3553,3553,3553,3553,0,
0,0,0,0,3585,0,0,0,0,0,0,0,3561,3561,0,0,0,0,0,0,0,0,3553,3553,3553,3553,3553,3553,3553,0,
0,0,0,0,3553,0,0,0,0,0,0,0,3553,3553,0,0,0,0,0,0,0,0,3553,3553,3553,3553,3553,3553,3553,0,
0,0,0,0,3553,3553,3553,3553,3553,3553,3553,3553,3553,3553,3553,3553,0,0,0,0,3553,3553,3553,3553,3553,3553,3553,3553,3553,0,
0,0,0,0,3553,3553,3553,3553,3553,3553,3553,3553,3553,3553,3553,3553,0,0,0,0,3553,0,3553,3553,3553,3553,3553,3553,3553,0,
0,0,0,0,3553,3553,3553,3553,3553,3553,3553,3553,3553,3553,3553,3553,0,0,0,0,3553,0,3553,3553,3553,3553,3553,3553,3553,0,
0,0,0,0,3553,3553,3553,3553,3553,3553,3553,3553,3553,3553,3553,3553,3553,3553,3553,3553,3553,0,0,0,0,0,0,0,0,0,
0,0,0,0,3553,3553,3553,3553,3553,3553,3553,3553,3553,3553,3553,3553,3553,3553,3553,3553,3553,0,0,0,0,0,0,0,0,0,
0,0,0,0,0,0,0,0,0,0,0,3553,3553,3553,3553,3553,0,0,0,0,0,0,0,0,0,0,0,0,0,0,
0,0,0,0,0,0,0,0,0,0,0,3553,3553,3553,3553,3553,0,0,0,0,0,0,0,0,0,0,0,0,0,0
</data>
 </layer>
 <layer id="2" name="kittycatcasey.Stardew3D/FloorData_North" width="30" height="26">
  <data encoding="csv">
0,0,0,0,0,0,0,0,0,0,0,0,0,0,0,0,0,0,0,0,0,0,0,0,0,0,0,0,0,0,
0,0,0,0,0,0,0,0,0,0,0,0,0,0,0,0,0,0,0,0,0,0,0,0,0,0,0,0,0,0,
0,0,0,0,0,0,0,0,0,0,0,0,0,0,0,0,0,0,0,0,0,0,0,0,0,0,0,0,0,0,
0,0,0,0,0,0,0,0,0,0,0,0,0,0,0,0,0,0,0,0,0,0,0,0,0,0,0,0,0,0,
0,0,0,0,0,0,0,0,0,0,0,0,0,0,0,0,0,0,0,0,0,0,0,0,0,0,0,0,0,0,
0,0,0,0,0,0,0,0,0,0,0,0,0,0,0,0,0,0,0,0,0,0,0,0,0,0,0,0,0,0,
0,0,0,0,0,0,0,0,0,0,0,0,0,0,0,0,0,0,0,0,0,0,0,0,0,0,0,0,0,0,
0,0,0,0,0,0,0,0,0,0,0,0,0,0,0,0,0,0,0,0,0,0,0,0,0,0,0,0,0,0,
0,0,0,0,0,0,0,0,0,0,0,0,0,0,0,0,0,0,0,0,0,0,0,0,0,0,0,0,0,0,
0,0,0,0,0,0,0,0,0,0,0,0,0,0,0,0,0,0,0,0,0,0,0,0,0,0,0,0,0,0,
0,0,0,0,0,0,0,0,0,0,0,0,0,0,0,0,0,0,0,0,0,0,0,0,0,0,0,0,0,0,
0,0,0,0,0,0,0,0,0,0,0,0,0,0,0,0,0,0,0,0,0,0,0,0,0,0,0,0,0,0,
0,0,0,0,0,0,0,0,0,0,0,0,0,0,0,0,0,0,0,0,0,0,0,0,0,0,0,0,0,0,
0,0,0,0,0,0,0,0,0,0,0,0,3561,3561,0,0,0,0,0,0,0,0,0,0,0,0,0,0,0,0,
0,0,0,0,0,0,0,0,0,0,0,0,3561,3561,0,0,0,0,0,0,0,0,0,0,0,0,0,0,0,0,
0,0,0,0,0,0,0,0,0,0,0,0,3561,3561,0,0,0,0,0,0,0,0,0,0,0,0,0,0,0,0,
0,0,0,0,3585,0,0,0,0,0,0,0,3561,3561,0,0,0,0,0,0,0,0,0,0,0,0,0,0,0,0,
0,0,0,0,3585,0,0,0,0,0,0,0,3561,3561,0,0,0,0,0,0,0,0,0,0,0,0,0,0,0,0,
0,0,0,0,3585,0,0,0,0,0,0,0,3561,3561,0,0,0,0,0,0,0,0,0,0,0,0,0,0,0,0,
0,0,0,0,0,0,0,0,0,0,0,0,0,0,0,0,0,0,0,0,0,0,0,0,0,0,0,0,0,0,
0,0,0,0,0,0,0,0,0,0,0,0,0,0,0,0,0,0,0,0,0,0,0,0,0,0,0,0,0,0,
0,0,0,0,0,0,0,0,0,0,0,0,0,0,0,0,0,0,0,0,0,0,0,0,0,0,0,0,0,0,
0,0,0,0,0,0,0,0,0,0,0,0,0,0,0,0,0,0,0,0,0,0,0,0,0,0,0,0,0,0,
0,0,0,0,0,0,0,0,0,0,0,0,0,0,0,0,0,0,0,0,0,0,0,0,0,0,0,0,0,0,
0,0,0,0,0,0,0,0,0,0,0,0,0,0,0,0,0,0,0,0,0,0,0,0,0,0,0,0,0,0,
0,0,0,0,0,0,0,0,0,0,0,0,0,0,0,0,0,0,0,0,0,0,0,0,0,0,0,0,0,0
</data>
 </layer>
 <layer id="3" name="kittycatcasey.Stardew3D/CeilingData_Center" width="30" height="26">
  <data encoding="csv">
0,0,0,0,0,0,0,0,0,0,0,0,0,0,0,0,0,0,0,0,0,0,0,0,0,0,0,0,0,0,
0,0,0,0,0,0,0,0,0,0,0,0,0,0,0,0,0,0,0,0,0,0,0,0,0,0,0,0,0,0,
0,0,0,0,0,0,0,0,0,0,0,0,0,0,0,0,0,0,0,0,0,0,0,0,0,0,0,0,0,0,
0,0,0,0,0,0,0,0,0,0,0,0,0,0,0,0,0,0,0,0,0,0,0,0,0,0,0,0,0,0,
0,3745,3745,3745,3745,3745,3745,0,0,0,0,0,0,3745,3745,3745,3745,0,0,0,0,0,0,0,0,0,0,0,0,0,
0,3745,3745,3745,3745,3745,3745,0,0,0,0,0,0,3745,3745,3745,3745,0,0,0,0,0,0,0,0,0,0,0,0,0,
0,3745,3745,3745,3745,3745,3745,0,0,3745,3745,3745,3745,3745,3745,3745,3745,3745,3745,3745,3745,3745,3745,3745,3745,0,0,0,0,0,
0,3745,3745,3745,3745,3745,3745,0,0,3745,3745,3745,3745,3745,3745,3745,3745,3745,3745,3745,3745,3745,3745,3745,3745,0,0,0,0,0,
0,3745,3745,3745,3745,3745,3745,0,0,3745,3745,3745,3745,3745,3745,3745,3745,3745,3745,3745,3745,3745,3745,3745,3745,0,0,0,0,0,
0,3745,3745,3745,3745,3745,3745,0,0,3745,3745,3745,3745,3745,3745,3745,3745,3745,3745,3745,3745,3745,3745,3745,3745,3745,3745,3745,0,0,
0,3745,3745,3745,3745,3745,3745,0,0,3745,3745,3745,3745,3745,3745,3745,3745,3745,3745,3745,3745,3745,3745,3745,3745,3745,3745,3745,0,0,
0,3745,3745,3745,3745,3745,3745,0,0,3745,3745,3745,3745,3745,3745,3745,3745,3745,3745,3745,3745,3745,3745,3745,3745,3745,3745,3745,0,0,
0,3745,3745,3745,3745,3745,3745,0,0,0,0,0,3745,3745,0,0,0,0,0,0,0,0,0,0,0,0,0,0,0,0,
0,3745,3745,3745,3745,3745,3745,0,0,0,0,0,3721,3721,0,0,0,0,0,0,0,0,0,0,0,0,0,0,0,0,
0,3745,3745,3745,3745,3745,3745,0,0,0,0,0,3713,3713,0,0,0,0,0,0,0,0,0,0,0,0,0,0,0,0,
0,0,0,0,3745,0,0,0,0,0,0,0,3689,3689,0,0,0,0,0,0,0,0,0,0,0,0,0,0,0,0,
0,0,0,0,3713,0,0,0,0,0,0,0,3681,3681,0,0,0,0,0,0,0,0,3649,3649,3649,3649,3649,3649,3649,0,
0,0,0,0,3681,0,0,0,0,0,0,0,3657,3657,0,0,0,0,0,0,0,0,3649,3649,3649,3649,3649,3649,3649,0,
0,0,0,0,3649,0,0,0,0,0,0,0,3649,3649,0,0,0,0,0,0,0,0,3649,3649,3649,3649,3649,3649,3649,0,
0,0,0,0,3649,3649,3649,3649,3649,3649,3649,3649,3649,3649,3649,3649,0,0,0,0,3649,3649,3649,3649,3649,3649,3649,3649,3649,0,
0,0,0,0,3649,3649,3649,3649,3649,3649,3649,3649,3649,3649,3649,3649,0,0,0,0,3649,0,3649,3649,3649,3649,3649,3649,3649,0,
0,0,0,0,3649,3649,3649,3649,3649,3649,3649,3649,3649,3649,3649,3649,0,0,0,0,3649,0,3649,3649,3649,3649,3649,3649,3649,0,
0,0,0,0,3649,3649,3649,3649,3649,3649,3649,3649,3649,3649,3649,3649,3649,3649,3649,3649,3649,0,0,0,0,0,0,0,0,0,
0,0,0,0,3649,3649,3649,3649,3649,3649,3649,3649,3649,3649,3649,3649,3649,3649,3649,3649,3649,0,0,0,0,0,0,0,0,0,
0,0,0,0,0,0,0,0,0,0,0,3649,3649,3649,3649,3649,0,0,0,0,0,0,0,0,0,0,0,0,0,0,
0,0,0,0,0,0,0,0,0,0,0,3649,3649,3649,3649,3649,0,0,0,0,0,0,0,0,0,0,0,0,0,0
</data>
 </layer>
 <layer id="4" name="kittycatcasey.Stardew3D/CeilingData_North" width="30" height="26">
  <data encoding="csv">
0,0,0,0,0,0,0,0,0,0,0,0,0,0,0,0,0,0,0,0,0,0,0,0,0,0,0,0,0,0,
0,0,0,0,0,0,0,0,0,0,0,0,0,0,0,0,0,0,0,0,0,0,0,0,0,0,0,0,0,0,
0,0,0,0,0,0,0,0,0,0,0,0,0,0,0,0,0,0,0,0,0,0,0,0,0,0,0,0,0,0,
0,0,0,0,0,0,0,0,0,0,0,0,0,0,0,0,0,0,0,0,0,0,0,0,0,0,0,0,0,0,
0,0,0,0,0,0,0,0,0,0,0,0,0,0,0,0,0,0,0,0,0,0,0,0,0,0,0,0,0,0,
0,0,0,0,0,0,0,0,0,0,0,0,0,0,0,0,0,0,0,0,0,0,0,0,0,0,0,0,0,0,
0,0,0,0,0,0,0,0,0,0,0,0,0,0,0,0,0,0,0,0,0,0,0,0,0,0,0,0,0,0,
0,0,0,0,0,0,0,0,0,0,0,0,0,0,0,0,0,0,0,0,0,0,0,0,0,0,0,0,0,0,
0,0,0,0,0,0,0,0,0,0,0,0,0,0,0,0,0,0,0,0,0,0,0,0,0,0,0,0,0,0,
0,0,0,0,0,0,0,0,0,0,0,0,0,0,0,0,0,0,0,0,0,0,0,0,0,0,0,0,0,0,
0,0,0,0,0,0,0,0,0,0,0,0,0,0,0,0,0,0,0,0,0,0,0,0,0,0,0,0,0,0,
0,0,0,0,0,0,0,0,0,0,0,0,0,0,0,0,0,0,0,0,0,0,0,0,0,0,0,0,0,0,
0,0,0,0,0,0,0,0,0,0,0,0,0,0,0,0,0,0,0,0,0,0,0,0,0,0,0,0,0,0,
0,0,0,0,0,0,0,0,0,0,0,0,3561,3561,0,0,0,0,0,0,0,0,0,0,0,0,0,0,0,0,
0,0,0,0,0,0,0,0,0,0,0,0,3561,3561,0,0,0,0,0,0,0,0,0,0,0,0,0,0,0,0,
0,0,0,0,0,0,0,0,0,0,0,0,3561,3561,0,0,0,0,0,0,0,0,0,0,0,0,0,0,0,0,
0,0,0,0,3585,0,0,0,0,0,0,0,3561,3561,0,0,0,0,0,0,0,0,0,0,0,0,0,0,0,0,
0,0,0,0,3585,0,0,0,0,0,0,0,3561,3561,0,0,0,0,0,0,0,0,0,0,0,0,0,0,0,0,
0,0,0,0,3585,0,0,0,0,0,0,0,3561,3561,0,0,0,0,0,0,0,0,0,0,0,0,0,0,0,0,
0,0,0,0,0,0,0,0,0,0,0,0,0,0,0,0,0,0,0,0,0,0,0,0,0,0,0,0,0,0,
0,0,0,0,0,0,0,0,0,0,0,0,0,0,0,0,0,0,0,0,0,0,0,0,0,0,0,0,0,0,
0,0,0,0,0,0,0,0,0,0,0,0,0,0,0,0,0,0,0,0,0,0,0,0,0,0,0,0,0,0,
0,0,0,0,0,0,0,0,0,0,0,0,0,0,0,0,0,0,0,0,0,0,0,0,0,0,0,0,0,0,
0,0,0,0,0,0,0,0,0,0,0,0,0,0,0,0,0,0,0,0,0,0,0,0,0,0,0,0,0,0,
0,0,0,0,0,0,0,0,0,0,0,0,0,0,0,0,0,0,0,0,0,0,0,0,0,0,0,0,0,0,
0,0,0,0,0,0,0,0,0,0,0,0,0,0,0,0,0,0,0,0,0,0,0,0,0,0,0,0,0,0
</data>
 </layer>
 <layer id="5" name="kittycatcasey.Stardew3D/WallData_West" width="30" height="26">
  <data encoding="csv">
0,0,0,0,0,0,0,0,0,0,0,0,0,0,0,0,0,0,0,0,0,0,0,0,0,0,0,0,0,0,
0,0,0,0,0,0,0,0,0,0,0,0,0,0,0,0,0,0,0,0,0,0,0,0,0,0,0,0,0,0,
0,0,0,0,0,0,0,0,0,0,0,0,0,0,0,0,0,0,0,0,0,0,0,0,0,0,0,0,0,0,
0,0,0,0,0,0,0,0,0,0,0,0,0,0,0,0,0,0,0,0,0,0,0,0,0,0,0,0,0,0,
0,3553,0,0,0,0,0,0,0,0,0,0,0,3553,0,0,0,0,0,0,0,0,0,0,0,0,0,0,0,0,
0,3553,0,0,0,0,0,0,0,0,0,0,0,3553,0,0,0,0,0,0,0,0,0,0,0,0,0,0,0,0,
0,3553,0,0,0,0,0,0,0,3553,0,0,0,0,0,0,0,0,0,0,0,0,0,0,0,0,0,0,0,0,
0,3553,0,0,0,0,0,0,0,3553,0,0,0,0,0,0,0,0,0,0,0,0,0,0,0,0,0,0,0,0,
0,3553,0,0,0,0,0,0,0,3553,0,0,0,0,0,0,0,0,0,0,0,0,0,0,0,0,0,0,0,0,
0,3553,0,0,0,0,0,0,0,3553,0,0,0,0,0,0,0,0,0,0,0,0,0,0,0,0,0,0,0,0,
0,3553,0,0,0,0,0,0,0,3553,0,0,0,0,0,0,0,0,0,0,0,0,0,0,0,0,0,0,0,0,
0,3553,0,0,0,0,0,0,0,3553,0,0,0,0,0,0,0,0,0,0,0,0,0,0,0,0,0,0,0,0,
0,3553,0,0,0,0,0,0,0,0,0,0,3553,0,0,0,0,0,0,0,0,0,0,0,0,0,0,0,0,0,
0,3553,0,0,0,0,0,0,0,0,0,0,0,0,0,0,0,0,0,0,0,0,0,0,0,0,0,0,0,0,
0,3553,0,0,0,0,0,0,0,0,0,0,0,0,0,0,0,0,0,0,0,0,0,0,0,0,0,0,0,0,
0,0,0,0,3553,0,0,0,0,0,0,0,0,0,0,0,0,0,0,0,0,0,0,0,0,0,0,0,0,0,
0,0,0,0,0,0,0,0,0,0,0,0,0,0,0,0,0,0,0,0,0,0,3553,0,0,0,0,0,0,0,
0,0,0,0,0,0,0,0,0,0,0,0,0,0,0,0,0,0,0,0,0,0,3553,0,0,0,0,0,0,0,
0,0,0,0,0,0,0,0,0,0,0,0,0,0,0,0,0,0,0,0,0,0,3553,0,0,0,0,0,0,0,
0,0,0,0,3553,0,0,0,0,0,0,0,0,0,0,0,0,0,0,0,3553,0,0,0,0,0,0,0,0,0,
0,0,0,0,3553,0,0,0,0,0,0,0,0,0,0,0,0,0,0,0,3553,0,3553,0,0,0,0,0,0,0,
0,0,0,0,3553,0,0,0,0,0,0,0,0,0,0,0,0,0,0,0,3553,0,3553,0,0,0,0,0,0,0,
0,0,0,0,3553,0,0,0,0,0,0,0,0,0,0,0,0,0,0,0,0,0,0,0,0,0,0,0,0,0,
0,0,0,0,3553,0,0,0,0,0,0,0,0,0,0,0,0,0,0,0,0,0,0,0,0,0,0,0,0,0,
0,0,0,0,0,0,0,0,0,0,0,3553,0,0,0,0,0,0,0,0,0,0,0,0,0,0,0,0,0,0,
0,0,0,0,0,0,0,0,0,0,0,3553,0,0,0,0,0,0,0,0,0,0,0,0,0,0,0,0,0,0
</data>
 </layer>
 <layer id="6" name="kittycatcasey.Stardew3D/WallData_North" width="30" height="26">
  <data encoding="csv">
0,0,0,0,0,0,0,0,0,0,0,0,0,0,0,0,0,0,0,0,0,0,0,0,0,0,0,0,0,0,
0,0,0,0,0,0,0,0,0,0,0,0,0,0,0,0,0,0,0,0,0,0,0,0,0,0,0,0,0,0,
0,0,0,0,0,0,0,0,0,0,0,0,0,0,0,0,0,0,0,0,0,0,0,0,0,0,0,0,0,0,
0,0,0,0,0,0,0,0,0,0,0,0,0,0,0,0,0,0,0,0,0,0,0,0,0,0,0,0,0,0,
0,3553,3553,3553,3553,3553,3553,0,0,0,0,0,0,3553,3553,3553,3553,0,0,0,0,0,0,0,0,0,0,0,0,0,
0,0,0,0,0,0,0,0,0,0,0,0,0,0,0,0,0,0,0,0,0,0,0,0,0,0,0,0,0,0,
0,0,0,0,0,0,0,0,0,3553,3553,3553,3553,0,0,0,0,3553,3553,3553,3553,3553,3553,3553,3553,0,0,0,0,0,
0,0,0,0,0,0,0,0,0,0,0,0,0,0,0,0,0,0,0,0,0,0,0,0,0,0,0,0,0,0,
0,0,0,0,0,0,0,0,0,0,0,0,0,0,0,0,0,0,0,0,0,0,0,0,0,0,0,0,0,0,
0,0,0,0,0,0,0,0,0,0,0,0,0,0,0,0,0,0,0,0,0,0,0,0,0,3553,3553,3553,0,0,
0,0,0,0,0,0,0,0,0,0,0,0,0,0,0,0,0,0,0,0,0,0,0,0,0,0,0,0,0,0,
0,0,0,0,0,0,0,0,0,0,0,0,0,0,0,0,0,0,0,0,0,0,0,0,0,0,0,0,0,0,
0,0,0,0,0,0,0,0,0,0,0,0,0,0,0,0,0,0,0,0,0,0,0,0,0,0,0,0,0,0,
0,0,0,0,0,0,0,0,0,0,0,0,0,0,0,0,0,0,0,0,0,0,0,0,0,0,0,0,0,0,
0,0,0,0,0,0,0,0,0,0,0,0,0,0,0,0,0,0,0,0,0,0,0,0,0,0,0,0,0,0,
0,0,0,0,0,0,0,0,0,0,0,0,0,0,0,0,0,0,0,0,0,0,0,0,0,0,0,0,0,0,
0,0,0,0,0,0,0,0,0,0,0,0,0,0,0,0,0,0,0,0,0,0,3553,3553,3553,3553,3553,3553,3553,0,
0,0,0,0,0,0,0,0,0,0,0,0,0,0,0,0,0,0,0,0,0,0,0,0,0,0,0,0,0,0,
0,0,0,0,0,0,0,0,0,0,0,0,0,0,0,0,0,0,0,0,0,0,0,0,0,0,0,0,0,0,
0,0,0,0,0,3553,3553,3553,3553,3553,3553,3553,0,0,3553,3553,0,0,0,0,3553,3553,0,0,0,0,0,0,0,0,
0,0,0,0,0,0,0,0,0,0,0,0,0,0,0,0,0,0,0,0,0,0,0,0,0,0,0,0,0,0,
0,0,0,0,0,0,0,0,0,0,0,0,0,0,0,0,0,0,0,0,0,0,0,0,0,0,0,0,0,0,
0,0,0,0,0,0,0,0,0,0,0,0,0,0,0,0,3553,3553,3553,3553,0,0,0,0,0,0,0,0,0,0,
0,0,0,0,0,0,0,0,0,0,0,0,0,0,0,0,0,0,0,0,0,0,0,0,0,0,0,0,0,0,
0,0,0,0,0,0,0,0,0,0,0,0,0,0,0,0,0,0,0,0,0,0,0,0,0,0,0,0,0,0,
0,0,0,0,0,0,0,0,0,0,0,0,0,0,0,0,0,0,0,0,0,0,0,0,0,0,0,0,0,0
</data>
 </layer>
 <layer id="7" name="kittycatcasey.Stardew3D/WallData_East" width="30" height="26">
  <data encoding="csv">
0,0,0,0,0,0,0,0,0,0,0,0,0,0,0,0,0,0,0,0,0,0,0,0,0,0,0,0,0,0,
0,0,0,0,0,0,0,0,0,0,0,0,0,0,0,0,0,0,0,0,0,0,0,0,0,0,0,0,0,0,
0,0,0,0,0,0,0,0,0,0,0,0,0,0,0,0,0,0,0,0,0,0,0,0,0,0,0,0,0,0,
0,0,0,0,0,0,0,0,0,0,0,0,0,0,0,0,0,0,0,0,0,0,0,0,0,0,0,0,0,0,
0,0,0,0,0,0,3553,0,0,0,0,0,0,0,0,0,3553,0,0,0,0,0,0,0,0,0,0,0,0,0,
0,0,0,0,0,0,3553,0,0,0,0,0,0,0,0,0,3553,0,0,0,0,0,0,0,0,0,0,0,0,0,
0,0,0,0,0,0,3553,0,0,0,0,0,0,0,0,0,0,0,0,0,0,0,0,0,3553,0,0,0,0,0,
0,0,0,0,0,0,3553,0,0,0,0,0,0,0,0,0,0,0,0,0,0,0,0,0,3553,0,0,0,0,0,
0,0,0,0,0,0,3553,0,0,0,0,0,0,0,0,0,0,0,0,0,0,0,0,0,3553,0,0,0,0,0,
0,0,0,0,0,0,3553,0,0,0,0,0,0,0,0,0,0,0,0,0,0,0,0,0,0,0,0,3553,0,0,
0,0,0,0,0,0,3553,0,0,0,0,0,0,0,0,0,0,0,0,0,0,0,0,0,0,0,0,3553,0,0,
0,0,0,0,0,0,3553,0,0,0,0,0,0,0,0,0,0,0,0,0,0,0,0,0,0,0,0,3553,0,0,
0,0,0,0,0,0,3553,0,0,0,0,0,0,3553,0,0,0,0,0,0,0,0,0,0,0,0,0,0,0,0,
0,0,0,0,0,0,3553,0,0,0,0,0,0,0,0,0,0,0,0,0,0,0,0,0,0,0,0,0,0,0,
0,0,0,0,0,0,3553,0,0,0,0,0,0,0,0,0,0,0,0,0,0,0,0,0,0,0,0,0,0,0,
0,0,0,0,3553,0,0,0,0,0,0,0,0,0,0,0,0,0,0,0,0,0,0,0,0,0,0,0,0,0,
0,0,0,0,0,0,0,0,0,0,0,0,0,0,0,0,0,0,0,0,0,0,0,0,0,0,0,0,3553,0,
0,0,0,0,0,0,0,0,0,0,0,0,0,0,0,0,0,0,0,0,0,0,0,0,0,0,0,0,3553,0,
0,0,0,0,0,0,0,0,0,0,0,0,0,0,0,0,0,0,0,0,0,0,0,0,0,0,0,0,3553,0,
0,0,0,0,0,0,0,0,0,0,0,0,0,0,0,3553,0,0,0,0,0,0,0,0,0,0,0,0,3553,0,
0,0,0,0,0,0,0,0,0,0,0,0,0,0,0,3553,0,0,0,0,3553,0,0,0,0,0,0,0,3553,0,
0,0,0,0,0,0,0,0,0,0,0,0,0,0,0,3553,0,0,0,0,3553,0,0,0,0,0,0,0,3553,0,
0,0,0,0,0,0,0,0,0,0,0,0,0,0,0,0,0,0,0,0,3553,0,0,0,0,0,0,0,0,0,
0,0,0,0,0,0,0,0,0,0,0,0,0,0,0,0,0,0,0,0,3553,0,0,0,0,0,0,0,0,0,
0,0,0,0,0,0,0,0,0,0,0,0,0,0,0,3553,0,0,0,0,0,0,0,0,0,0,0,0,0,0,
0,0,0,0,0,0,0,0,0,0,0,0,0,0,0,3553,0,0,0,0,0,0,0,0,0,0,0,0,0,0
</data>
 </layer>
 <layer id="8" name="kittycatcasey.Stardew3D/WallData_South" width="30" height="26">
  <data encoding="csv">
0,0,0,0,0,0,0,0,0,0,0,0,0,0,0,0,0,0,0,0,0,0,0,0,0,0,0,0,0,0,
0,0,0,0,0,0,0,0,0,0,0,0,0,0,0,0,0,0,0,0,0,0,0,0,0,0,0,0,0,0,
0,0,0,0,0,0,0,0,0,0,0,0,0,0,0,0,0,0,0,0,0,0,0,0,0,0,0,0,0,0,
0,0,0,0,0,0,0,0,0,0,0,0,0,0,0,0,0,0,0,0,0,0,0,0,0,0,0,0,0,0,
0,0,0,0,0,0,0,0,0,0,0,0,0,0,0,0,0,0,0,0,0,0,0,0,0,0,0,0,0,0,
0,0,0,0,0,0,0,0,0,0,0,0,0,0,0,0,0,0,0,0,0,0,0,0,0,0,0,0,0,0,
0,0,0,0,0,0,0,0,0,0,0,0,0,0,0,0,0,0,0,0,0,0,0,0,0,0,0,0,0,0,
0,0,0,0,0,0,0,0,0,0,0,0,0,0,0,0,0,0,0,0,0,0,0,0,0,0,0,0,0,0,
0,0,0,0,0,0,0,0,0,0,0,0,0,0,0,0,0,0,0,0,0,0,0,0,0,0,0,0,0,0,
0,0,0,0,0,0,0,0,0,0,0,0,0,0,0,0,0,0,0,0,0,0,0,0,0,0,0,0,0,0,
0,0,0,0,0,0,0,0,0,0,0,0,0,0,0,0,0,0,0,0,0,0,0,0,0,0,0,0,0,0,
0,0,0,0,0,0,0,0,0,3553,3553,3553,0,0,3553,3553,3553,3553,3553,3553,3553,3553,3553,3553,3553,3553,3553,3553,0,0,
0,0,0,0,0,0,0,0,0,0,0,0,0,0,0,0,0,0,0,0,0,0,0,0,0,0,0,0,0,0,
0,0,0,0,0,0,0,0,0,0,0,0,0,0,0,0,0,0,0,0,0,0,0,0,0,0,0,0,0,0,
0,3553,3553,3553,0,3553,3553,0,0,0,0,0,0,0,0,0,0,0,0,0,0,0,0,0,0,0,0,0,0,0,
0,0,0,0,0,0,0,0,0,0,0,0,0,0,0,0,0,0,0,0,0,0,0,0,0,0,0,0,0,0,
0,0,0,0,0,0,0,0,0,0,0,0,0,0,0,0,0,0,0,0,0,0,0,0,0,0,0,0,0,0,
0,0,0,0,0,0,0,0,0,0,0,0,0,0,0,0,0,0,0,0,0,0,0,0,0,0,0,0,0,0,
0,0,0,0,0,0,0,0,0,0,0,0,0,0,0,0,0,0,0,0,0,0,0,0,0,0,0,0,0,0,
0,0,0,0,0,0,0,0,0,0,0,0,0,0,0,0,0,0,0,0,0,3553,0,0,0,0,0,0,0,0,
0,0,0,0,0,0,0,0,0,0,0,0,0,0,0,0,0,0,0,0,0,0,0,0,0,0,0,0,0,0,
0,0,0,0,0,0,0,0,0,0,0,0,0,0,0,0,0,0,0,0,0,0,3553,3553,3553,3553,3553,3553,3553,0,
0,0,0,0,0,0,0,0,0,0,0,0,0,0,0,0,0,0,0,0,0,0,0,0,0,0,0,0,0,0,
0,0,0,0,3553,3553,3553,3553,3553,3553,3553,0,0,0,0,0,3553,3553,3553,3553,3553,0,0,0,0,0,0,0,0,0,
0,0,0,0,0,0,0,0,0,0,0,0,0,0,0,0,0,0,0,0,0,0,0,0,0,0,0,0,0,0,
0,0,0,0,0,0,0,0,0,0,0,3553,3553,3553,3553,3553,0,0,0,0,0,0,0,0,0,0,0,0,0,0
</data>
 </layer>
 <objectgroup id="9" name="kittycatcasey.Stardew3D/FloorData_Center"/>
 <objectgroup id="10" name="kittycatcasey.Stardew3D/FloorData_North"/>
 <objectgroup id="11" name="kittycatcasey.Stardew3D/CeilingData_Center"/>
 <objectgroup id="12" name="kittycatcasey.Stardew3D/CeilingData_North"/>
 <objectgroup id="13" name="kittycatcasey.Stardew3D/WallData_West">
  <object id="1" name="TileData" x="16" y="64" width="16" height="16">
   <properties>
    <property name="kittycatcasey.Stardew3D/WallDefinitionOverride" value="kittycatcasey.Stardew3D/Trailer_PennyWallpaper"/>
   </properties>
  </object>
  <object id="2" name="TileData" x="208" y="64" width="16" height="16">
   <properties>
    <property name="kittycatcasey.Stardew3D/WallDefinitionOverride" value="kittycatcasey.Stardew3D/Trailer_MainWallpaper"/>
   </properties>
  </object>
  <object id="3" name="TileData" x="16" y="80" width="16" height="16">
   <properties>
    <property name="kittycatcasey.Stardew3D/WallDefinitionOverride" value="kittycatcasey.Stardew3D/Trailer_PennyWallpaper"/>
   </properties>
  </object>
  <object id="4" name="TileData" x="208" y="80" width="16" height="16">
   <properties>
    <property name="kittycatcasey.Stardew3D/WallDefinitionOverride" value="kittycatcasey.Stardew3D/Trailer_MainWallpaper"/>
   </properties>
  </object>
  <object id="5" name="TileData" x="16" y="96" width="16" height="16">
   <properties>
    <property name="kittycatcasey.Stardew3D/WallDefinitionOverride" value="kittycatcasey.Stardew3D/Trailer_PennyWallpaper"/>
   </properties>
  </object>
  <object id="6" name="TileData" x="144" y="96" width="16" height="16">
   <properties>
    <property name="kittycatcasey.Stardew3D/WallDefinitionOverride" value="kittycatcasey.Stardew3D/Trailer_MainWallpaper"/>
   </properties>
  </object>
  <object id="7" name="TileData" x="16" y="112" width="16" height="16">
   <properties>
    <property name="kittycatcasey.Stardew3D/WallDefinitionOverride" value="kittycatcasey.Stardew3D/Trailer_PennyWallpaper"/>
   </properties>
  </object>
  <object id="8" name="TileData" x="144" y="112" width="16" height="16">
   <properties>
    <property name="kittycatcasey.Stardew3D/WallDefinitionOverride" value="kittycatcasey.Stardew3D/Trailer_MainWallpaper"/>
   </properties>
  </object>
  <object id="9" name="TileData" x="16" y="128" width="16" height="16">
   <properties>
    <property name="kittycatcasey.Stardew3D/WallDefinitionOverride" value="kittycatcasey.Stardew3D/Trailer_PennyWallpaper"/>
   </properties>
  </object>
  <object id="10" name="TileData" x="144" y="128" width="16" height="16">
   <properties>
    <property name="kittycatcasey.Stardew3D/WallDefinitionOverride" value="kittycatcasey.Stardew3D/Trailer_MainWallpaper"/>
   </properties>
  </object>
  <object id="11" name="TileData" x="16" y="144" width="16" height="16">
   <properties>
    <property name="kittycatcasey.Stardew3D/WallDefinitionOverride" value="kittycatcasey.Stardew3D/Trailer_PennyWallpaper"/>
   </properties>
  </object>
  <object id="12" name="TileData" x="144" y="144" width="16" height="16">
   <properties>
    <property name="kittycatcasey.Stardew3D/WallDefinitionOverride" value="kittycatcasey.Stardew3D/Trailer_MainWallpaper"/>
   </properties>
  </object>
  <object id="13" name="TileData" x="16" y="160" width="16" height="16">
   <properties>
    <property name="kittycatcasey.Stardew3D/WallDefinitionOverride" value="kittycatcasey.Stardew3D/Trailer_PennyWallpaper"/>
   </properties>
  </object>
  <object id="14" name="TileData" x="144" y="160" width="16" height="16">
   <properties>
    <property name="kittycatcasey.Stardew3D/WallDefinitionOverride" value="kittycatcasey.Stardew3D/Trailer_MainWallpaper"/>
   </properties>
  </object>
  <object id="15" name="TileData" x="16" y="176" width="16" height="16">
   <properties>
    <property name="kittycatcasey.Stardew3D/WallDefinitionOverride" value="kittycatcasey.Stardew3D/Trailer_PennyWallpaper"/>
   </properties>
  </object>
  <object id="16" name="TileData" x="144" y="176" width="16" height="16">
   <properties>
    <property name="kittycatcasey.Stardew3D/WallDefinitionOverride" value="kittycatcasey.Stardew3D/Trailer_MainWallpaper"/>
   </properties>
  </object>
  <object id="17" name="TileData" x="16" y="192" width="16" height="16">
   <properties>
    <property name="kittycatcasey.Stardew3D/WallDefinitionOverride" value="kittycatcasey.Stardew3D/Trailer_PennyWallpaper"/>
   </properties>
  </object>
  <object id="18" name="TileData" x="192" y="192" width="16" height="16">
   <properties>
    <property name="kittycatcasey.Stardew3D/WallDefinitionOverride" value="kittycatcasey.Stardew3D/Trailer_MainWallpaper"/>
   </properties>
  </object>
  <object id="19" name="TileData" x="16" y="208" width="16" height="16">
   <properties>
    <property name="kittycatcasey.Stardew3D/WallDefinitionOverride" value="kittycatcasey.Stardew3D/Trailer_PennyWallpaper"/>
   </properties>
  </object>
  <object id="20" name="TileData" x="16" y="224" width="16" height="16">
   <properties>
    <property name="kittycatcasey.Stardew3D/WallDefinitionOverride" value="kittycatcasey.Stardew3D/Trailer_PennyWallpaper"/>
   </properties>
  </object>
  <object id="21" name="TileData" x="64" y="240" width="16" height="16">
   <properties>
    <property name="kittycatcasey.Stardew3D/WallDefinitionOverride" value="kittycatcasey.Stardew3D/Trailer_PennyWallpaper"/>
   </properties>
  </object>
  <object id="22" name="TileData" x="352" y="256" width="16" height="16">
   <properties>
    <property name="kittycatcasey.Stardew3D/WallDefinitionOverride" value="kittycatcasey.Stardew3D/Trailer_PennyWallpaper"/>
   </properties>
  </object>
  <object id="23" name="TileData" x="352" y="272" width="16" height="16">
   <properties>
    <property name="kittycatcasey.Stardew3D/WallDefinitionOverride" value="kittycatcasey.Stardew3D/Trailer_PennyWallpaper"/>
   </properties>
  </object>
  <object id="24" name="TileData" x="352" y="288" width="16" height="16">
   <properties>
    <property name="kittycatcasey.Stardew3D/WallDefinitionOverride" value="kittycatcasey.Stardew3D/Trailer_PennyWallpaper"/>
   </properties>
  </object>
  <object id="25" name="TileData" x="64" y="304" width="16" height="16">
   <properties>
    <property name="kittycatcasey.Stardew3D/WallDefinitionOverride" value="kittycatcasey.Stardew3D/TrailerBig_EntryWallpaper"/>
   </properties>
  </object>
  <object id="26" name="TileData" x="320" y="304" width="16" height="16">
   <properties>
    <property name="kittycatcasey.Stardew3D/WallDefinitionOverride" value="kittycatcasey.Stardew3D/Trailer_PennyWallpaper"/>
   </properties>
  </object>
  <object id="27" name="TileData" x="64" y="320" width="16" height="16">
   <properties>
    <property name="kittycatcasey.Stardew3D/WallDefinitionOverride" value="kittycatcasey.Stardew3D/TrailerBig_EntryWallpaper"/>
   </properties>
  </object>
  <object id="28" name="TileData" x="320" y="320" width="16" height="16">
   <properties>
    <property name="kittycatcasey.Stardew3D/WallDefinitionOverride" value="kittycatcasey.Stardew3D/Trailer_PennyWallpaper"/>
   </properties>
  </object>
  <object id="29" name="TileData" x="352" y="320" width="16" height="16">
   <properties>
    <property name="kittycatcasey.Stardew3D/WallDefinitionOverride" value="kittycatcasey.Stardew3D/Trailer_PennyWallpaper"/>
   </properties>
  </object>
  <object id="30" name="TileData" x="64" y="336" width="16" height="16">
   <properties>
    <property name="kittycatcasey.Stardew3D/WallDefinitionOverride" value="kittycatcasey.Stardew3D/TrailerBig_EntryWallpaper"/>
   </properties>
  </object>
  <object id="31" name="TileData" x="320" y="336" width="16" height="16">
   <properties>
    <property name="kittycatcasey.Stardew3D/WallDefinitionOverride" value="kittycatcasey.Stardew3D/Trailer_PennyWallpaper"/>
   </properties>
  </object>
  <object id="32" name="TileData" x="352" y="336" width="16" height="16">
   <properties>
    <property name="kittycatcasey.Stardew3D/WallDefinitionOverride" value="kittycatcasey.Stardew3D/Trailer_PennyWallpaper"/>
   </properties>
  </object>
  <object id="33" name="TileData" x="64" y="352" width="16" height="16">
   <properties>
    <property name="kittycatcasey.Stardew3D/WallDefinitionOverride" value="kittycatcasey.Stardew3D/TrailerBig_EntryWallpaper"/>
   </properties>
  </object>
  <object id="34" name="TileData" x="64" y="368" width="16" height="16">
   <properties>
    <property name="kittycatcasey.Stardew3D/WallDefinitionOverride" value="kittycatcasey.Stardew3D/TrailerBig_EntryWallpaper"/>
   </properties>
  </object>
  <object id="35" name="TileData" x="176" y="384" width="16" height="16">
   <properties>
    <property name="kittycatcasey.Stardew3D/WallDefinitionOverride" value="kittycatcasey.Stardew3D/TrailerBig_EntryWallpaper"/>
   </properties>
  </object>
  <object id="36" name="TileData" x="176" y="400" width="16" height="16">
   <properties>
    <property name="kittycatcasey.Stardew3D/WallDefinitionOverride" value="kittycatcasey.Stardew3D/TrailerBig_EntryWallpaper"/>
   </properties>
  </object>
 </objectgroup>
 <objectgroup id="14" name="kittycatcasey.Stardew3D/WallData_North">
  <object id="37" name="TileData" x="16" y="64" width="16" height="16">
   <properties>
    <property name="kittycatcasey.Stardew3D/WallDefinitionOverride" value="kittycatcasey.Stardew3D/Trailer_PennyWallpaper"/>
   </properties>
  </object>
  <object id="38" name="TileData" x="32" y="64" width="16" height="16">
   <properties>
    <property name="kittycatcasey.Stardew3D/WallDefinitionOverride" value="kittycatcasey.Stardew3D/Trailer_PennyWallpaper"/>
   </properties>
  </object>
  <object id="39" name="TileData" x="48" y="64" width="16" height="16">
   <properties>
    <property name="kittycatcasey.Stardew3D/WallDefinitionOverride" value="kittycatcasey.Stardew3D/Trailer_PennyWallpaper"/>
   </properties>
  </object>
  <object id="40" name="TileData" x="64" y="64" width="16" height="16">
   <properties>
    <property name="kittycatcasey.Stardew3D/WallDefinitionOverride" value="kittycatcasey.Stardew3D/Trailer_PennyWallpaper"/>
   </properties>
  </object>
  <object id="41" name="TileData" x="80" y="64" width="16" height="16">
   <properties>
    <property name="kittycatcasey.Stardew3D/WallDefinitionOverride" value="kittycatcasey.Stardew3D/Trailer_PennyWallpaper"/>
   </properties>
  </object>
  <object id="42" name="TileData" x="96" y="64" width="16" height="16">
   <properties>
    <property name="kittycatcasey.Stardew3D/WallDefinitionOverride" value="kittycatcasey.Stardew3D/Trailer_PennyWallpaper"/>
   </properties>
  </object>
  <object id="43" name="TileData" x="208" y="64" width="16" height="16">
   <properties>
    <property name="kittycatcasey.Stardew3D/WallDefinitionOverride" value="kittycatcasey.Stardew3D/Trailer_MainWallpaper"/>
   </properties>
  </object>
  <object id="44" name="TileData" x="224" y="64" width="16" height="16">
   <properties>
    <property name="kittycatcasey.Stardew3D/WallDefinitionOverride" value="kittycatcasey.Stardew3D/Trailer_MainWallpaper"/>
   </properties>
  </object>
  <object id="45" name="TileData" x="240" y="64" width="16" height="16">
   <properties>
    <property name="kittycatcasey.Stardew3D/WallDefinitionOverride" value="kittycatcasey.Stardew3D/Trailer_MainWallpaper"/>
   </properties>
  </object>
  <object id="46" name="TileData" x="256" y="64" width="16" height="16">
   <properties>
    <property name="kittycatcasey.Stardew3D/WallDefinitionOverride" value="kittycatcasey.Stardew3D/Trailer_MainWallpaper"/>
   </properties>
  </object>
  <object id="47" name="TileData" x="144" y="96" width="16" height="16">
   <properties>
    <property name="kittycatcasey.Stardew3D/WallDefinitionOverride" value="kittycatcasey.Stardew3D/Trailer_MainWallpaper"/>
   </properties>
  </object>
  <object id="48" name="TileData" x="160" y="96" width="16" height="16">
   <properties>
    <property name="kittycatcasey.Stardew3D/WallDefinitionOverride" value="kittycatcasey.Stardew3D/Trailer_MainWallpaper"/>
   </properties>
  </object>
  <object id="49" name="TileData" x="176" y="96" width="16" height="16">
   <properties>
    <property name="kittycatcasey.Stardew3D/WallDefinitionOverride" value="kittycatcasey.Stardew3D/Trailer_MainWallpaper"/>
   </properties>
  </object>
  <object id="50" name="TileData" x="192" y="96" width="16" height="16">
   <properties>
    <property name="kittycatcasey.Stardew3D/WallDefinitionOverride" value="kittycatcasey.Stardew3D/Trailer_MainWallpaper"/>
   </properties>
  </object>
  <object id="51" name="TileData" x="272" y="96" width="16" height="16">
   <properties>
    <property name="kittycatcasey.Stardew3D/WallDefinitionOverride" value="kittycatcasey.Stardew3D/Trailer_MainWallpaper"/>
   </properties>
  </object>
  <object id="52" name="TileData" x="288" y="96" width="16" height="16">
   <properties>
    <property name="kittycatcasey.Stardew3D/WallDefinitionOverride" value="kittycatcasey.Stardew3D/Trailer_MainWallpaper"/>
   </properties>
  </object>
  <object id="53" name="TileData" x="304" y="96" width="16" height="16">
   <properties>
    <property name="kittycatcasey.Stardew3D/WallDefinitionOverride" value="kittycatcasey.Stardew3D/Trailer_MainWallpaper"/>
   </properties>
  </object>
  <object id="54" name="TileData" x="320" y="96" width="16" height="16">
   <properties>
    <property name="kittycatcasey.Stardew3D/WallDefinitionOverride" value="kittycatcasey.Stardew3D/Trailer_MainWallpaper"/>
   </properties>
  </object>
  <object id="55" name="TileData" x="336" y="96" width="16" height="16">
   <properties>
    <property name="kittycatcasey.Stardew3D/WallDefinitionOverride" value="kittycatcasey.Stardew3D/Trailer_MainWallpaper"/>
   </properties>
  </object>
  <object id="56" name="TileData" x="352" y="96" width="16" height="16">
   <properties>
    <property name="kittycatcasey.Stardew3D/WallDefinitionOverride" value="kittycatcasey.Stardew3D/Trailer_MainWallpaper"/>
   </properties>
  </object>
  <object id="57" name="TileData" x="368" y="96" width="16" height="16">
   <properties>
    <property name="kittycatcasey.Stardew3D/WallDefinitionOverride" value="kittycatcasey.Stardew3D/Trailer_MainWallpaper"/>
   </properties>
  </object>
  <object id="58" name="TileData" x="384" y="96" width="16" height="16">
   <properties>
    <property name="kittycatcasey.Stardew3D/WallDefinitionOverride" value="kittycatcasey.Stardew3D/Trailer_MainWallpaper"/>
   </properties>
  </object>
  <object id="59" name="TileData" x="400" y="144" width="16" height="16">
   <properties>
    <property name="kittycatcasey.Stardew3D/WallDefinitionOverride" value="kittycatcasey.Stardew3D/Trailer_MainWallpaper"/>
   </properties>
  </object>
  <object id="60" name="TileData" x="416" y="144" width="16" height="16">
   <properties>
    <property name="kittycatcasey.Stardew3D/WallDefinitionOverride" value="kittycatcasey.Stardew3D/Trailer_MainWallpaper"/>
   </properties>
  </object>
  <object id="61" name="TileData" x="432" y="144" width="16" height="16">
   <properties>
    <property name="kittycatcasey.Stardew3D/WallDefinitionOverride" value="kittycatcasey.Stardew3D/Trailer_MainWallpaper"/>
   </properties>
  </object>
  <object id="62" name="TileData" x="352" y="256" width="16" height="16">
   <properties>
    <property name="kittycatcasey.Stardew3D/WallDefinitionOverride" value="kittycatcasey.Stardew3D/Trailer_PennyWallpaper"/>
   </properties>
  </object>
  <object id="63" name="TileData" x="368" y="256" width="16" height="16">
   <properties>
    <property name="kittycatcasey.Stardew3D/WallDefinitionOverride" value="kittycatcasey.Stardew3D/Trailer_PennyWallpaper"/>
   </properties>
  </object>
  <object id="64" name="TileData" x="384" y="256" width="16" height="16">
   <properties>
    <property name="kittycatcasey.Stardew3D/WallDefinitionOverride" value="kittycatcasey.Stardew3D/Trailer_PennyWallpaper"/>
   </properties>
  </object>
  <object id="65" name="TileData" x="400" y="256" width="16" height="16">
   <properties>
    <property name="kittycatcasey.Stardew3D/WallDefinitionOverride" value="kittycatcasey.Stardew3D/Trailer_PennyWallpaper"/>
   </properties>
  </object>
  <object id="66" name="TileData" x="416" y="256" width="16" height="16">
   <properties>
    <property name="kittycatcasey.Stardew3D/WallDefinitionOverride" value="kittycatcasey.Stardew3D/Trailer_PennyWallpaper"/>
   </properties>
  </object>
  <object id="67" name="TileData" x="432" y="256" width="16" height="16">
   <properties>
    <property name="kittycatcasey.Stardew3D/WallDefinitionOverride" value="kittycatcasey.Stardew3D/Trailer_PennyWallpaper"/>
   </properties>
  </object>
  <object id="68" name="TileData" x="448" y="256" width="16" height="16">
   <properties>
    <property name="kittycatcasey.Stardew3D/WallDefinitionOverride" value="kittycatcasey.Stardew3D/Trailer_PennyWallpaper"/>
   </properties>
  </object>
  <object id="69" name="TileData" x="80" y="304" width="16" height="16">
   <properties>
    <property name="kittycatcasey.Stardew3D/WallDefinitionOverride" value="kittycatcasey.Stardew3D/TrailerBig_EntryWallpaper"/>
   </properties>
  </object>
  <object id="70" name="TileData" x="96" y="304" width="16" height="16">
   <properties>
    <property name="kittycatcasey.Stardew3D/WallDefinitionOverride" value="kittycatcasey.Stardew3D/TrailerBig_EntryWallpaper"/>
   </properties>
  </object>
  <object id="71" name="TileData" x="112" y="304" width="16" height="16">
   <properties>
    <property name="kittycatcasey.Stardew3D/WallDefinitionOverride" value="kittycatcasey.Stardew3D/TrailerBig_EntryWallpaper"/>
   </properties>
  </object>
  <object id="72" name="TileData" x="128" y="304" width="16" height="16">
   <properties>
    <property name="kittycatcasey.Stardew3D/WallDefinitionOverride" value="kittycatcasey.Stardew3D/TrailerBig_EntryWallpaper"/>
   </properties>
  </object>
  <object id="73" name="TileData" x="144" y="304" width="16" height="16">
   <properties>
    <property name="kittycatcasey.Stardew3D/WallDefinitionOverride" value="kittycatcasey.Stardew3D/TrailerBig_EntryWallpaper"/>
   </properties>
  </object>
  <object id="74" name="TileData" x="160" y="304" width="16" height="16">
   <properties>
    <property name="kittycatcasey.Stardew3D/WallDefinitionOverride" value="kittycatcasey.Stardew3D/TrailerBig_EntryWallpaper"/>
   </properties>
  </object>
  <object id="75" name="TileData" x="176" y="304" width="16" height="16">
   <properties>
    <property name="kittycatcasey.Stardew3D/WallDefinitionOverride" value="kittycatcasey.Stardew3D/TrailerBig_EntryWallpaper"/>
   </properties>
  </object>
  <object id="76" name="TileData" x="224" y="304" width="16" height="16">
   <properties>
    <property name="kittycatcasey.Stardew3D/WallDefinitionOverride" value="kittycatcasey.Stardew3D/TrailerBig_EntryWallpaper"/>
   </properties>
  </object>
  <object id="77" name="TileData" x="240" y="304" width="16" height="16">
   <properties>
    <property name="kittycatcasey.Stardew3D/WallDefinitionOverride" value="kittycatcasey.Stardew3D/TrailerBig_EntryWallpaper"/>
   </properties>
  </object>
  <object id="78" name="TileData" x="320" y="304" width="16" height="16">
   <properties>
    <property name="kittycatcasey.Stardew3D/WallDefinitionOverride" value="kittycatcasey.Stardew3D/Trailer_PennyWallpaper"/>
   </properties>
  </object>
  <object id="79" name="TileData" x="336" y="304" width="16" height="16">
   <properties>
    <property name="kittycatcasey.Stardew3D/WallDefinitionOverride" value="kittycatcasey.Stardew3D/Trailer_PennyWallpaper"/>
   </properties>
  </object>
  <object id="80" name="TileData" x="256" y="352" width="16" height="16">
   <properties>
    <property name="kittycatcasey.Stardew3D/WallDefinitionOverride" value="kittycatcasey.Stardew3D/TrailerBig_EntryWallpaper"/>
   </properties>
  </object>
  <object id="81" name="TileData" x="272" y="352" width="16" height="16">
   <properties>
    <property name="kittycatcasey.Stardew3D/WallDefinitionOverride" value="kittycatcasey.Stardew3D/TrailerBig_EntryWallpaper"/>
   </properties>
  </object>
  <object id="82" name="TileData" x="288" y="352" width="16" height="16">
   <properties>
    <property name="kittycatcasey.Stardew3D/WallDefinitionOverride" value="kittycatcasey.Stardew3D/TrailerBig_EntryWallpaper"/>
   </properties>
  </object>
  <object id="83" name="TileData" x="304" y="352" width="16" height="16">
   <properties>
    <property name="kittycatcasey.Stardew3D/WallDefinitionOverride" value="kittycatcasey.Stardew3D/TrailerBig_EntryWallpaper"/>
   </properties>
  </object>
 </objectgroup>
 <objectgroup id="15" name="kittycatcasey.Stardew3D/WallData_East">
  <object id="84" name="TileData" x="96" y="64" width="16" height="16">
   <properties>
    <property name="kittycatcasey.Stardew3D/WallDefinitionOverride" value="kittycatcasey.Stardew3D/Trailer_PennyWallpaper"/>
   </properties>
  </object>
  <object id="85" name="TileData" x="256" y="64" width="16" height="16">
   <properties>
    <property name="kittycatcasey.Stardew3D/WallDefinitionOverride" value="kittycatcasey.Stardew3D/Trailer_MainWallpaper"/>
   </properties>
  </object>
  <object id="86" name="TileData" x="96" y="80" width="16" height="16">
   <properties>
    <property name="kittycatcasey.Stardew3D/WallDefinitionOverride" value="kittycatcasey.Stardew3D/Trailer_PennyWallpaper"/>
   </properties>
  </object>
  <object id="87" name="TileData" x="256" y="80" width="16" height="16">
   <properties>
    <property name="kittycatcasey.Stardew3D/WallDefinitionOverride" value="kittycatcasey.Stardew3D/Trailer_MainWallpaper"/>
   </properties>
  </object>
  <object id="88" name="TileData" x="96" y="96" width="16" height="16">
   <properties>
    <property name="kittycatcasey.Stardew3D/WallDefinitionOverride" value="kittycatcasey.Stardew3D/Trailer_PennyWallpaper"/>
   </properties>
  </object>
  <object id="89" name="TileData" x="384" y="96" width="16" height="16">
   <properties>
    <property name="kittycatcasey.Stardew3D/WallDefinitionOverride" value="kittycatcasey.Stardew3D/Trailer_MainWallpaper"/>
   </properties>
  </object>
  <object id="90" name="TileData" x="96" y="112" width="16" height="16">
   <properties>
    <property name="kittycatcasey.Stardew3D/WallDefinitionOverride" value="kittycatcasey.Stardew3D/Trailer_PennyWallpaper"/>
   </properties>
  </object>
  <object id="91" name="TileData" x="384" y="112" width="16" height="16">
   <properties>
    <property name="kittycatcasey.Stardew3D/WallDefinitionOverride" value="kittycatcasey.Stardew3D/Trailer_MainWallpaper"/>
   </properties>
  </object>
  <object id="92" name="TileData" x="96" y="128" width="16" height="16">
   <properties>
    <property name="kittycatcasey.Stardew3D/WallDefinitionOverride" value="kittycatcasey.Stardew3D/Trailer_PennyWallpaper"/>
   </properties>
  </object>
  <object id="93" name="TileData" x="384" y="128" width="16" height="16">
   <properties>
    <property name="kittycatcasey.Stardew3D/WallDefinitionOverride" value="kittycatcasey.Stardew3D/Trailer_MainWallpaper"/>
   </properties>
  </object>
  <object id="94" name="TileData" x="96" y="144" width="16" height="16">
   <properties>
    <property name="kittycatcasey.Stardew3D/WallDefinitionOverride" value="kittycatcasey.Stardew3D/Trailer_PennyWallpaper"/>
   </properties>
  </object>
  <object id="95" name="TileData" x="432" y="144" width="16" height="16">
   <properties>
    <property name="kittycatcasey.Stardew3D/WallDefinitionOverride" value="kittycatcasey.Stardew3D/Trailer_MainWallpaper"/>
   </properties>
  </object>
  <object id="96" name="TileData" x="96" y="160" width="16" height="16">
   <properties>
    <property name="kittycatcasey.Stardew3D/WallDefinitionOverride" value="kittycatcasey.Stardew3D/Trailer_PennyWallpaper"/>
   </properties>
  </object>
  <object id="97" name="TileData" x="432" y="160" width="16" height="16">
   <properties>
    <property name="kittycatcasey.Stardew3D/WallDefinitionOverride" value="kittycatcasey.Stardew3D/Trailer_MainWallpaper"/>
   </properties>
  </object>
  <object id="98" name="TileData" x="96" y="176" width="16" height="16">
   <properties>
    <property name="kittycatcasey.Stardew3D/WallDefinitionOverride" value="kittycatcasey.Stardew3D/Trailer_PennyWallpaper"/>
   </properties>
  </object>
  <object id="99" name="TileData" x="432" y="176" width="16" height="16">
   <properties>
    <property name="kittycatcasey.Stardew3D/WallDefinitionOverride" value="kittycatcasey.Stardew3D/Trailer_MainWallpaper"/>
   </properties>
  </object>
  <object id="100" name="TileData" x="96" y="192" width="16" height="16">
   <properties>
    <property name="kittycatcasey.Stardew3D/WallDefinitionOverride" value="kittycatcasey.Stardew3D/Trailer_PennyWallpaper"/>
   </properties>
  </object>
  <object id="101" name="TileData" x="208" y="192" width="16" height="16">
   <properties>
    <property name="kittycatcasey.Stardew3D/WallDefinitionOverride" value="kittycatcasey.Stardew3D/Trailer_MainWallpaper"/>
   </properties>
  </object>
  <object id="102" name="TileData" x="96" y="208" width="16" height="16">
   <properties>
    <property name="kittycatcasey.Stardew3D/WallDefinitionOverride" value="kittycatcasey.Stardew3D/Trailer_PennyWallpaper"/>
   </properties>
  </object>
  <object id="103" name="TileData" x="96" y="224" width="16" height="16">
   <properties>
    <property name="kittycatcasey.Stardew3D/WallDefinitionOverride" value="kittycatcasey.Stardew3D/Trailer_PennyWallpaper"/>
   </properties>
  </object>
  <object id="104" name="TileData" x="64" y="240" width="16" height="16">
   <properties>
    <property name="kittycatcasey.Stardew3D/WallDefinitionOverride" value="kittycatcasey.Stardew3D/Trailer_PennyWallpaper"/>
   </properties>
  </object>
  <object id="105" name="TileData" x="448" y="256" width="16" height="16">
   <properties>
    <property name="kittycatcasey.Stardew3D/WallDefinitionOverride" value="kittycatcasey.Stardew3D/Trailer_PennyWallpaper"/>
   </properties>
  </object>
  <object id="106" name="TileData" x="448" y="272" width="16" height="16">
   <properties>
    <property name="kittycatcasey.Stardew3D/WallDefinitionOverride" value="kittycatcasey.Stardew3D/Trailer_PennyWallpaper"/>
   </properties>
  </object>
  <object id="107" name="TileData" x="448" y="288" width="16" height="16">
   <properties>
    <property name="kittycatcasey.Stardew3D/WallDefinitionOverride" value="kittycatcasey.Stardew3D/Trailer_PennyWallpaper"/>
   </properties>
  </object>
  <object id="108" name="TileData" x="240" y="304" width="16" height="16">
   <properties>
    <property name="kittycatcasey.Stardew3D/WallDefinitionOverride" value="kittycatcasey.Stardew3D/TrailerBig_EntryWallpaper"/>
   </properties>
  </object>
  <object id="109" name="TileData" x="448" y="304" width="16" height="16">
   <properties>
    <property name="kittycatcasey.Stardew3D/WallDefinitionOverride" value="kittycatcasey.Stardew3D/Trailer_PennyWallpaper"/>
   </properties>
  </object>
  <object id="110" name="TileData" x="240" y="320" width="16" height="16">
   <properties>
    <property name="kittycatcasey.Stardew3D/WallDefinitionOverride" value="kittycatcasey.Stardew3D/TrailerBig_EntryWallpaper"/>
   </properties>
  </object>
  <object id="111" name="TileData" x="320" y="320" width="16" height="16">
   <properties>
    <property name="kittycatcasey.Stardew3D/WallDefinitionOverride" value="kittycatcasey.Stardew3D/Trailer_PennyWallpaper"/>
   </properties>
  </object>
  <object id="112" name="TileData" x="448" y="320" width="16" height="16">
   <properties>
    <property name="kittycatcasey.Stardew3D/WallDefinitionOverride" value="kittycatcasey.Stardew3D/Trailer_PennyWallpaper"/>
   </properties>
  </object>
  <object id="113" name="TileData" x="240" y="336" width="16" height="16">
   <properties>
    <property name="kittycatcasey.Stardew3D/WallDefinitionOverride" value="kittycatcasey.Stardew3D/TrailerBig_EntryWallpaper"/>
   </properties>
  </object>
  <object id="114" name="TileData" x="320" y="336" width="16" height="16">
   <properties>
    <property name="kittycatcasey.Stardew3D/WallDefinitionOverride" value="kittycatcasey.Stardew3D/Trailer_PennyWallpaper"/>
   </properties>
  </object>
  <object id="115" name="TileData" x="448" y="336" width="16" height="16">
   <properties>
    <property name="kittycatcasey.Stardew3D/WallDefinitionOverride" value="kittycatcasey.Stardew3D/Trailer_PennyWallpaper"/>
   </properties>
  </object>
  <object id="116" name="TileData" x="320" y="352" width="16" height="16">
   <properties>
    <property name="kittycatcasey.Stardew3D/WallDefinitionOverride" value="kittycatcasey.Stardew3D/TrailerBig_EntryWallpaper"/>
   </properties>
  </object>
  <object id="117" name="TileData" x="320" y="368" width="16" height="16">
   <properties>
    <property name="kittycatcasey.Stardew3D/WallDefinitionOverride" value="kittycatcasey.Stardew3D/TrailerBig_EntryWallpaper"/>
   </properties>
  </object>
  <object id="118" name="TileData" x="240" y="384" width="16" height="16">
   <properties>
    <property name="kittycatcasey.Stardew3D/WallDefinitionOverride" value="kittycatcasey.Stardew3D/TrailerBig_EntryWallpaper"/>
   </properties>
  </object>
  <object id="119" name="TileData" x="240" y="400" width="16" height="16">
   <properties>
    <property name="kittycatcasey.Stardew3D/WallDefinitionOverride" value="kittycatcasey.Stardew3D/TrailerBig_EntryWallpaper"/>
   </properties>
  </object>
 </objectgroup>
 <objectgroup id="16" name="kittycatcasey.Stardew3D/WallData_South">
  <object id="120" name="TileData" x="144" y="176" width="16" height="16">
   <properties>
    <property name="kittycatcasey.Stardew3D/WallDefinitionOverride" value="kittycatcasey.Stardew3D/Trailer_MainWallpaper"/>
   </properties>
  </object>
  <object id="121" name="TileData" x="160" y="176" width="16" height="16">
   <properties>
    <property name="kittycatcasey.Stardew3D/WallDefinitionOverride" value="kittycatcasey.Stardew3D/Trailer_MainWallpaper"/>
   </properties>
  </object>
  <object id="122" name="TileData" x="176" y="176" width="16" height="16">
   <properties>
    <property name="kittycatcasey.Stardew3D/WallDefinitionOverride" value="kittycatcasey.Stardew3D/Trailer_MainWallpaper"/>
   </properties>
  </object>
  <object id="123" name="TileData" x="224" y="176" width="16" height="16">
   <properties>
    <property name="kittycatcasey.Stardew3D/WallDefinitionOverride" value="kittycatcasey.Stardew3D/Trailer_MainWallpaper"/>
   </properties>
  </object>
  <object id="124" name="TileData" x="240" y="176" width="16" height="16">
   <properties>
    <property name="kittycatcasey.Stardew3D/WallDefinitionOverride" value="kittycatcasey.Stardew3D/Trailer_MainWallpaper"/>
   </properties>
  </object>
  <object id="125" name="TileData" x="256" y="176" width="16" height="16">
   <properties>
    <property name="kittycatcasey.Stardew3D/WallDefinitionOverride" value="kittycatcasey.Stardew3D/Trailer_MainWallpaper"/>
   </properties>
  </object>
  <object id="126" name="TileData" x="272" y="176" width="16" height="16">
   <properties>
    <property name="kittycatcasey.Stardew3D/WallDefinitionOverride" value="kittycatcasey.Stardew3D/Trailer_MainWallpaper"/>
   </properties>
  </object>
  <object id="127" name="TileData" x="288" y="176" width="16" height="16">
   <properties>
    <property name="kittycatcasey.Stardew3D/WallDefinitionOverride" value="kittycatcasey.Stardew3D/Trailer_MainWallpaper"/>
   </properties>
  </object>
  <object id="128" name="TileData" x="304" y="176" width="16" height="16">
   <properties>
    <property name="kittycatcasey.Stardew3D/WallDefinitionOverride" value="kittycatcasey.Stardew3D/Trailer_MainWallpaper"/>
   </properties>
  </object>
  <object id="129" name="TileData" x="320" y="176" width="16" height="16">
   <properties>
    <property name="kittycatcasey.Stardew3D/WallDefinitionOverride" value="kittycatcasey.Stardew3D/Trailer_MainWallpaper"/>
   </properties>
  </object>
  <object id="130" name="TileData" x="336" y="176" width="16" height="16">
   <properties>
    <property name="kittycatcasey.Stardew3D/WallDefinitionOverride" value="kittycatcasey.Stardew3D/Trailer_MainWallpaper"/>
   </properties>
  </object>
  <object id="131" name="TileData" x="352" y="176" width="16" height="16">
   <properties>
    <property name="kittycatcasey.Stardew3D/WallDefinitionOverride" value="kittycatcasey.Stardew3D/Trailer_MainWallpaper"/>
   </properties>
  </object>
  <object id="132" name="TileData" x="368" y="176" width="16" height="16">
   <properties>
    <property name="kittycatcasey.Stardew3D/WallDefinitionOverride" value="kittycatcasey.Stardew3D/Trailer_MainWallpaper"/>
   </properties>
  </object>
  <object id="133" name="TileData" x="384" y="176" width="16" height="16">
   <properties>
    <property name="kittycatcasey.Stardew3D/WallDefinitionOverride" value="kittycatcasey.Stardew3D/Trailer_MainWallpaper"/>
   </properties>
  </object>
  <object id="134" name="TileData" x="400" y="176" width="16" height="16">
   <properties>
    <property name="kittycatcasey.Stardew3D/WallDefinitionOverride" value="kittycatcasey.Stardew3D/Trailer_MainWallpaper"/>
   </properties>
  </object>
  <object id="135" name="TileData" x="416" y="176" width="16" height="16">
   <properties>
    <property name="kittycatcasey.Stardew3D/WallDefinitionOverride" value="kittycatcasey.Stardew3D/Trailer_MainWallpaper"/>
   </properties>
  </object>
  <object id="136" name="TileData" x="432" y="176" width="16" height="16">
   <properties>
    <property name="kittycatcasey.Stardew3D/WallDefinitionOverride" value="kittycatcasey.Stardew3D/Trailer_MainWallpaper"/>
   </properties>
  </object>
  <object id="137" name="TileData" x="16" y="224" width="16" height="16">
   <properties>
    <property name="kittycatcasey.Stardew3D/WallDefinitionOverride" value="kittycatcasey.Stardew3D/Trailer_PennyWallpaper"/>
   </properties>
  </object>
  <object id="138" name="TileData" x="32" y="224" width="16" height="16">
   <properties>
    <property name="kittycatcasey.Stardew3D/WallDefinitionOverride" value="kittycatcasey.Stardew3D/Trailer_PennyWallpaper"/>
   </properties>
  </object>
  <object id="139" name="TileData" x="48" y="224" width="16" height="16">
   <properties>
    <property name="kittycatcasey.Stardew3D/WallDefinitionOverride" value="kittycatcasey.Stardew3D/Trailer_PennyWallpaper"/>
   </properties>
  </object>
  <object id="140" name="TileData" x="80" y="224" width="16" height="16">
   <properties>
    <property name="kittycatcasey.Stardew3D/WallDefinitionOverride" value="kittycatcasey.Stardew3D/Trailer_PennyWallpaper"/>
   </properties>
  </object>
  <object id="141" name="TileData" x="96" y="224" width="16" height="16">
   <properties>
    <property name="kittycatcasey.Stardew3D/WallDefinitionOverride" value="kittycatcasey.Stardew3D/Trailer_PennyWallpaper"/>
   </properties>
  </object>
  <object id="142" name="TileData" x="336" y="304" width="16" height="16">
   <properties>
    <property name="kittycatcasey.Stardew3D/WallDefinitionOverride" value="kittycatcasey.Stardew3D/Trailer_PennyWallpaper"/>
   </properties>
  </object>
  <object id="143" name="TileData" x="352" y="336" width="16" height="16">
   <properties>
    <property name="kittycatcasey.Stardew3D/WallDefinitionOverride" value="kittycatcasey.Stardew3D/Trailer_PennyWallpaper"/>
   </properties>
  </object>
  <object id="144" name="TileData" x="368" y="336" width="16" height="16">
   <properties>
    <property name="kittycatcasey.Stardew3D/WallDefinitionOverride" value="kittycatcasey.Stardew3D/Trailer_PennyWallpaper"/>
   </properties>
  </object>
  <object id="145" name="TileData" x="384" y="336" width="16" height="16">
   <properties>
    <property name="kittycatcasey.Stardew3D/WallDefinitionOverride" value="kittycatcasey.Stardew3D/Trailer_PennyWallpaper"/>
   </properties>
  </object>
  <object id="146" name="TileData" x="400" y="336" width="16" height="16">
   <properties>
    <property name="kittycatcasey.Stardew3D/WallDefinitionOverride" value="kittycatcasey.Stardew3D/Trailer_PennyWallpaper"/>
   </properties>
  </object>
  <object id="147" name="TileData" x="416" y="336" width="16" height="16">
   <properties>
    <property name="kittycatcasey.Stardew3D/WallDefinitionOverride" value="kittycatcasey.Stardew3D/Trailer_PennyWallpaper"/>
   </properties>
  </object>
  <object id="148" name="TileData" x="432" y="336" width="16" height="16">
   <properties>
    <property name="kittycatcasey.Stardew3D/WallDefinitionOverride" value="kittycatcasey.Stardew3D/Trailer_PennyWallpaper"/>
   </properties>
  </object>
  <object id="149" name="TileData" x="448" y="336" width="16" height="16">
   <properties>
    <property name="kittycatcasey.Stardew3D/WallDefinitionOverride" value="kittycatcasey.Stardew3D/Trailer_PennyWallpaper"/>
   </properties>
  </object>
  <object id="150" name="TileData" x="64" y="368" width="16" height="16">
   <properties>
    <property name="kittycatcasey.Stardew3D/WallDefinitionOverride" value="kittycatcasey.Stardew3D/TrailerBig_EntryWallpaper"/>
   </properties>
  </object>
  <object id="151" name="TileData" x="80" y="368" width="16" height="16">
   <properties>
    <property name="kittycatcasey.Stardew3D/WallDefinitionOverride" value="kittycatcasey.Stardew3D/TrailerBig_EntryWallpaper"/>
   </properties>
  </object>
  <object id="152" name="TileData" x="96" y="368" width="16" height="16">
   <properties>
    <property name="kittycatcasey.Stardew3D/WallDefinitionOverride" value="kittycatcasey.Stardew3D/TrailerBig_EntryWallpaper"/>
   </properties>
  </object>
  <object id="153" name="TileData" x="112" y="368" width="16" height="16">
   <properties>
    <property name="kittycatcasey.Stardew3D/WallDefinitionOverride" value="kittycatcasey.Stardew3D/TrailerBig_EntryWallpaper"/>
   </properties>
  </object>
  <object id="154" name="TileData" x="128" y="368" width="16" height="16">
   <properties>
    <property name="kittycatcasey.Stardew3D/WallDefinitionOverride" value="kittycatcasey.Stardew3D/TrailerBig_EntryWallpaper"/>
   </properties>
  </object>
  <object id="155" name="TileData" x="144" y="368" width="16" height="16">
   <properties>
    <property name="kittycatcasey.Stardew3D/WallDefinitionOverride" value="kittycatcasey.Stardew3D/TrailerBig_EntryWallpaper"/>
   </properties>
  </object>
  <object id="156" name="TileData" x="160" y="368" width="16" height="16">
   <properties>
    <property name="kittycatcasey.Stardew3D/WallDefinitionOverride" value="kittycatcasey.Stardew3D/TrailerBig_EntryWallpaper"/>
   </properties>
  </object>
  <object id="157" name="TileData" x="256" y="368" width="16" height="16">
   <properties>
    <property name="kittycatcasey.Stardew3D/WallDefinitionOverride" value="kittycatcasey.Stardew3D/TrailerBig_EntryWallpaper"/>
   </properties>
  </object>
  <object id="158" name="TileData" x="272" y="368" width="16" height="16">
   <properties>
    <property name="kittycatcasey.Stardew3D/WallDefinitionOverride" value="kittycatcasey.Stardew3D/TrailerBig_EntryWallpaper"/>
   </properties>
  </object>
  <object id="159" name="TileData" x="288" y="368" width="16" height="16">
   <properties>
    <property name="kittycatcasey.Stardew3D/WallDefinitionOverride" value="kittycatcasey.Stardew3D/TrailerBig_EntryWallpaper"/>
   </properties>
  </object>
  <object id="160" name="TileData" x="304" y="368" width="16" height="16">
   <properties>
    <property name="kittycatcasey.Stardew3D/WallDefinitionOverride" value="kittycatcasey.Stardew3D/TrailerBig_EntryWallpaper"/>
   </properties>
  </object>
  <object id="161" name="TileData" x="320" y="368" width="16" height="16">
   <properties>
    <property name="kittycatcasey.Stardew3D/WallDefinitionOverride" value="kittycatcasey.Stardew3D/TrailerBig_EntryWallpaper"/>
   </properties>
  </object>
  <object id="162" name="TileData" x="176" y="400" width="16" height="16">
   <properties>
    <property name="kittycatcasey.Stardew3D/WallDefinitionOverride" value="kittycatcasey.Stardew3D/TrailerBig_EntryWallpaper"/>
   </properties>
  </object>
  <object id="163" name="TileData" x="192" y="400" width="16" height="16">
   <properties>
    <property name="kittycatcasey.Stardew3D/WallDefinitionOverride" value="kittycatcasey.Stardew3D/TrailerBig_EntryWallpaper"/>
   </properties>
  </object>
  <object id="164" name="TileData" x="208" y="400" width="16" height="16">
   <properties>
    <property name="kittycatcasey.Stardew3D/WallDefinitionOverride" value="kittycatcasey.Stardew3D/TrailerBig_EntryWallpaper"/>
   </properties>
  </object>
  <object id="165" name="TileData" x="224" y="400" width="16" height="16">
   <properties>
    <property name="kittycatcasey.Stardew3D/WallDefinitionOverride" value="kittycatcasey.Stardew3D/TrailerBig_EntryWallpaper"/>
   </properties>
  </object>
  <object id="166" name="TileData" x="240" y="400" width="16" height="16">
   <properties>
    <property name="kittycatcasey.Stardew3D/WallDefinitionOverride" value="kittycatcasey.Stardew3D/TrailerBig_EntryWallpaper"/>
   </properties>
  </object>
 </objectgroup>
</map>