<?xml version="1.0" encoding="UTF-8"?>
<map version="1.4" tiledversion="1.4.2" orientation="orthogonal" renderorder="right-down" compressionlevel="0" width="14" height="25" tilewidth="16" tileheight="16" infinite="0" nextlayerid="17" nextobjectid="91">
 
 <tileset firstgid="1" name="p" tilewidth="16" tileheight="16" tilecount="64" columns="4">
  <image source="paths" width="64" height="256"/>
 </tileset>
 <tileset firstgid="65" name="untitled tile sheet" tilewidth="16" tileheight="16" tilecount="2176" columns="32">
  <image source="townInterior" width="512" height="1088"/>
 </tileset>
 <tileset firstgid="2241" name="v16_TownInterior_2" tilewidth="16" tileheight="16" tilecount="1312" columns="32">
  <image source="townInterior_2" width="512" height="656"/>
 </tileset>
 <tileset firstgid="3553" name="z_dataValues3d" tilewidth="16" tileheight="16" tilecount="512" columns="32">
  <image source="ThirdDimensionData/data" width="512" height="256"/>
 </tileset>
 <layer id="1" name="kittycatcasey.Stardew3D/FloorData_Center" width="14" height="25">
  <data encoding="csv">
0,0,0,0,0,0,0,0,0,0,0,0,0,0,
0,0,0,0,0,0,0,0,0,0,0,0,0,0,
0,0,0,0,0,0,0,0,0,0,0,0,0,0,
0,0,0,0,0,0,0,0,0,0,0,0,0,0,
0,3649,3649,3649,3649,3649,3649,3649,3649,3649,3649,3649,3649,0,
0,3649,3649,3649,3649,3649,3649,3649,3649,3649,3649,3649,3649,0,
0,3649,3649,3649,3649,3649,3649,3649,3649,3649,3649,3649,3649,0,
0,3649,3649,3649,3649,3649,3649,3649,3649,3649,3649,3649,3649,0,
0,0,0,0,0,0,0,3649,3649,0,0,0,0,0,
0,0,0,0,0,0,0,3617,3617,0,0,0,0,0,
0,0,0,0,0,0,0,3585,3585,0,0,0,0,0,
0,0,0,0,0,0,0,3585,3585,0,0,0,0,0,
0,3585,3585,3585,0,0,0,3585,3585,3585,3585,3585,3585,0,
0,3585,3585,3585,0,0,0,3585,3585,3585,3585,3585,3585,0,
0,3585,3585,3585,3585,3585,3585,3585,3585,3585,3585,3585,3585,0,
0,3585,3585,3585,3585,3585,3585,3585,3585,3585,3585,3585,3585,0,
0,3585,3585,3585,3585,3585,3585,3585,3585,3585,3585,3585,3585,0,
0,3585,3585,3585,3585,3585,3585,3585,3585,3585,3585,3585,3585,0,
0,3585,3585,3585,3585,3585,3585,3585,3585,3585,3585,3585,3585,0,
0,3585,3585,3585,3585,3585,3585,3585,3585,3585,3585,3585,3585,0,
0,3585,3585,3585,3585,3585,3585,3585,3585,3585,3585,3585,3585,0,
0,3585,3585,3585,3585,3585,3585,3585,3585,3585,3585,3585,3585,0,
0,3585,3585,3585,3585,3585,3585,3585,3585,3585,3585,3585,3585,0,
0,3585,3585,3585,3585,3585,3585,3585,3585,3585,3585,3585,3585,0,
0,0,0,0,0,0,0,0,3553,0,0,0,0,0
</data>
 </layer>
 <layer id="2" name="kittycatcasey.Stardew3D/FloorData_North" width="14" height="25">
  <data encoding="csv">
0,0,0,0,0,0,0,0,0,0,0,0,0,0,
0,0,0,0,0,0,0,0,0,0,0,0,0,0,
0,0,0,0,0,0,0,0,0,0,0,0,0,0,
0,0,0,0,0,0,0,0,0,0,0,0,0,0,
0,0,0,0,0,0,0,0,0,0,0,0,0,0,
0,0,0,0,0,0,0,0,0,0,0,0,0,0,
0,0,0,0,0,0,0,0,0,0,0,0,0,0,
0,0,0,0,0,0,0,0,0,0,0,0,0,0,
0,0,0,0,0,0,0,0,0,0,0,0,0,0,
0,0,0,0,0,0,0,3585,3585,0,0,0,0,0,
0,0,0,0,0,0,0,3585,3585,0,0,0,0,0,
0,0,0,0,0,0,0,0,0,0,0,0,0,0,
0,0,0,0,0,0,0,0,0,0,0,0,0,0,
0,0,0,0,0,0,0,0,0,0,0,0,0,0,
0,0,0,0,0,0,0,0,0,0,0,0,0,0,
0,0,0,0,0,0,0,0,0,0,0,0,0,0,
0,0,0,0,0,0,0,0,0,0,0,0,0,0,
0,0,0,0,0,0,0,0,0,0,0,0,0,0,
0,0,0,0,0,0,0,0,0,0,0,0,0,0,
0,0,0,0,0,0,0,0,0,0,0,0,0,0,
0,0,0,0,0,0,0,0,0,0,0,0,0,0,
0,0,0,0,0,0,0,0,0,0,0,0,0,0,
0,0,0,0,0,0,0,0,0,0,0,0,0,0,
0,0,0,0,0,0,0,0,0,0,0,0,0,0,
0,0,0,0,0,0,0,0,3585,0,0,0,0,0
</data>
 </layer>
 <layer id="3" name="kittycatcasey.Stardew3D/CeilingData_Center" width="14" height="25">
  <data encoding="csv">
0,0,0,0,0,0,0,0,0,0,0,0,0,0,
0,0,0,0,0,0,0,0,0,0,0,0,0,0,
0,0,0,0,0,0,0,0,0,0,0,0,0,0,
0,0,0,0,0,0,0,0,0,0,0,0,0,0,
0,3745,3745,3745,3745,3745,3745,3745,3745,3745,3745,3745,3745,0,
0,3745,3745,3745,3745,3745,3745,3745,3745,3745,3745,3745,3745,0,
0,3745,3745,3745,3745,3745,3745,3745,3745,3745,3745,3745,3745,0,
0,3745,3745,3745,3745,3745,3745,3745,3745,3745,3745,3745,3745,0,
0,0,0,0,0,0,0,3745,3745,0,0,0,0,0,
0,0,0,0,0,0,0,3713,3713,0,0,0,0,0,
0,0,0,0,0,0,0,3681,3681,0,0,0,0,0,
0,0,0,0,0,0,0,3681,3681,0,0,0,0,0,
0,3681,3681,3681,0,0,0,3681,3681,3681,3681,3681,3681,0,
0,3681,3681,3681,0,0,0,3681,3681,3681,3681,3681,3681,0,
0,3681,3681,3681,3681,3681,3681,3681,3681,3681,3681,3681,3681,0,
0,3681,3681,3681,3681,3681,3681,3681,3681,3681,3681,3681,3681,0,
0,3681,3681,3681,3681,3681,3681,3681,3681,3681,3681,3681,3681,0,
0,3681,3681,3681,3681,3681,3681,3681,3681,3681,3681,3681,3681,0,
0,3681,3681,3681,3681,3681,3681,3681,3681,3681,3681,3681,3681,0,
0,3681,3681,3681,3681,3681,3681,3681,3681,3681,3681,3681,3681,0,
0,3681,3681,3681,3681,3681,3681,3681,3681,3681,3681,3681,3681,0,
0,3681,3681,3681,3681,3681,3681,3681,3681,3681,3681,3681,3681,0,
0,3681,3681,3681,3681,3681,3681,3681,3681,3681,3681,3681,3681,0,
0,3681,3681,3681,3681,3681,3681,3681,3681,3681,3681,3681,3681,0,
0,0,0,0,0,0,0,0,3681,0,0,0,0,0
</data>
 </layer>
 <layer id="4" name="kittycatcasey.Stardew3D/CeilingData_North" width="14" height="25">
  <data encoding="csv">
0,0,0,0,0,0,0,0,0,0,0,0,0,0,
0,0,0,0,0,0,0,0,0,0,0,0,0,0,
0,0,0,0,0,0,0,0,0,0,0,0,0,0,
0,0,0,0,0,0,0,0,0,0,0,0,0,0,
0,0,0,0,0,0,0,0,0,0,0,0,0,0,
0,0,0,0,0,0,0,0,0,0,0,0,0,0,
0,0,0,0,0,0,0,0,0,0,0,0,0,0,
0,0,0,0,0,0,0,0,0,0,0,0,0,0,
0,0,0,0,0,0,0,0,0,0,0,0,0,0,
0,0,0,0,0,0,0,3585,3585,0,0,0,0,0,
0,0,0,0,0,0,0,3585,3585,0,0,0,0,0,
0,0,0,0,0,0,0,0,0,0,0,0,0,0,
0,0,0,0,0,0,0,0,0,0,0,0,0,0,
0,0,0,0,0,0,0,0,0,0,0,0,0,0,
0,0,0,0,0,0,0,0,0,0,0,0,0,0,
0,0,0,0,0,0,0,0,0,0,0,0,0,0,
0,0,0,0,0,0,0,0,0,0,0,0,0,0,
0,0,0,0,0,0,0,0,0,0,0,0,0,0,
0,0,0,0,0,0,0,0,0,0,0,0,0,0,
0,0,0,0,0,0,0,0,0,0,0,0,0,0,
0,0,0,0,0,0,0,0,0,0,0,0,0,0,
0,0,0,0,0,0,0,0,0,0,0,0,0,0,
0,0,0,0,0,0,0,0,0,0,0,0,0,0,
0,0,0,0,0,0,0,0,0,0,0,0,0,0,
0,0,0,0,0,0,0,0,0,0,0,0,0,0
</data>
 </layer>
 <layer id="5" name="kittycatcasey.Stardew3D/WallData_South" width="14" height="25">
  <data encoding="csv">
0,0,0,0,0,0,0,0,0,0,0,0,0,0,
0,0,0,0,0,0,0,0,0,0,0,0,0,0,
0,0,0,0,0,0,0,0,0,0,0,0,0,0,
0,0,0,0,0,0,0,0,0,0,0,0,0,0,
0,0,0,0,0,0,0,0,0,0,0,0,0,0,
0,0,0,0,0,0,0,0,0,0,0,0,0,0,
0,0,0,0,0,0,0,0,0,0,0,0,0,0,
0,3553,3553,3553,3553,3553,3553,0,0,3553,3553,3553,3553,0,
0,0,0,0,0,0,0,0,0,0,0,0,0,0,
0,0,0,0,0,0,0,0,0,0,0,0,0,0,
0,0,0,0,0,0,0,0,0,0,0,0,0,0,
0,0,0,0,0,0,0,0,0,0,0,0,0,0,
0,0,0,0,0,0,0,0,0,0,0,0,0,0,
0,0,0,0,0,0,0,0,0,0,0,0,0,0,
0,0,0,0,0,0,0,0,0,0,0,0,0,0,
0,0,0,0,0,0,0,0,0,0,0,0,0,0,
0,0,0,0,0,0,0,0,0,0,0,0,0,0,
0,0,0,0,0,0,0,0,0,0,0,0,0,0,
0,0,0,0,0,0,0,0,0,0,0,0,0,0,
0,0,0,0,0,0,0,0,0,0,0,0,0,0,
0,0,0,0,0,0,0,0,0,0,0,0,0,0,
0,0,0,0,0,0,0,0,0,0,0,0,0,0,
0,0,0,0,0,0,0,0,0,0,0,0,0,0,
0,3553,3553,3553,3553,3553,3553,3553,0,3553,3553,3553,3553,0,
0,0,0,0,0,0,0,0,3553,0,0,0,0,0
</data>
 </layer>
 <layer id="6" name="kittycatcasey.Stardew3D/WallData_West" width="14" height="25">
  <data encoding="csv">
0,0,0,0,0,0,0,0,0,0,0,0,0,0,
0,0,0,0,0,0,0,0,0,0,0,0,0,0,
0,0,0,0,0,0,0,0,0,0,0,0,0,0,
0,0,0,0,0,0,0,0,0,0,0,0,0,0,
0,3553,0,0,0,0,0,0,0,0,0,0,0,0,
0,3553,0,0,0,0,0,0,0,0,0,0,0,0,
0,3553,0,0,0,0,0,0,0,0,0,0,0,0,
0,3553,0,0,0,0,0,0,0,0,0,0,0,0,
0,0,0,0,0,0,0,3553,0,0,0,0,0,0,
0,0,0,0,0,0,0,3553,0,0,0,0,0,0,
0,0,0,0,0,0,0,3553,0,0,0,0,0,0,
0,0,0,0,0,0,0,3553,0,0,0,0,0,0,
0,3553,0,0,0,0,0,3553,0,0,0,0,0,0,
0,3553,0,0,0,0,0,3553,0,0,0,0,0,0,
0,3553,0,0,0,0,0,0,0,0,0,0,0,0,
0,3553,0,0,0,0,0,0,0,0,0,0,0,0,
0,3553,0,0,0,0,0,0,0,0,0,0,0,0,
0,3553,0,0,0,0,0,0,0,0,0,0,0,0,
0,3553,0,0,0,0,0,0,0,0,0,0,0,0,
0,3553,0,0,0,0,0,0,0,0,0,0,0,0,
0,3553,0,0,0,0,0,0,0,0,0,0,0,0,
0,3553,0,0,0,0,0,0,0,0,0,0,0,0,
0,3553,0,0,0,0,0,0,0,0,0,0,0,0,
0,3553,0,0,0,0,0,0,0,0,0,0,0,0,
0,0,0,0,0,0,0,0,3553,0,0,0,0,0
</data>
 </layer>
 <layer id="7" name="kittycatcasey.Stardew3D/WallData_East" width="14" height="25">
  <data encoding="csv">
0,0,0,0,0,0,0,0,0,0,0,0,0,0,
0,0,0,0,0,0,0,0,0,0,0,0,0,0,
0,0,0,0,0,0,0,0,0,0,0,0,0,0,
0,0,0,0,0,0,0,0,0,0,0,0,0,0,
0,0,0,0,0,0,0,0,0,0,0,0,3553,0,
0,0,0,0,0,0,0,0,0,0,0,0,3553,0,
0,0,0,0,0,0,0,0,0,0,0,0,3553,0,
0,0,0,0,0,0,0,0,0,0,0,0,3553,0,
0,0,0,0,0,0,0,0,3553,0,0,0,0,0,
0,0,0,0,0,0,0,0,3553,0,0,0,0,0,
0,0,0,0,0,0,0,0,3553,0,0,0,0,0,
0,0,0,0,0,0,0,0,3553,0,0,0,0,0,
0,0,0,3553,0,0,0,0,0,0,0,0,3553,0,
0,0,0,3553,0,0,0,0,0,0,0,0,3553,0,
0,0,0,0,0,0,0,0,0,0,0,0,3553,0,
0,0,0,0,0,0,0,0,0,0,0,0,3553,0,
0,0,0,0,0,0,0,0,0,0,0,0,3553,0,
0,0,0,0,0,0,0,0,0,0,0,0,3553,0,
0,0,0,0,0,0,0,0,0,0,0,0,3553,0,
0,0,0,0,0,0,0,0,0,0,0,0,3553,0,
0,0,0,0,0,0,0,0,0,0,0,0,3553,0,
0,0,0,0,0,0,0,0,0,0,0,0,3553,0,
0,0,0,0,0,0,0,0,0,0,0,0,3553,0,
0,0,0,0,0,0,0,0,0,0,0,0,3553,0,
0,0,0,0,0,0,0,0,3553,0,0,0,0,0
</data>
 </layer>
 <layer id="8" name="kittycatcasey.Stardew3D/WallData_North" width="14" height="25">
  <data encoding="csv">
0,0,0,0,0,0,0,0,0,0,0,0,0,0,
0,0,0,0,0,0,0,0,0,0,0,0,0,0,
0,0,0,0,0,0,0,0,0,0,0,0,0,0,
0,0,0,0,0,0,0,0,0,0,0,0,0,0,
0,3553,3553,3553,3553,3553,3553,3553,3553,3553,3553,3553,3553,0,
0,0,0,0,0,0,0,0,0,0,0,0,0,0,
0,0,0,0,0,0,0,0,0,0,0,0,0,0,
0,0,0,0,0,0,0,0,0,0,0,0,0,0,
0,0,0,0,0,0,0,0,0,0,0,0,0,0,
0,0,0,0,0,0,0,0,0,0,0,0,0,0,
0,0,0,0,0,0,0,0,0,0,0,0,0,0,
0,0,0,0,0,0,0,0,0,0,0,0,0,0,
0,3553,3553,3553,0,0,0,0,0,3553,3553,3553,3553,0,
0,0,0,0,0,0,0,0,0,0,0,0,0,0,
0,0,0,0,3553,3553,3553,0,0,0,0,0,0,0,
0,0,0,0,0,0,0,0,0,0,0,0,0,0,
0,0,0,0,0,0,0,0,0,0,0,0,0,0,
0,0,0,0,0,0,0,0,0,0,0,0,0,0,
0,0,0,0,0,0,0,0,0,0,0,0,0,0,
0,0,0,0,0,0,0,0,0,0,0,0,0,0,
0,0,0,0,0,0,0,0,0,0,0,0,0,0,
0,0,0,0,0,0,0,0,0,0,0,0,0,0,
0,0,0,0,0,0,0,0,0,0,0,0,0,0,
0,0,0,0,0,0,0,0,0,0,0,0,0,0,
0,0,0,0,0,0,0,0,0,0,0,0,0,0
</data>
 </layer>
 <objectgroup id="9" name="kittycatcasey.Stardew3D/FloorData_Center"/>
 <objectgroup id="10" name="kittycatcasey.Stardew3D/FloorData_North"/>
 <objectgroup id="11" name="kittycatcasey.Stardew3D/CeilingData_Center"/>
 <objectgroup id="12" name="kittycatcasey.Stardew3D/CeilingData_North"/>
 <objectgroup id="13" name="kittycatcasey.Stardew3D/WallData_South">
  <object id="1" name="TileData" x="16" y="112" width="16" height="16">
   <properties>
    <property name="kittycatcasey.Stardew3D/WallDefinitionOverride" value="kittycatcasey.Stardew3D/WizardHouse_Walls"/>
   </properties>
  </object>
  <object id="2" name="TileData" x="32" y="112" width="16" height="16">
   <properties>
    <property name="kittycatcasey.Stardew3D/WallDefinitionOverride" value="kittycatcasey.Stardew3D/WizardHouse_Walls"/>
   </properties>
  </object>
  <object id="3" name="TileData" x="48" y="112" width="16" height="16">
   <properties>
    <property name="kittycatcasey.Stardew3D/WallDefinitionOverride" value="kittycatcasey.Stardew3D/WizardHouse_Walls"/>
   </properties>
  </object>
  <object id="4" name="TileData" x="64" y="112" width="16" height="16">
   <properties>
    <property name="kittycatcasey.Stardew3D/WallDefinitionOverride" value="kittycatcasey.Stardew3D/WizardHouse_Walls"/>
   </properties>
  </object>
  <object id="5" name="TileData" x="80" y="112" width="16" height="16">
   <properties>
    <property name="kittycatcasey.Stardew3D/WallDefinitionOverride" value="kittycatcasey.Stardew3D/WizardHouse_Walls"/>
   </properties>
  </object>
  <object id="6" name="TileData" x="96" y="112" width="16" height="16">
   <properties>
    <property name="kittycatcasey.Stardew3D/WallDefinitionOverride" value="kittycatcasey.Stardew3D/WizardHouse_Walls"/>
   </properties>
  </object>
  <object id="7" name="TileData" x="144" y="112" width="16" height="16">
   <properties>
    <property name="kittycatcasey.Stardew3D/WallDefinitionOverride" value="kittycatcasey.Stardew3D/WizardHouse_Walls"/>
   </properties>
  </object>
  <object id="8" name="TileData" x="160" y="112" width="16" height="16">
   <properties>
    <property name="kittycatcasey.Stardew3D/WallDefinitionOverride" value="kittycatcasey.Stardew3D/WizardHouse_Walls"/>
   </properties>
  </object>
  <object id="9" name="TileData" x="176" y="112" width="16" height="16">
   <properties>
    <property name="kittycatcasey.Stardew3D/WallDefinitionOverride" value="kittycatcasey.Stardew3D/WizardHouse_Walls"/>
   </properties>
  </object>
  <object id="10" name="TileData" x="192" y="112" width="16" height="16">
   <properties>
    <property name="kittycatcasey.Stardew3D/WallDefinitionOverride" value="kittycatcasey.Stardew3D/WizardHouse_Walls"/>
   </properties>
  </object>
  <object id="11" name="TileData" x="16" y="368" width="16" height="16">
   <properties>
    <property name="kittycatcasey.Stardew3D/WallDefinitionOverride" value="kittycatcasey.Stardew3D/WizardHouse_Walls"/>
   </properties>
  </object>
  <object id="12" name="TileData" x="32" y="368" width="16" height="16">
   <properties>
    <property name="kittycatcasey.Stardew3D/WallDefinitionOverride" value="kittycatcasey.Stardew3D/WizardHouse_Walls"/>
   </properties>
  </object>
  <object id="13" name="TileData" x="48" y="368" width="16" height="16">
   <properties>
    <property name="kittycatcasey.Stardew3D/WallDefinitionOverride" value="kittycatcasey.Stardew3D/WizardHouse_Walls"/>
   </properties>
  </object>
  <object id="14" name="TileData" x="64" y="368" width="16" height="16">
   <properties>
    <property name="kittycatcasey.Stardew3D/WallDefinitionOverride" value="kittycatcasey.Stardew3D/WizardHouse_Walls"/>
   </properties>
  </object>
  <object id="15" name="TileData" x="80" y="368" width="16" height="16">
   <properties>
    <property name="kittycatcasey.Stardew3D/WallDefinitionOverride" value="kittycatcasey.Stardew3D/WizardHouse_Walls"/>
   </properties>
  </object>
  <object id="16" name="TileData" x="96" y="368" width="16" height="16">
   <properties>
    <property name="kittycatcasey.Stardew3D/WallDefinitionOverride" value="kittycatcasey.Stardew3D/WizardHouse_Walls"/>
   </properties>
  </object>
  <object id="17" name="TileData" x="112" y="368" width="16" height="16">
   <properties>
    <property name="kittycatcasey.Stardew3D/WallDefinitionOverride" value="kittycatcasey.Stardew3D/WizardHouse_Walls"/>
   </properties>
  </object>
  <object id="18" name="TileData" x="144" y="368" width="16" height="16">
   <properties>
    <property name="kittycatcasey.Stardew3D/WallDefinitionOverride" value="kittycatcasey.Stardew3D/WizardHouse_Walls"/>
   </properties>
  </object>
  <object id="19" name="TileData" x="160" y="368" width="16" height="16">
   <properties>
    <property name="kittycatcasey.Stardew3D/WallDefinitionOverride" value="kittycatcasey.Stardew3D/WizardHouse_Walls"/>
   </properties>
  </object>
  <object id="20" name="TileData" x="176" y="368" width="16" height="16">
   <properties>
    <property name="kittycatcasey.Stardew3D/WallDefinitionOverride" value="kittycatcasey.Stardew3D/WizardHouse_Walls"/>
   </properties>
  </object>
  <object id="21" name="TileData" x="192" y="368" width="16" height="16">
   <properties>
    <property name="kittycatcasey.Stardew3D/WallDefinitionOverride" value="kittycatcasey.Stardew3D/WizardHouse_Walls"/>
   </properties>
  </object>
  <object id="22" name="TileData" x="128" y="384" width="16" height="16">
   <properties>
    <property name="kittycatcasey.Stardew3D/WallDefinitionOverride" value="kittycatcasey.Stardew3D/WizardHouse_Walls"/>
   </properties>
  </object>
 </objectgroup>
 <objectgroup id="14" name="kittycatcasey.Stardew3D/WallData_West">
  <object id="23" name="TileData" x="16" y="64" width="16" height="16">
   <properties>
    <property name="kittycatcasey.Stardew3D/WallDefinitionOverride" value="kittycatcasey.Stardew3D/WizardHouse_Walls"/>
   </properties>
  </object>
  <object id="24" name="TileData" x="16" y="80" width="16" height="16">
   <properties>
    <property name="kittycatcasey.Stardew3D/WallDefinitionOverride" value="kittycatcasey.Stardew3D/WizardHouse_Walls"/>
   </properties>
  </object>
  <object id="25" name="TileData" x="16" y="96" width="16" height="16">
   <properties>
    <property name="kittycatcasey.Stardew3D/WallDefinitionOverride" value="kittycatcasey.Stardew3D/WizardHouse_Walls"/>
   </properties>
  </object>
  <object id="26" name="TileData" x="16" y="112" width="16" height="16">
   <properties>
    <property name="kittycatcasey.Stardew3D/WallDefinitionOverride" value="kittycatcasey.Stardew3D/WizardHouse_Walls"/>
   </properties>
  </object>
  <object id="27" name="TileData" x="112" y="128" width="16" height="16">
   <properties>
    <property name="kittycatcasey.Stardew3D/WallDefinitionOverride" value="kittycatcasey.Stardew3D/WizardHouse_Walls"/>
   </properties>
  </object>
  <object id="28" name="TileData" x="112" y="144" width="16" height="16">
   <properties>
    <property name="kittycatcasey.Stardew3D/WallDefinitionOverride" value="kittycatcasey.Stardew3D/WizardHouse_Walls"/>
   </properties>
  </object>
  <object id="29" name="TileData" x="112" y="160" width="16" height="16">
   <properties>
    <property name="kittycatcasey.Stardew3D/WallDefinitionOverride" value="kittycatcasey.Stardew3D/WizardHouse_Walls"/>
   </properties>
  </object>
  <object id="30" name="TileData" x="112" y="176" width="16" height="16">
   <properties>
    <property name="kittycatcasey.Stardew3D/WallDefinitionOverride" value="kittycatcasey.Stardew3D/WizardHouse_Walls"/>
   </properties>
  </object>
  <object id="31" name="TileData" x="16" y="192" width="16" height="16">
   <properties>
    <property name="kittycatcasey.Stardew3D/WallDefinitionOverride" value="kittycatcasey.Stardew3D/WizardHouse_Walls"/>
   </properties>
  </object>
  <object id="32" name="TileData" x="112" y="192" width="16" height="16">
   <properties>
    <property name="kittycatcasey.Stardew3D/WallDefinitionOverride" value="kittycatcasey.Stardew3D/WizardHouse_Walls"/>
   </properties>
  </object>
  <object id="33" name="TileData" x="16" y="208" width="16" height="16">
   <properties>
    <property name="kittycatcasey.Stardew3D/WallDefinitionOverride" value="kittycatcasey.Stardew3D/WizardHouse_Walls"/>
   </properties>
  </object>
  <object id="34" name="TileData" x="112" y="208" width="16" height="16">
   <properties>
    <property name="kittycatcasey.Stardew3D/WallDefinitionOverride" value="kittycatcasey.Stardew3D/WizardHouse_Walls"/>
   </properties>
  </object>
  <object id="35" name="TileData" x="16" y="224" width="16" height="16">
   <properties>
    <property name="kittycatcasey.Stardew3D/WallDefinitionOverride" value="kittycatcasey.Stardew3D/WizardHouse_Walls"/>
   </properties>
  </object>
  <object id="36" name="TileData" x="16" y="240" width="16" height="16">
   <properties>
    <property name="kittycatcasey.Stardew3D/WallDefinitionOverride" value="kittycatcasey.Stardew3D/WizardHouse_Walls"/>
   </properties>
  </object>
  <object id="37" name="TileData" x="16" y="256" width="16" height="16">
   <properties>
    <property name="kittycatcasey.Stardew3D/WallDefinitionOverride" value="kittycatcasey.Stardew3D/WizardHouse_Walls"/>
   </properties>
  </object>
  <object id="38" name="TileData" x="16" y="272" width="16" height="16">
   <properties>
    <property name="kittycatcasey.Stardew3D/WallDefinitionOverride" value="kittycatcasey.Stardew3D/WizardHouse_Walls"/>
   </properties>
  </object>
  <object id="39" name="TileData" x="16" y="288" width="16" height="16">
   <properties>
    <property name="kittycatcasey.Stardew3D/WallDefinitionOverride" value="kittycatcasey.Stardew3D/WizardHouse_Walls"/>
   </properties>
  </object>
  <object id="40" name="TileData" x="16" y="304" width="16" height="16">
   <properties>
    <property name="kittycatcasey.Stardew3D/WallDefinitionOverride" value="kittycatcasey.Stardew3D/WizardHouse_Walls"/>
   </properties>
  </object>
  <object id="41" name="TileData" x="16" y="320" width="16" height="16">
   <properties>
    <property name="kittycatcasey.Stardew3D/WallDefinitionOverride" value="kittycatcasey.Stardew3D/WizardHouse_Walls"/>
   </properties>
  </object>
  <object id="42" name="TileData" x="16" y="336" width="16" height="16">
   <properties>
    <property name="kittycatcasey.Stardew3D/WallDefinitionOverride" value="kittycatcasey.Stardew3D/WizardHouse_Walls"/>
   </properties>
  </object>
  <object id="43" name="TileData" x="16" y="352" width="16" height="16">
   <properties>
    <property name="kittycatcasey.Stardew3D/WallDefinitionOverride" value="kittycatcasey.Stardew3D/WizardHouse_Walls"/>
   </properties>
  </object>
  <object id="44" name="TileData" x="16" y="368" width="16" height="16">
   <properties>
    <property name="kittycatcasey.Stardew3D/WallDefinitionOverride" value="kittycatcasey.Stardew3D/WizardHouse_Walls"/>
   </properties>
  </object>
  <object id="45" name="TileData" x="128" y="384" width="16" height="16">
   <properties>
    <property name="kittycatcasey.Stardew3D/WallDefinitionOverride" value="kittycatcasey.Stardew3D/WizardHouse_Walls"/>
   </properties>
  </object>
 </objectgroup>
 <objectgroup id="15" name="kittycatcasey.Stardew3D/WallData_East">
  <object id="46" name="TileData" x="192" y="64" width="16" height="16">
   <properties>
    <property name="kittycatcasey.Stardew3D/WallDefinitionOverride" value="kittycatcasey.Stardew3D/WizardHouse_Walls"/>
   </properties>
  </object>
  <object id="47" name="TileData" x="192" y="80" width="16" height="16">
   <properties>
    <property name="kittycatcasey.Stardew3D/WallDefinitionOverride" value="kittycatcasey.Stardew3D/WizardHouse_Walls"/>
   </properties>
  </object>
  <object id="48" name="TileData" x="192" y="96" width="16" height="16">
   <properties>
    <property name="kittycatcasey.Stardew3D/WallDefinitionOverride" value="kittycatcasey.Stardew3D/WizardHouse_Walls"/>
   </properties>
  </object>
  <object id="49" name="TileData" x="192" y="112" width="16" height="16">
   <properties>
    <property name="kittycatcasey.Stardew3D/WallDefinitionOverride" value="kittycatcasey.Stardew3D/WizardHouse_Walls"/>
   </properties>
  </object>
  <object id="50" name="TileData" x="128" y="128" width="16" height="16">
   <properties>
    <property name="kittycatcasey.Stardew3D/WallDefinitionOverride" value="kittycatcasey.Stardew3D/WizardHouse_Walls"/>
   </properties>
  </object>
  <object id="51" name="TileData" x="128" y="144" width="16" height="16">
   <properties>
    <property name="kittycatcasey.Stardew3D/WallDefinitionOverride" value="kittycatcasey.Stardew3D/WizardHouse_Walls"/>
   </properties>
  </object>
  <object id="52" name="TileData" x="128" y="160" width="16" height="16">
   <properties>
    <property name="kittycatcasey.Stardew3D/WallDefinitionOverride" value="kittycatcasey.Stardew3D/WizardHouse_Walls"/>
   </properties>
  </object>
  <object id="53" name="TileData" x="128" y="176" width="16" height="16">
   <properties>
    <property name="kittycatcasey.Stardew3D/WallDefinitionOverride" value="kittycatcasey.Stardew3D/WizardHouse_Walls"/>
   </properties>
  </object>
  <object id="54" name="TileData" x="48" y="192" width="16" height="16">
   <properties>
    <property name="kittycatcasey.Stardew3D/WallDefinitionOverride" value="kittycatcasey.Stardew3D/WizardHouse_Walls"/>
   </properties>
  </object>
  <object id="55" name="TileData" x="192" y="192" width="16" height="16">
   <properties>
    <property name="kittycatcasey.Stardew3D/WallDefinitionOverride" value="kittycatcasey.Stardew3D/WizardHouse_Walls"/>
   </properties>
  </object>
  <object id="56" name="TileData" x="48" y="208" width="16" height="16">
   <properties>
    <property name="kittycatcasey.Stardew3D/WallDefinitionOverride" value="kittycatcasey.Stardew3D/WizardHouse_Walls"/>
   </properties>
  </object>
  <object id="57" name="TileData" x="192" y="208" width="16" height="16">
   <properties>
    <property name="kittycatcasey.Stardew3D/WallDefinitionOverride" value="kittycatcasey.Stardew3D/WizardHouse_Walls"/>
   </properties>
  </object>
  <object id="58" name="TileData" x="192" y="224" width="16" height="16">
   <properties>
    <property name="kittycatcasey.Stardew3D/WallDefinitionOverride" value="kittycatcasey.Stardew3D/WizardHouse_Walls"/>
   </properties>
  </object>
  <object id="59" name="TileData" x="192" y="240" width="16" height="16">
   <properties>
    <property name="kittycatcasey.Stardew3D/WallDefinitionOverride" value="kittycatcasey.Stardew3D/WizardHouse_Walls"/>
   </properties>
  </object>
  <object id="60" name="TileData" x="192" y="256" width="16" height="16">
   <properties>
    <property name="kittycatcasey.Stardew3D/WallDefinitionOverride" value="kittycatcasey.Stardew3D/WizardHouse_Walls"/>
   </properties>
  </object>
  <object id="61" name="TileData" x="192" y="272" width="16" height="16">
   <properties>
    <property name="kittycatcasey.Stardew3D/WallDefinitionOverride" value="kittycatcasey.Stardew3D/WizardHouse_Walls"/>
   </properties>
  </object>
  <object id="62" name="TileData" x="192" y="288" width="16" height="16">
   <properties>
    <property name="kittycatcasey.Stardew3D/WallDefinitionOverride" value="kittycatcasey.Stardew3D/WizardHouse_Walls"/>
   </properties>
  </object>
  <object id="63" name="TileData" x="192" y="304" width="16" height="16">
   <properties>
    <property name="kittycatcasey.Stardew3D/WallDefinitionOverride" value="kittycatcasey.Stardew3D/WizardHouse_Walls"/>
   </properties>
  </object>
  <object id="64" name="TileData" x="192" y="320" width="16" height="16">
   <properties>
    <property name="kittycatcasey.Stardew3D/WallDefinitionOverride" value="kittycatcasey.Stardew3D/WizardHouse_Walls"/>
   </properties>
  </object>
  <object id="65" name="TileData" x="192" y="336" width="16" height="16">
   <properties>
    <property name="kittycatcasey.Stardew3D/WallDefinitionOverride" value="kittycatcasey.Stardew3D/WizardHouse_Walls"/>
   </properties>
  </object>
  <object id="66" name="TileData" x="192" y="352" width="16" height="16">
   <properties>
    <property name="kittycatcasey.Stardew3D/WallDefinitionOverride" value="kittycatcasey.Stardew3D/WizardHouse_Walls"/>
   </properties>
  </object>
  <object id="67" name="TileData" x="192" y="368" width="16" height="16">
   <properties>
    <property name="kittycatcasey.Stardew3D/WallDefinitionOverride" value="kittycatcasey.Stardew3D/WizardHouse_Walls"/>
   </properties>
  </object>
  <object id="68" name="TileData" x="128" y="384" width="16" height="16">
   <properties>
    <property name="kittycatcasey.Stardew3D/WallDefinitionOverride" value="kittycatcasey.Stardew3D/WizardHouse_Walls"/>
   </properties>
  </object>
 </objectgroup>
 <objectgroup id="16" name="kittycatcasey.Stardew3D/WallData_North">
  <object id="69" name="TileData" x="16" y="64" width="16" height="16">
   <properties>
    <property name="kittycatcasey.Stardew3D/WallDefinitionOverride" value="kittycatcasey.Stardew3D/WizardHouse_Walls"/>
   </properties>
  </object>
  <object id="70" name="TileData" x="32" y="64" width="16" height="16">
   <properties>
    <property name="kittycatcasey.Stardew3D/WallDefinitionOverride" value="kittycatcasey.Stardew3D/WizardHouse_Walls"/>
   </properties>
  </object>
  <object id="71" name="TileData" x="48" y="64" width="16" height="16">
   <properties>
    <property name="kittycatcasey.Stardew3D/WallDefinitionOverride" value="kittycatcasey.Stardew3D/WizardHouse_Walls"/>
   </properties>
  </object>
  <object id="72" name="TileData" x="64" y="64" width="16" height="16">
   <properties>
    <property name="kittycatcasey.Stardew3D/WallDefinitionOverride" value="kittycatcasey.Stardew3D/WizardHouse_Walls"/>
   </properties>
  </object>
  <object id="73" name="TileData" x="80" y="64" width="16" height="16">
   <properties>
    <property name="kittycatcasey.Stardew3D/WallDefinitionOverride" value="kittycatcasey.Stardew3D/WizardHouse_Walls"/>
   </properties>
  </object>
  <object id="74" name="TileData" x="96" y="64" width="16" height="16">
   <properties>
    <property name="kittycatcasey.Stardew3D/WallDefinitionOverride" value="kittycatcasey.Stardew3D/WizardHouse_Walls"/>
   </properties>
  </object>
  <object id="75" name="TileData" x="112" y="64" width="16" height="16">
   <properties>
    <property name="kittycatcasey.Stardew3D/WallDefinitionOverride" value="kittycatcasey.Stardew3D/WizardHouse_Walls"/>
   </properties>
  </object>
  <object id="76" name="TileData" x="128" y="64" width="16" height="16">
   <properties>
    <property name="kittycatcasey.Stardew3D/WallDefinitionOverride" value="kittycatcasey.Stardew3D/WizardHouse_Walls"/>
   </properties>
  </object>
  <object id="77" name="TileData" x="144" y="64" width="16" height="16">
   <properties>
    <property name="kittycatcasey.Stardew3D/WallDefinitionOverride" value="kittycatcasey.Stardew3D/WizardHouse_Walls"/>
   </properties>
  </object>
  <object id="78" name="TileData" x="160" y="64" width="16" height="16">
   <properties>
    <property name="kittycatcasey.Stardew3D/WallDefinitionOverride" value="kittycatcasey.Stardew3D/WizardHouse_Walls"/>
   </properties>
  </object>
  <object id="79" name="TileData" x="176" y="64" width="16" height="16">
   <properties>
    <property name="kittycatcasey.Stardew3D/WallDefinitionOverride" value="kittycatcasey.Stardew3D/WizardHouse_Walls"/>
   </properties>
  </object>
  <object id="80" name="TileData" x="192" y="64" width="16" height="16">
   <properties>
    <property name="kittycatcasey.Stardew3D/WallDefinitionOverride" value="kittycatcasey.Stardew3D/WizardHouse_Walls"/>
   </properties>
  </object>
  <object id="81" name="TileData" x="16" y="192" width="16" height="16">
   <properties>
    <property name="kittycatcasey.Stardew3D/WallDefinitionOverride" value="kittycatcasey.Stardew3D/WizardHouse_Walls"/>
   </properties>
  </object>
  <object id="82" name="TileData" x="32" y="192" width="16" height="16">
   <properties>
    <property name="kittycatcasey.Stardew3D/WallDefinitionOverride" value="kittycatcasey.Stardew3D/WizardHouse_Walls"/>
   </properties>
  </object>
  <object id="83" name="TileData" x="48" y="192" width="16" height="16">
   <properties>
    <property name="kittycatcasey.Stardew3D/WallDefinitionOverride" value="kittycatcasey.Stardew3D/WizardHouse_Walls"/>
   </properties>
  </object>
  <object id="84" name="TileData" x="144" y="192" width="16" height="16">
   <properties>
    <property name="kittycatcasey.Stardew3D/WallDefinitionOverride" value="kittycatcasey.Stardew3D/WizardHouse_Walls"/>
   </properties>
  </object>
  <object id="85" name="TileData" x="160" y="192" width="16" height="16">
   <properties>
    <property name="kittycatcasey.Stardew3D/WallDefinitionOverride" value="kittycatcasey.Stardew3D/WizardHouse_Walls"/>
   </properties>
  </object>
  <object id="86" name="TileData" x="176" y="192" width="16" height="16">
   <properties>
    <property name="kittycatcasey.Stardew3D/WallDefinitionOverride" value="kittycatcasey.Stardew3D/WizardHouse_Walls"/>
   </properties>
  </object>
  <object id="87" name="TileData" x="192" y="192" width="16" height="16">
   <properties>
    <property name="kittycatcasey.Stardew3D/WallDefinitionOverride" value="kittycatcasey.Stardew3D/WizardHouse_Walls"/>
   </properties>
  </object>
  <object id="88" name="TileData" x="64" y="224" width="16" height="16">
   <properties>
    <property name="kittycatcasey.Stardew3D/WallDefinitionOverride" value="kittycatcasey.Stardew3D/WizardHouse_Walls"/>
   </properties>
  </object>
  <object id="89" name="TileData" x="80" y="224" width="16" height="16">
   <properties>
    <property name="kittycatcasey.Stardew3D/WallDefinitionOverride" value="kittycatcasey.Stardew3D/WizardHouse_Walls"/>
   </properties>
  </object>
  <object id="90" name="TileData" x="96" y="224" width="16" height="16">
   <properties>
    <property name="kittycatcasey.Stardew3D/WallDefinitionOverride" value="kittycatcasey.Stardew3D/WizardHouse_Walls"/>
   </properties>
  </object>
 </objectgroup>
</map>